src/apps/iosdisplay/iosdisplay/OpenColorIOConfigs/spi-anim/luts/correction.spi1d
Version 1
From 0.0 1.0
Components 1
Length 2048
{
	0.027451
	0.028917
	0.030382
	0.031848
	0.033313
	0.034779
	0.036244
	0.037710
	0.039175
	0.040641
	0.042107
	0.043572
	0.045038
	0.046503
	0.047969
	0.049434
	0.050900
	0.051596
	0.052247
	0.052899
	0.053550
	0.054201
	0.054853
	0.055504
	0.056156
	0.056807
	0.057458
	0.058110
	0.058761
	0.059412
	0.060064
	0.060715
	0.061366
	0.062018
	0.062669
	0.063320
	0.063972
	0.064623
	0.065275
	0.065926
	0.066577
	0.067229
	0.067880
	0.068531
	0.069183
	0.069834
	0.070485
	0.071137
	0.071788
	0.072440
	0.073091
	0.073742
	0.074394
	0.075045
	0.075696
	0.076348
	0.076999
	0.077650
	0.078302
	0.078953
	0.079604
	0.080256
	0.080907
	0.081559
	0.082210
	0.082861
	0.083513
	0.084164
	0.084815
	0.085467
	0.086118
	0.086769
	0.087421
	0.088072
	0.088723
	0.089375
	0.090026
	0.090678
	0.091329
	0.091980
	0.092632
	0.093283
	0.093934
	0.094586
	0.095237
	0.095888
	0.096540
	0.097191
	0.097843
	0.098323
	0.098730
	0.099138
	0.099545
	0.099952
	0.100359
	0.100766
	0.101173
	0.101580
	0.101987
	0.102394
	0.102801
	0.103209
	0.103616
	0.104023
	0.104430
	0.104837
	0.105244
	0.105651
	0.106058
	0.106465
	0.106872
	0.107280
	0.107687
	0.108094
	0.108501
	0.108908
	0.109315
	0.109722
	0.110129
	0.110536
	0.110943
	0.111351
	0.111758
	0.112165
	0.112572
	0.112979
	0.113386
	0.113793
	0.114200
	0.114607
	0.115014
	0.115422
	0.115829
	0.116236
	0.116643
	0.117050
	0.117457
	0.117864
	0.118271
	0.118678
	0.119085
	0.119493
	0.119900
	0.120307
	0.120714
	0.121121
	0.121528
	0.121935
	0.122342
	0.122749
	0.123156
	0.123564
	0.123971
	0.124378
	0.124785
	0.125192
	0.125599
	0.126006
	0.126413
	0.126820
	0.127227
	0.127635
	0.128042
	0.128449
	0.128856
	0.129263
	0.129670
	0.130077
	0.130484
	0.130891
	0.131298
	0.131706
	0.132113
	0.132520
	0.132927
	0.133334
	0.133741
	0.134148
	0.134555
	0.134962
	0.135369
	0.135777
	0.136184
	0.136591
	0.136998
	0.137405
	0.137812
	0.138219
	0.138626
	0.139033
	0.139440
	0.139848
	0.140255
	0.140662
	0.141069
	0.141476
	0.141883
	0.142290
	0.142697
	0.143104
	0.143511
	0.143919
	0.144326
	0.144733
	0.145140
	0.145547
	0.145954
	0.146361
	0.146768
	0.147175
	0.147582
	0.147990
	0.148397
	0.148804
	0.149211
	0.149618
	0.150025
	0.150432
	0.150839
	0.151246
	0.151653
	0.152061
	0.152468
	0.152875
	0.153282
	0.153689
	0.154096
	0.154503
	0.154910
	0.155317
	0.155724
	0.156132
	0.156539
	0.156952
	0.157391
	0.157829
	0.158267
	0.158705
	0.159143
	0.159581
	0.160018
	0.160456
	0.160893
	0.161331
	0.161768
	0.162205
	0.162642
	0.163080
	0.163517
	0.163954
	0.164391
	0.164828
	0.165265
	0.165702
	0.166138
	0.166575
	0.167012
	0.167449
	0.167886
	0.168323
	0.168759
	0.169196
	0.169633
	0.170070
	0.170506
	0.170943
	0.171380
	0.171816
	0.172253
	0.172689
	0.173126
	0.173563
	0.173999
	0.174436
	0.174872
	0.175309
	0.175745
	0.176182
	0.176618
	0.177055
	0.177491
	0.177928
	0.178364
	0.178800
	0.179237
	0.179673
	0.180110
	0.180546
	0.180983
	0.181419
	0.181855
	0.182292
	0.182728
	0.183164
	0.183601
	0.184037
	0.184473
	0.184910
	0.185346
	0.185782
	0.186218
	0.186655
	0.187091
	0.187527
	0.187963
	0.188400
	0.188836
	0.189272
	0.189708
	0.190145
	0.190581
	0.191017
	0.191453
	0.191889
	0.192326
	0.192762
	0.193198
	0.193634
	0.194070
	0.194506
	0.194942
	0.195379
	0.195815
	0.196251
	0.196687
	0.197123
	0.197559
	0.197995
	0.198431
	0.198867
	0.199303
	0.199740
	0.200176
	0.200612
	0.201048
	0.201484
	0.201920
	0.202356
	0.202792
	0.203228
	0.203664
	0.204100
	0.204536
	0.204972
	0.205408
	0.205844
	0.206280
	0.206716
	0.207152
	0.207588
	0.208024
	0.208460
	0.208896
	0.209332
	0.209768
	0.210204
	0.210640
	0.211076
	0.211511
	0.211947
	0.212383
	0.212819
	0.213255
	0.213691
	0.214127
	0.214563
	0.214999
	0.215435
	0.215871
	0.216306
	0.216742
	0.217178
	0.217614
	0.218050
	0.218486
	0.218922
	0.219357
	0.219793
	0.220229
	0.220665
	0.221101
	0.221537
	0.221972
	0.222408
	0.222844
	0.223280
	0.223716
	0.224151
	0.224587
	0.225023
	0.225459
	0.225895
	0.226330
	0.226766
	0.227202
	0.227638
	0.228073
	0.228509
	0.228945
	0.229381
	0.229816
	0.230252
	0.230688
	0.231123
	0.231559
	0.231995
	0.232431
	0.232866
	0.233302
	0.233738
	0.234173
	0.234609
	0.235045
	0.235480
	0.235916
	0.236352
	0.236788
	0.237223
	0.237659
	0.238094
	0.238530
	0.238966
	0.239401
	0.239837
	0.240273
	0.240708
	0.241144
	0.241580
	0.242015
	0.242451
	0.242886
	0.243322
	0.243758
	0.244193
	0.244629
	0.245064
	0.245500
	0.245936
	0.246371
	0.246807
	0.247242
	0.247678
	0.248113
	0.248549
	0.248985
	0.249420
	0.249856
	0.250291
	0.250727
	0.251162
	0.251598
	0.252033
	0.252469
	0.252904
	0.253340
	0.253775
	0.254211
	0.254646
	0.255082
	0.255517
	0.255953
	0.256388
	0.256824
	0.257259
	0.257695
	0.258130
	0.258566
	0.259001
	0.259437
	0.259872
	0.260308
	0.260743
	0.261178
	0.261614
	0.262049
	0.262485
	0.262920
	0.263356
	0.263791
	0.264226
	0.264662
	0.265097
	0.265533
	0.265968
	0.266403
	0.266839
	0.267274
	0.267709
	0.268145
	0.268580
	0.269016
	0.269451
	0.269886
	0.270322
	0.270757
	0.271192
	0.271628
	0.272063
	0.272498
	0.272934
	0.273369
	0.273804
	0.274240
	0.274675
	0.275110
	0.275546
	0.275981
	0.276416
	0.276851
	0.277287
	0.277722
	0.278157
	0.278593
	0.279028
	0.279463
	0.279898
	0.280334
	0.280769
	0.281204
	0.281639
	0.282075
	0.282510
	0.282945
	0.283380
	0.283816
	0.284251
	0.284686
	0.285121
	0.285556
	0.285992
	0.286427
	0.286862
	0.287297
	0.287732
	0.288168
	0.288603
	0.289038
	0.289473
	0.289908
	0.290343
	0.290779
	0.291214
	0.291649
	0.292084
	0.292519
	0.292954
	0.293389
	0.293825
	0.294260
	0.294695
	0.295130
	0.295565
	0.296000
	0.296435
	0.296870
	0.297305
	0.297740
	0.298176
	0.298611
	0.299046
	0.299481
	0.299916
	0.300351
	0.300786
	0.301221
	0.301656
	0.302091
	0.302526
	0.302961
	0.303396
	0.303831
	0.304266
	0.304701
	0.305136
	0.305571
	0.306006
	0.306441
	0.306876
	0.307311
	0.307746
	0.308181
	0.308616
	0.309051
	0.309486
	0.309921
	0.310356
	0.310791
	0.311226
	0.311661
	0.312096
	0.312531
	0.312966
	0.313401
	0.313836
	0.314270
	0.314705
	0.315140
	0.315575
	0.316010
	0.316445
	0.316880
	0.317315
	0.317750
	0.318184
	0.318619
	0.319054
	0.319489
	0.319924
	0.320359
	0.320794
	0.321228
	0.321663
	0.322098
	0.322533
	0.322968
	0.323403
	0.323837
	0.324272
	0.324707
	0.325142
	0.325576
	0.326011
	0.326446
	0.326881
	0.327316
	0.327750
	0.328185
	0.328620
	0.329055
	0.329489
	0.329924
	0.330359
	0.330794
	0.331228
	0.331663
	0.332098
	0.332532
	0.332967
	0.333402
	0.333837
	0.334271
	0.334706
	0.335141
	0.335575
	0.336010
	0.336445
	0.336879
	0.337314
	0.337749
	0.338183
	0.338618
	0.339052
	0.339487
	0.339922
	0.340356
	0.340791
	0.341225
	0.341660
	0.342095
	0.342529
	0.342964
	0.343398
	0.343833
	0.344268
	0.344702
	0.345137
	0.345571
	0.346006
	0.346440
	0.346875
	0.347309
	0.347744
	0.348178
	0.348613
	0.349047
	0.349482
	0.349916
	0.350351
	0.350785
	0.351220
	0.351654
	0.352089
	0.352523
	0.352958
	0.353392
	0.353827
	0.354261
	0.354695
	0.355130
	0.355564
	0.355999
	0.356433
	0.356867
	0.357302
	0.357736
	0.358171
	0.358605
	0.359039
	0.359474
	0.359908
	0.360342
	0.360777
	0.361211
	0.361645
	0.362080
	0.362514
	0.362948
	0.363383
	0.363817
	0.364251
	0.364685
	0.365120
	0.365554
	0.365988
	0.366423
	0.366857
	0.367291
	0.367725
	0.368160
	0.368594
	0.369028
	0.369462
	0.369896
	0.370331
	0.370765
	0.371199
	0.371633
	0.372067
	0.372501
	0.372936
	0.373370
	0.373804
	0.374238
	0.374672
	0.375106
	0.375540
	0.375975
	0.376409
	0.376843
	0.377277
	0.377711
	0.378145
	0.378579
	0.379013
	0.379447
	0.379881
	0.380315
	0.380749
	0.381183
	0.381617
	0.382051
	0.382485
	0.382919
	0.383353
	0.383787
	0.384221
	0.384655
	0.385089
	0.385523
	0.385957
	0.386391
	0.386825
	0.387259
	0.387693
	0.388127
	0.388561
	0.388995
	0.389428
	0.389862
	0.390296
	0.390730
	0.391164
	0.391598
	0.392032
	0.392465
	0.392899
	0.393333
	0.393767
	0.394201
	0.394634
	0.395068
	0.395502
	0.395936
	0.396369
	0.396803
	0.397237
	0.397671
	0.398104
	0.398538
	0.398972
	0.399405
	0.399839
	0.400273
	0.400706
	0.401140
	0.401574
	0.402007
	0.402441
	0.402875
	0.403308
	0.403742
	0.404175
	0.404609
	0.405043
	0.405476
	0.405910
	0.406343
	0.406777
	0.407210
	0.407644
	0.408077
	0.408511
	0.408944
	0.409378
	0.409811
	0.410245
	0.410678
	0.411112
	0.411545
	0.411978
	0.412412
	0.412845
	0.413279
	0.413712
	0.414145
	0.414579
	0.415012
	0.415445
	0.415879
	0.416312
	0.416745
	0.417179
	0.417612
	0.418045
	0.418478
	0.418912
	0.419345
	0.419778
	0.420211
	0.420645
	0.421078
	0.421511
	0.421944
	0.422377
	0.422810
	0.423244
	0.423677
	0.424110
	0.424543
	0.424976
	0.425409
	0.425842
	0.426275
	0.426708
	0.427141
	0.427574
	0.428007
	0.428440
	0.428873
	0.429306
	0.429739
	0.430172
	0.430605
	0.431038
	0.431471
	0.431904
	0.432337
	0.432770
	0.433202
	0.433635
	0.434068
	0.434501
	0.434934
	0.435366
	0.435799
	0.436232
	0.436665
	0.437097
	0.437530
	0.437963
	0.438396
	0.438828
	0.439261
	0.439693
	0.440126
	0.440559
	0.440991
	0.441424
	0.441856
	0.442289
	0.442722
	0.443154
	0.443587
	0.444019
	0.444452
	0.444884
	0.445316
	0.445749
	0.446181
	0.446614
	0.447046
	0.447478
	0.447911
	0.448343
	0.448775
	0.449208
	0.449640
	0.450072
	0.450504
	0.450937
	0.451369
	0.451801
	0.452233
	0.452665
	0.453097
	0.453530
	0.453962
	0.454394
	0.454826
	0.455258
	0.455690
	0.456122
	0.456554
	0.456986
	0.457418
	0.457850
	0.458281
	0.458713
	0.459145
	0.459577
	0.460009
	0.460441
	0.460872
	0.461304
	0.461736
	0.462167
	0.462599
	0.463031
	0.463462
	0.463894
	0.464326
	0.464757
	0.465189
	0.465620
	0.466052
	0.466483
	0.466915
	0.467346
	0.467777
	0.468209
	0.468640
	0.469071
	0.469503
	0.469934
	0.470365
	0.470796
	0.471228
	0.471659
	0.472090
	0.472521
	0.472952
	0.473383
	0.473814
	0.474245
	0.474676
	0.475107
	0.475538
	0.475969
	0.476399
	0.476830
	0.477261
	0.477692
	0.478122
	0.478553
	0.478984
	0.479414
	0.479845
	0.480275
	0.480706
	0.481136
	0.481567
	0.481997
	0.482427
	0.482858
	0.483288
	0.483718
	0.484148
	0.484578
	0.485008
	0.485438
	0.485868
	0.486298
	0.486728
	0.487158
	0.487588
	0.488018
	0.488447
	0.488877
	0.489307
	0.489736
	0.490166
	0.490595
	0.491025
	0.491454
	0.491884
	0.492313
	0.492742
	0.493171
	0.493600
	0.494029
	0.494458
	0.494887
	0.495316
	0.495745
	0.496174
	0.496602
	0.497031
	0.497460
	0.497888
	0.498317
	0.498745
	0.499173
	0.499601
	0.500029
	0.500457
	0.500885
	0.501313
	0.501741
	0.502198
	0.502687
	0.503175
	0.503664
	0.504152
	0.504641
	0.505129
	0.505618
	0.506106
	0.506595
	0.507084
	0.507572
	0.508061
	0.508549
	0.509038
	0.509526
	0.510015
	0.510503
	0.510992
	0.511480
	0.511969
	0.512457
	0.512946
	0.513434
	0.513923
	0.514411
	0.514900
	0.515388
	0.515877
	0.516365
	0.516854
	0.517342
	0.517831
	0.518319
	0.518808
	0.519297
	0.519785
	0.520274
	0.520762
	0.521251
	0.521739
	0.522228
	0.522716
	0.523205
	0.523693
	0.524182
	0.524670
	0.525159
	0.525647
	0.526136
	0.526624
	0.527113
	0.527601
	0.528090
	0.528578
	0.529067
	0.529555
	0.530044
	0.530532
	0.531021
	0.531510
	0.531998
	0.532487
	0.532975
	0.533464
	0.533952
	0.534441
	0.534929
	0.535418
	0.535906
	0.536395
	0.536883
	0.537372
	0.537860
	0.538349
	0.538837
	0.539326
	0.539814
	0.540303
	0.540791
	0.541280
	0.541768
	0.542257
	0.542745
	0.543234
	0.543723
	0.544211
	0.544700
	0.545188
	0.545677
	0.546165
	0.546654
	0.547142
	0.547631
	0.548119
	0.548608
	0.549096
	0.549585
	0.550073
	0.550562
	0.551050
	0.551539
	0.552027
	0.552516
	0.553004
	0.553493
	0.553981
	0.554470
	0.554958
	0.555447
	0.555936
	0.556424
	0.556913
	0.557401
	0.557890
	0.558378
	0.558867
	0.559355
	0.559844
	0.560332
	0.560821
	0.561309
	0.561798
	0.562286
	0.562775
	0.563263
	0.563752
	0.564240
	0.564729
	0.565217
	0.565706
	0.566194
	0.566683
	0.567171
	0.567660
	0.568149
	0.568637
	0.569126
	0.569614
	0.570103
	0.570591
	0.571080
	0.571568
	0.572057
	0.572545
	0.573034
	0.573522
	0.574011
	0.574499
	0.574988
	0.575476
	0.575965
	0.576453
	0.576942
	0.577430
	0.577919
	0.578407
	0.578896
	0.579384
	0.579873
	0.580362
	0.580850
	0.581339
	0.581827
	0.582316
	0.582804
	0.583293
	0.583781
	0.584270
	0.584758
	0.585247
	0.585735
	0.586224
	0.586712
	0.587201
	0.587689
	0.588178
	0.588666
	0.589155
	0.589643
	0.590132
	0.590620
	0.591109
	0.591597
	0.592086
	0.592574
	0.593063
	0.593552
	0.594040
	0.594529
	0.595017
	0.595506
	0.595994
	0.596483
	0.596971
	0.597460
	0.597948
	0.598437
	0.598925
	0.599414
	0.599902
	0.600391
	0.600879
	0.601368
	0.601856
	0.602345
	0.602833
	0.603322
	0.603810
	0.604299
	0.604787
	0.605276
	0.605765
	0.606253
	0.606742
	0.607230
	0.607719
	0.608207
	0.608696
	0.609184
	0.609673
	0.610161
	0.610650
	0.611138
	0.611627
	0.612115
	0.612604
	0.613092
	0.613581
	0.614069
	0.614558
	0.615046
	0.615535
	0.616023
	0.616512
	0.617000
	0.617489
	0.617978
	0.618466
	0.618955
	0.619443
	0.619932
	0.620420
	0.620909
	0.621397
	0.621886
	0.622374
	0.622863
	0.623351
	0.623840
	0.624328
	0.624817
	0.625305
	0.625794
	0.626282
	0.626771
	0.627259
	0.627748
	0.628236
	0.628725
	0.629213
	0.629702
	0.630191
	0.630679
	0.631168
	0.631656
	0.632145
	0.632633
	0.633122
	0.633610
	0.634099
	0.634587
	0.635076
	0.635564
	0.636053
	0.636541
	0.637030
	0.637518
	0.638007
	0.638495
	0.638984
	0.639472
	0.639961
	0.640449
	0.640938
	0.641426
	0.641915
	0.642404
	0.642892
	0.643381
	0.643869
	0.644358
	0.644846
	0.645335
	0.645823
	0.646312
	0.646800
	0.647289
	0.647777
	0.648266
	0.648754
	0.649243
	0.649731
	0.650220
	0.650708
	0.651197
	0.651685
	0.652174
	0.652662
	0.653151
	0.653639
	0.654128
	0.654617
	0.655105
	0.655594
	0.656082
	0.656571
	0.657059
	0.657548
	0.658036
	0.658525
	0.659013
	0.659502
	0.659990
	0.660479
	0.660967
	0.661456
	0.661944
	0.662433
	0.662921
	0.663410
	0.663898
	0.664387
	0.664875
	0.665364
	0.665852
	0.666341
	0.666830
	0.667318
	0.667807
	0.668295
	0.668784
	0.669272
	0.669761
	0.670249
	0.670738
	0.671226
	0.671715
	0.672203
	0.672692
	0.673180
	0.673669
	0.674157
	0.674646
	0.675134
	0.675623
	0.676111
	0.676600
	0.677088
	0.677577
	0.678065
	0.678554
	0.679043
	0.679531
	0.680020
	0.680508
	0.680997
	0.681485
	0.681974
	0.682462
	0.682951
	0.683439
	0.683928
	0.684416
	0.684905
	0.685393
	0.685882
	0.686370
	0.686859
	0.687347
	0.687836
	0.688324
	0.688813
	0.689301
	0.689790
	0.690278
	0.690767
	0.691255
	0.691744
	0.692233
	0.692721
	0.693210
	0.693698
	0.694187
	0.694675
	0.695164
	0.695652
	0.696141
	0.696629
	0.697118
	0.697606
	0.698095
	0.698583
	0.699072
	0.699560
	0.700049
	0.700537
	0.701026
	0.701514
	0.702003
	0.702491
	0.702980
	0.703468
	0.703957
	0.704446
	0.704934
	0.705423
	0.705911
	0.706400
	0.706888
	0.707377
	0.707865
	0.708354
	0.708842
	0.709331
	0.709819
	0.710308
	0.710796
	0.711285
	0.711773
	0.712262
	0.712750
	0.713239
	0.713727
	0.714216
	0.714704
	0.715193
	0.715681
	0.716170
	0.716659
	0.717147
	0.717636
	0.718124
	0.718613
	0.719101
	0.719590
	0.720078
	0.720567
	0.721055
	0.721544
	0.722032
	0.722521
	0.723009
	0.723498
	0.723986
	0.724475
	0.724963
	0.725452
	0.725940
	0.726429
	0.726917
	0.727406
	0.727894
	0.728383
	0.728872
	0.729360
	0.729849
	0.730337
	0.730826
	0.731314
	0.731803
	0.732291
	0.732780
	0.733268
	0.733757
	0.734245
	0.734734
	0.735222
	0.735711
	0.736199
	0.736688
	0.737176
	0.737665
	0.738153
	0.738642
	0.739130
	0.739619
	0.740107
	0.740596
	0.741085
	0.741573
	0.742062
	0.742550
	0.743039
	0.743527
	0.744016
	0.744504
	0.744993
	0.745481
	0.745970
	0.746458
	0.746947
	0.747435
	0.747924
	0.748412
	0.748901
	0.749389
	0.749878
	0.750366
	0.750855
	0.751343
	0.751832
	0.752320
	0.752809
	0.753298
	0.753786
	0.754275
	0.754763
	0.755252
	0.755740
	0.756229
	0.756717
	0.757206
	0.757694
	0.758183
	0.758671
	0.759160
	0.759648
	0.760137
	0.760625
	0.761114
	0.761602
	0.762091
	0.762579
	0.763068
	0.763556
	0.764045
	0.764533
	0.765022
	0.765511
	0.765999
	0.766488
	0.766976
	0.767465
	0.767953
	0.768442
	0.768930
	0.769419
	0.769907
	0.770396
	0.770884
	0.771373
	0.771861
	0.772350
	0.772838
	0.773327
	0.773815
	0.774304
	0.774792
	0.775281
	0.775769
	0.776258
	0.776746
	0.777235
	0.777723
	0.778212
	0.778701
	0.779189
	0.779678
	0.780166
	0.780655
	0.781143
	0.781632
	0.782120
	0.782609
	0.783097
	0.783586
	0.784074
	0.784563
	0.785051
	0.785540
	0.786028
	0.786517
	0.787005
	0.787494
	0.787982
	0.788471
	0.788959
	0.789448
	0.789936
	0.790425
	0.790914
	0.791402
	0.791891
	0.792379
	0.792868
	0.793356
	0.793845
	0.794333
	0.794822
	0.795310
	0.795799
	0.796287
	0.796776
	0.797264
	0.797753
	0.798241
	0.798730
	0.799218
	0.799707
	0.800195
	0.800684
	0.801172
	0.801661
	0.802149
	0.802638
	0.803127
	0.803615
	0.804104
	0.804592
	0.805081
	0.805569
	0.806058
	0.806546
	0.807035
	0.807523
	0.808012
	0.808500
	0.808989
	0.809477
	0.809966
	0.810454
	0.810943
	0.811431
	0.811920
	0.812408
	0.812897
	0.813385
	0.813874
	0.814362
	0.814851
	0.815340
	0.815828
	0.816317
	0.816805
	0.817294
	0.817782
	0.818271
	0.818759
	0.819248
	0.819736
	0.820225
	0.820713
	0.821202
	0.821690
	0.822179
	0.822667
	0.823156
	0.823644
	0.824133
	0.824621
	0.825110
	0.825598
	0.826087
	0.826575
	0.827064
	0.827553
	0.828041
	0.828530
	0.829018
	0.829507
	0.829995
	0.830484
	0.830972
	0.831461
	0.831949
	0.832438
	0.832926
	0.833415
	0.833903
	0.834392
	0.834880
	0.835369
	0.835857
	0.836346
	0.836834
	0.837323
	0.837811
	0.838300
	0.838788
	0.839277
	0.839766
	0.840254
	0.840743
	0.841231
	0.841720
	0.842208
	0.842697
	0.843185
	0.843674
	0.844162
	0.844651
	0.845139
	0.845628
	0.846116
	0.846605
	0.847093
	0.847582
	0.848070
	0.848559
	0.849047
	0.849536
	0.850024
	0.850513
	0.851001
	0.851490
	0.851979
	0.852467
	0.852956
	0.853444
	0.853933
	0.854421
	0.854910
	0.855398
	0.855887
	0.856375
	0.856864
	0.857352
	0.857841
	0.858329
	0.858818
	0.859306
	0.859795
	0.860283
	0.860772
	0.861260
	0.861749
	0.862237
	0.862726
	0.863214
	0.863703
	0.864191
	0.864680
	0.865169
	0.865657
	0.866146
	0.866634
	0.867123
	0.867611
	0.868100
	0.868588
	0.869077
	0.869565
	0.870054
	0.870542
	0.871031
	0.871519
	0.872008
	0.872496
	0.872985
	0.873473
	0.873962
	0.874450
	0.874939
	0.875427
	0.875916
	0.876404
	0.876893
	0.877382
	0.877870
	0.878359
	0.878847
	0.879336
	0.879824
	0.880313
	0.880801
	0.881290
	0.881778
	0.882267
	0.882755
	0.883244
	0.883732
	0.884221
	0.884709
	0.885198
	0.885686
	0.886175
	0.886663
	0.887152
	0.887640
	0.888129
	0.888617
	0.889106
	0.889595
	0.890083
	0.890572
	0.891060
	0.891549
	0.892037
	0.892526
	0.893014
	0.893503
	0.893991
	0.894480
	0.894968
	0.895457
	0.895945
	0.896434
	0.896922
	0.897411
	0.897899
	0.898388
	0.898876
	0.899365
	0.899853
	0.900342
	0.900830
	0.901319
	0.901808
	0.902296
	0.902785
	0.903273
	0.903762
	0.904250
	0.904739
	0.905227
	0.905716
	0.906204
	0.906693
	0.907181
	0.907670
	0.908158
	0.908647
	0.909135
	0.909624
	0.910112
	0.910601
	0.911089
	0.911578
	0.912066
	0.912555
	0.913043
	0.913532
	0.914021
	0.914509
	0.914998
	0.915486
	0.915975
	0.916463
	0.916952
	0.917440
	0.917929
	0.918417
	0.918906
	0.919394
	0.919883
	0.920371
	0.920860
	0.921348
	0.921837
	0.922325
	0.922814
	0.923302
	0.923791
	0.924279
	0.924768
	0.925256
	0.925745
	0.926234
	0.926722
	0.927211
	0.927699
	0.928188
	0.928676
	0.929165
	0.929653
	0.930142
	0.930630
	0.931119
	0.931607
	0.932096
	0.932584
	0.933073
	0.933561
	0.934050
	0.934538
	0.935027
	0.935515
	0.936004
	0.936492
	0.936981
	0.937469
	0.937958
	0.938447
	0.938935
	0.939424
	0.939912
	0.940401
	0.940889
	0.941378
	0.941866
	0.942355
	0.942843
	0.943332
	0.943820
	0.944309
	0.944797
	0.945286
	0.945774
	0.946263
	0.946751
	0.947240
	0.947728
	0.948217
	0.948705
	0.949194
	0.949682
	0.950171
	0.950660
	0.951148
	0.951637
	0.952125
	0.952614
	0.953102
	0.953591
	0.954079
	0.954568
	0.955056
	0.955545
	0.956033
	0.956522
	0.957010
	0.957499
	0.957987
	0.958476
	0.958964
	0.959453
	0.959941
	0.960430
	0.960918
	0.961407
	0.961895
	0.962384
	0.962872
	0.963361
	0.963850
	0.964338
	0.964827
	0.965315
	0.965804
	0.966292
	0.966781
	0.967269
	0.967758
	0.968246
	0.968735
	0.969223
	0.969712
	0.970200
	0.970689
	0.971177
	0.971666
	0.972154
	0.972643
	0.973131
	0.973620
	0.974108
	0.974597
	0.975085
	0.975574
	0.976063
	0.976551
	0.977040
	0.977528
	0.978017
	0.978505
	0.978994
	0.979482
	0.979971
	0.980459
	0.980948
	0.981436
	0.981925
	0.982413
	0.982902
	0.983390
	0.983879
	0.984367
	0.984856
	0.985344
	0.985833
	0.986321
	0.986810
	0.987298
	0.987787
	0.988276
	0.988764
	0.989253
	0.989741
	0.990230
	0.990718
	0.991207
	0.991695
	0.992184
	0.992672
	0.993161
	0.993649
	0.994138
	0.994626
	0.995115
	0.995603
	0.996092
	0.996580
	0.997069
	0.997557
	0.998046
	0.998534
	0.999023
	0.999511
	1.000000
}
