src/apps/iosdisplay/iosdisplay/OpenColorIOConfigs/spi-anim/luts/lm10.spi1d
Version 1
From 0 1
Length 2048
Components 1
{
      0.0001220703125
      0.00012522394370554079
      0.00012845161058649005
      0.00013175483841706224
      0.00013513517781176172
      0.00013859420496557817
      0.00014213352189027656
      0.00014575475664648673
      0.00014945956357130476
      0.00015324962350108016
      0.00015712664398907179
      0.00016109235951763465
      0.0001651485317046062
      0.00016929694950352204
      0.00017353942939730738
      0.00017787781558506712
      0.00018231398016157866
      0.00018684982328909876
      0.0001914872733610664
      0.00019622828715728225
      0.00020107484999012259
      0.00020602897584135526
      0.00021109270748906982
      0.00021626811662428012
      0.000221557303956683
      0.00022696239930909654
      0.00023248556170003552
      0.0002381289794139307
      0.00024389487005841177
      0.00024978548060812554
      0.00025580308743449988
      0.00026194999632087344
      0.00026822854246238325
      0.0002746410904500003
      0.0002811900342380692
      0.00028787779709470336
      0.00029470683153437905
      0.00030167961923203735
      0.00030879867091798425
      0.00031606652625289336
      0.00032348575368216386
      0.0003310589502688828
      0.00033878874150461966
      0.00034667778109728016
      0.00035472875073518589
      0.00036294435982658853
      0.00037132734521375728
      0.0003798804708607597
      0.0003886065275141019
      0.0003975083323352828
      0.00040658872850436229
      0.00041585058479359983
      0.00042529679511020378
      0.00043493027800721505
      0.00044475397616151126
      0.00045477085581791866
      0.00046498390619840118
      0.00047539613887522924
      0.00048601058710708961
      0.00049683030513698878
      0.000507858367450843
      0.00051909786799560155
      0.00053055191935574841
      0.00054222365188694817
      0.00055411621280567196
      0.00056623276523352591
      0.00057857648719505017
      0.00059115057056768872
      0.00060395821998264043
      0.00061700265167525994
      0.00063028709228365196
      0.00064381477759409928
      0.00065758895123192826
      0.0006716128632963897
      0.00068588976893813514
      0.00070042292687780077
      0.00071521559786422227
      0.00073027104307082501
      0.00074559252242855647
      0.00076118329289394794
      0.0007770466066505952
      0.00079318570924257305
      0.00080960383763812715
      0.00082630421822199986
      0.00084329006471473705
      0.00086056457601731758
      0.00087813093397939412
      0.00089599230108942712
      0.00091415181808496824
      0.00093261260148135949
      0.00095137774101704503
      0.00097045029701370376
      0.00098983329764943165
      0.0010095297361430863
      0.0010295425678479677
      0.0010498747072529985
      0.0010705290248894802
      0.001091508344141575
      0.0011128154379585621
      0.0011344530254669917
      0.0011564237684807486
      0.0011787302679071257
      0.0012013750600469435
      0.0012243606127866919
      0.0012476893216808096
      0.0012713635059220239
      0.0012953854041978248
      0.0013197571704310273
      0.0013444808694024549
      0.0013695584722537178
      0.0013949918518680426
      0.0014207827781272443
      0.0014469329130426725
      0.0014734438057582818
      0.0015003168874237255
      0.0015275534659354507
      0.0015551547205439008
      0.0015831216963247241
      0.0016114552985120943
      0.0016401562866921102
      0.0016692252688543685
      0.0016986626952997254
      0.0017284688524023752
      0.0017586438562242803
      0.0017891876459801199
      0.001820099977350854
      0.0018513804156440952
      0.0018830283287994578
      0.0019150428802371068
      0.0019474230215477618
      0.0019801674850224251
      0.0020132747760201507
      0.0020467431651722541
      0.0020805706804212709
      0.0021147550988931739
      0.002149293938601323
      0.0021841844499806409
      0.0022194236072506212
      0.0022550080996057991
      0.0022909343222323529
      0.0023271983671496062
      0.0023637960138751936
      0.002400722719912764
      0.0024379736110611578
      0.002475543471544015
      0.002513426733958872
      0.0025516174690449348
      0.0025901093752685412
      0.0026288957682257864
      0.0026679695698614719
      0.0027073232975038815
      0.0027469490527147829
      0.0027868385099542319
      0.0028269829050598261
      0.0028673730235400045
      0.0029079991886812487
      0.0029488512494689049
      0.0029899185683216205
      0.0030311900086392451
      0.003072653922164202
      0.0031142981361564981
      0.0031561099403822992
      0.0031980760739162679
      0.0032401827117579632
      0.0032824154512621803
      0.0033247592983836703
      0.0033671986537363191
      0.0034097172984668416
      0.0034522983799432903
      0.0034949243972581096
      0.0035375771865460274
      0.0035802379061162628
      0.0036228870213989477
      0.003665504289705108
      0.0037080687447995451
      0.0037505586812855035
      0.0037929516387997775
      0.0038352243860166166
      0.0038773529044580745
      0.0039193123721081849
      0.0039610771468275817
      0.0040026270234191736
      0.0040442288785359519
      0.0040860335170970043
      0.00412803778425609
      0.0041702385673166942
      0.0042126328002871751
      0.0042552174682151224
      0.0042979896112924614
      0.0043409463287242146
      0.0043840847823553505
      0.0044274022000515513
      0.0044708958788310972
      0.0045145631877464331
      0.0045584015705152706
      0.0046024085479022554
      0.0046465817198534367
      0.0046909187673868456
      0.0047354174542434046
      0.004780075628303463
      0.0048248912227748736
      0.0048698622571594829
      0.0049149868380053878
      0.0049602631594529729
      0.0050056895035832062
      0.0050512642405770476
      0.0050969858286952002
      0.0051428528140876209
      0.0051888638304423999
      0.0052350175984837728
      0.0052813129253289712
      0.0053277487037137264
      0.0053743239110960123
      0.0054210376086476992
      0.0054678889401434038
      0.0055148771307557843
      0.0055620014857662341
      0.0056092613891996091
      0.0056566563023914534
      0.0057041857624957259
      0.0057518493809408022
      0.0057996468418411986
      0.0058475779003719286
      0.0058956423811123478
      0.005943840176365664
      0.0059921712444600721
      0.0060406356080372229
      0.0060892333523330372
      0.0061379646234559137
      0.0061868296266667294
      0.0062358286246648404
      0.0062849619358839254
      0.0063342299328011352
      0.0063836330402628422
      0.006433171733829829
      0.006482846538144532
      0.0065326580253227701
      0.006582606813371983
      0.0066326935646378168
      0.006682918984280784
      0.006733283818784238
      0.0067837888544950318
      0.0068344349161977404
      0.0068852228657233158
      0.0069361536005928806
      0.0069872280526971173
      0.0070384471870116134
      0.0070898120003484765
      0.0071413235201442512
      0.0071929828032841871
      0.0072447909349627427
      0.0072967490275801994
      0.0073488582196750149
      0.0074011196748916992
      0.0074535345809836756
      0.0075061041488508071
      0.0075588296116109273
      0.007611712223704924
      0.007664753260034682
      0.0077179540151333555
      0.00777131580236719
      0.0078248399531682979
      0.0078785278162975588
      0.0079323807571371318
      0.0079864001570115438
      0.0080405874125369075
      0.0080949439349972795
      0.008149471149747534
      0.0082041704956419773
      0.0082590434244878986
      0.0083140914005233549
      0.0083693158999184267
      0.0084247184102991934
      0.0084803004302937395
      0.0085360634690994364
      0.0085920090460707629
      0.0086481386903270764
      0.0087044539403795234
      0.0087609563437765197
      0.008817647456767063
      0.0088745288439813323
      0.008931602078127843
      0.0089888687397066281
      0.0090463304167378317
      0.0091039887045051334
      0.0091618452053133723
      0.0092199015282600043
      0.0092781592890196513
      0.0093366201096413675
      0.0093952856183580746
      0.0094541574494076911
      0.0095132372428654872
      0.0095725266444872167
      0.0096320273055625766
      0.0096917408827785542
      0.0097516690380923809
      0.0098118134386134415
      0.0098721757564940674
      0.0099327576688285693
      0.0099935608575603824
      0.010054587009396826
      0.010115837815731166
      0.010177314972571842
      0.010239020180478276
      0.010300955144503143
      0.010363121574140891
      0.01042552118328198
      0.010488155690172906
      0.010551026817381454
      0.010614136291767152
      0.010677485844456644
      0.010741077210823692
      0.010804912130473687
      0.010868992347232383
      0.010933319609138735
      0.010997895668441629
      0.011062722281600282
      0.011127801209288189
      0.011193134216400436
      0.011258723072064242
      0.011324569549652533
      0.01139067542680044
      0.011457042485424588
      0.011523672511745024
      0.011590567296309631
      0.011657728634021017
      0.01172515832416556
      0.011792858170444785
      0.011860829981008673
      0.011929075568490974
      0.011997596750046406
      0.01206639534738967
      0.012135473186836004
      0.012204832099343522
      0.012274473920556937
      0.012344400490852846
      0.012414613655386274
      0.012485115264138584
      0.012555907171966637
      0.012626991238653114
      0.012698369328957911
      0.012770043312670646
      0.012842015064664135
      0.01291428646494884
      0.012986859398728191
      0.013059735756454771
      0.013132917433887335
      0.013206406332148533
      0.013280204357783421
      0.013354313422818637
      0.013428735444822154
      0.013503472346963813
      0.013578526058076263
      0.013653898512716528
      0.013729591651228126
      0.013805607419803597
      0.013881947770547557
      0.013958614661540181
      0.014035610056901075
      0.014112935926853578
      0.014190594247789406
      0.014268587002333629
      0.014346916179410077
      0.014425583774306897
      0.014504591788742565
      0.014583942230932078
      0.014663637115653425
      0.014743678464314394
      0.014824068305019464
      0.014904808672637044
      0.014985901608866906
      0.015067349162307732
      0.015149153388525006
      0.015231316350118937
      0.015313840116792618
      0.015396726765420398
      0.015479978380116286
      0.015563597052302643
      0.015647584880778925
      0.015731943971790587
      0.015816676439098096
      0.015901784404046156
      0.015987269995632911
      0.01607313535057938
      0.01615938261339897
      0.016246013936467057
      0.016333031480090743
      0.016420437412578648
      0.016508233910310834
      0.016596423157808831
      0.016685007347805769
      0.016773988681316496
      0.01686336936770802
      0.016953151624769746
      0.017043337678784021
      0.01713392976459675
      0.017224930125687946
      0.017316341014242533
      0.017408164691221167
      0.01750040342643119
      0.017593059498597526
      0.017686135195433911
      0.017779632813714016
      0.017873569977332752
      0.017967968851050207
      0.018062831385412637
      0.018158159443146381
      0.018253954890683283
      0.018350219598159041
      0.018446955439412289
      0.018544164291984605
      0.01864184803712127
      0.018740008559772908
      0.018838647748598121
      0.018937767495966863
      0.019037369697964924
      0.019137456254399238
      0.019238029068804292
      0.019339090048449442
      0.019440641104347293
      0.019542684151263118
      0.019645221107725416
      0.019748253896037415
      0.019851784442289886
      0.019955814676374875
      0.020060346532000835
      0.020165381946708708
      0.020270922861889345
      0.0203769712228021
      0.02048352897859472
      0.020590598082324454
      0.020698180490980402
      0.02080627816550721
      0.020914893070830217
      0.021024027175881616
      0.021133682453628375
      0.021243860881101206
      0.021354564439425121
      0.021465795113851317
      0.021577554893790575
      0.021689845772847993
      0.021802669748859228
      0.021916028823928305
      0.022029925004466825
      0.022144360301234622
      0.022259336729382125
      0.0223748563084941
      0.022490921062635064
      0.022607533020396062
      0.022724694214943334
      0.022842406684068187
      0.022960672470238801
      0.023079493620653438
      0.02319887218729532
      0.023318810226989121
      0.023439309801459095
      0.023560372977388864
      0.023682001826482803
      0.023804198425529041
      0.023926964856464256
      0.02405030320643993
      0.024174215567890431
      0.024298704038602629
      0.024423770721787256
      0.024549417726151882
      0.024675647165975534
      0.024802461161185025
      0.024929861837432944
      0.025057851326177202
      0.025186431764762339
      0.025315605296502362
      0.025445374070765386
      0.025575740243059714
      0.025706705975121657
      0.025838273435004961
      0.025970444797171768
      0.026103222242585294
      0.02623660795880392
      0.026370604140077036
      0.026505212987442336
      0.026640436708824589
      0.02677627751913619
      0.026912737640378947
      0.027049819301747453
      0.027187524739734112
      0.027325856198235285
      0.027464815928659209
      0.02760440619003518
      0.027744629249124093
      0.027885487380530486
      0.028026982866815826
      0.028169117998613245
      0.028311895074743468
      0.0284553164023321
      0.028599384296928175
      0.028744101082623895
      0.028889469092175584
      0.029035490667125886
      0.029182168157927024
      0.029329503924065178
      0.029477500334186155
      0.02962615976622179
      0.029775484607517673
      0.02992547725496169
      0.030076140115113694
      0.030227475604335908
      0.030379486148924498
      0.030532174185241751
      0.030685542159849224
      0.030839592529641829
      0.03099432776198233
      0.03114975033483702
      0.031305862736911744
      0.031462667467788766
      0.031620167038064209
      0.031778363969486169
      0.031937260795093278
      0.032096860059353943
      0.032257164318305817
      0.032418176139696116
      0.032579898103121896
      0.032742332800171206
      0.03290548283456414
      0.033069350822294521
      0.033233939391771619
      0.033399251183962433
      0.033565288852533674
      0.033732055063994598
      0.033899552497839269
      0.034067783846689466
      0.034236751816437372
      0.034406459126388386
      0.034576908509403884
      0.034748102712044121
      0.034920044494710673
      0.035092736631789363
      0.03526618191179242
      0.035440383137501003
      0.035615343126107202
      0.035791064709355953
      0.035967550733686598
      0.036144804060374444
      0.036322827565671477
      0.036501624140947264
      0.03668119669282921
      0.03686154814334254
      0.037042681430049573
      0.037224599506189046
      0.037407305340814469
      0.037590801918932354
      0.037775092241639538
      0.03796017932626046
      0.038146066206483226
      0.038332755932495903
      0.038520251571121274
      0.038708556205951761
      0.038897672937483162
      0.039087604883248091
      0.039278355177948365
      0.039469926973587123
      0.039662323439599696
      0.039855547762984361
      0.040049603148431728
      0.04024449281845386
      0.040440220013512246
      0.040636787992145387
      0.04083420003109503
      0.041032459425432287
      0.041231569488682236
      0.041431533552948298
      0.0416323549690353
      0.041834037106572131
      0.042036583354133107
      0.042239997119358892
      0.04244428182907628
      0.042649440929417359
      0.042855477885937451
      0.043062396183732803
      0.043270199327556554
      0.043478890841934743
      0.043688474271280767
      0.043898953180009435
      0.044110331152649722
      0.044322611793957203
      0.04453579872902505
      0.044749895603394818
      0.044964906083165626
      0.045180833855103297
      0.045397682626748002
      0.0456154561265215
      0.045834158103833463
      0.046053792329186709
      0.046274362594282109
      0.046495872712122376
      0.046718326517115043
      0.046941727865174969
      0.047166080633825692
      0.047391388722300358
      0.047617656051641748
      0.047844886564801556
      0.048073084226739074
      0.048302253024519029
      0.048532396967408839
      0.048763520086975223
      0.048995626437179932
      0.049228720094475271
      0.049462805157898269
      0.049697885749165116
      0.049933966012764404
      0.050171050116049901
      0.050409142249332677
      0.050648246625973191
      0.050888367482471997
      0.051129509078560786
      0.051371675697292236
      0.051614871645129887
      0.051859101252037243
      0.052104368871566539
      0.052350678880947125
      0.052598035681173383
      0.052846443697092169
      0.053095907377490051
      0.053346431195180115
      0.053598019647088456
      0.053850677254340187
      0.054104408562345434
      0.054359218140884985
      0.054615110584195298
      0.054872090511053885
      0.05513016256486402
      0.055389331413739307
      0.055649601750588328
      0.055910978293198653
      0.056173465784321489
      0.056437068991754893
      0.05670179270842856
      0.05696764175248685
      0.057234620967373057
      0.057502735221912869
      0.057771989410397941
      0.058042388452669742
      0.058313937294202825
      0.058586640906188737
      0.058860504285619744
      0.059135532455372182
      0.05941173046429063
      0.059689103387271493
      0.059967656325347146
      0.060247394405769948
      0.060528322782096591
      0.060810446634272174
      0.061093771168715345
      0.061378301618402215
      0.061664043242952091
      0.061951001328712209
      0.062239181188843154
      0.062528588163404591
      0.062819227619441212
      0.063111104951068767
      0.063404225579560713
      0.063698594953434953
      0.063994218548540802
      0.064291101868146655
      0.064589250443027782
      0.064888669831554238
      0.065189365619779796
      0.065491343421530498
      0.065794608878494393
      0.066099167660310945
      0.066405025464661496
      0.066712188017359772
      0.067020661072443116
      0.067330450412263709
      0.06764156184758123
      0.067954001217654797
      0.06826777439033635
      0.068582887262164105
      0.068899345758456645
      0.069217155833407581
      0.069536323470180683
      0.069856854681005567
      0.070178755507274149
      0.070502032019637298
      0.070826690318102556
      0.071152736532131861
      0.07148017682074051
      0.071809017372596332
      0.072139264406119591
      0.072470924169583409
      0.072804002941215196
      0.073138507029298291
      0.073474442772274495
      0.073811816538847108
      0.074150634728085155
      0.074490903769527314
      0.074832630123287711
      0.075175820280161315
      0.075520480761730818
      0.075866618120473961
      0.076214238939871434
      0.076563349834515626
      0.076913957450220408
      0.077266068464130852
      0.077619689584834728
      0.077974827552473758
      0.078331489138856528
      0.078689681147571369
      0.079049410414100477
      0.079410683805934926
      0.079773508222689887
      0.080137890596220993
      0.080503837890741822
      0.080871357102941396
      0.081240455262103203
      0.08161113943022455
      0.081983416702137005
      0.082357294205627374
      0.082732779101560128
      0.083109878583999361
      0.083488599880333553
      0.083868950251398691
      0.084250936991604616
      0.084634567429060795
      0.085019848925703009
      0.08540678887742148
      0.08579539471418958
      0.086185673900193008
      0.086577633933960577
      0.086971282348494813
      0.087366626711404896
      0.087763674625038923
      0.088162433726617986
      0.088562911688371063
      0.088965116217670448
      0.089369055057167635
      0.089774735984931964
      0.090182166814587544
      0.090591355395453307
      0.091002309612682422
      0.091415037387403517
      0.091829546676862342
      0.092245845474564589
      0.092663941810419287
      0.093083843750883799
      0.093505559399108581
      0.093929096895084052
      0.094354464415787487
      0.094781670175331637
      0.095210722425113109
      0.095641629453963248
      0.096074399588298096
      0.096509041192271203
      0.096945562667925519
      0.097383972455348133
      0.097824279032823633
      0.098266490916991064
      0.098710616662999212
      0.099156664864665039
      0.099604644154631369
      0.10005456320452681
      0.10050643072512555
      0.10096025546650912
      0.10141604621822789
      0.10187381180946513
      0.10233356110920022
      0.10279530302637437
      0.10325904651005623
      0.10372480054960917
      0.10419257417485892
      0.10466237645626295
      0.10513421650507994
      0.10560810347354083
      0.10608404655502049
      0.10656205498421091
      0.10704213803729441
      0.10752430503211938
      0.10800856532837444
      0.10849492832776714
      0.10898340347420003
      0.10947400025395039
      0.10996672819584953
      0.11046159687146356
      0.11095861589527506
      0.111457794924866
      0.1119591436611012
      0.11246267184831311
      0.11296838927448753
      0.11347630577145057
      0.11398643121505597
      0.11449877552537428
      0.11501334866688197
      0.11553016064865346
      0.11604922152455147
      0.11657054139342105
      0.11709413039928245
      0.11761999873152697
      0.11814815662511208
      0.11867861436075923
      0.11921138226515089
      0.11974647071113023
      0.12028389011790119
      0.12082365095122949
      0.1213657637236444
      0.12191023899464293
      0.12245708737089335
      0.12300631950644066
      0.1235579461029131
      0.12411197790972989
      0.12466842572430924
      0.12522730039227839
      0.12578861280768391
      0.12635237391320386
      0.12691859470036049
      0.12748728620973399
      0.12805845953117745
      0.12863212580403358
      0.12920829621735083
      0.1297869820101028
      0.13036819447140674
      0.13095194494074439
      0.13153824480818369
      0.13212710551460108
      0.13271853855190568
      0.13331255546326426
      0.1339091678433264
      0.13450838733845316
      0.13511022564694367
      0.13571469451926618
      0.13632180575828703
      0.13693157121950367
      0.13754400281127641
      0.13815911249506349
      0.13877691228565492
      0.13939741425140978
      0.14002063051449293
      0.14064657325111413
      0.14127525469176741
      0.14190668712147195
      0.14254088288001454
      0.14317785436219232
      0.14381761401805757
      0.14446017435316305
      0.14510554792880895
      0.14575374736229108
      0.14640478532714923
      0.14705867455341873
      0.14771542782788091
      0.14837505799431672
      0.14903757795376002
      0.14970300066475339
      0.15037133914360426
      0.15104260646464271
      0.15171681576047982
      0.15239398022226872
      0.15307411309996505
      0.15375722770259018
      0.15444333739849442
      0.15513245561562325
      0.15582459584178213
      0.15651977162490507
      0.15721799657332358
      0.15791928435603644
      0.15862364870298082
      0.15933110340530618
      0.1600416623156467
      0.16075533934839767
      0.16147214847999145
      0.16219210374917603
      0.16291521925729308
      0.16364150916855982
      0.16437098771034919
      0.1651036691734748
      0.16583956791247353
      0.16657869834589267
      0.16732107495657639
      0.1680667122919545
      0.16881562496433158
      0.16956782765117895
      0.17032333509542658
      0.17108216210575744
      0.17184432355690171
