src/apps/iosdisplay/iosdisplay/OpenColorIOConfigs/spi-anim/luts/lm16.spi1d
Version 1
From 0 1
Length 131072
Components 1
{
      0.0001220703125
      0.00012211900286610293
      0.00012216771092921069
      0.00012221643669499275
      0.00012226518016911895
      0.00012231394135726238
      0.00012236272026509498
      0.00012241151689829354
      0.00012246033126253408
      0.00012250916336349363
      0.00012255801320685289
      0.00012260688079829279
      0.00012265576614349429
      0.000122704669248143
      0.0001227535901179236
      0.00012280252875852365
      0.00012285148517563005
      0.0001229004593749338
      0.00012294945136212651
      0.00012299846114289959
      0.00012304748872294912
      0.00012309653410796966
      0.00012314559730365851
      0.00012319467831571488
      0.00012324377714983891
      0.0001232928938117319
      0.00012334202830709774
      0.00012339118064164074
      0.00012344035082106702
      0.00012348953885108434
      0.00012353874473740201
      0.00012358796848573002
      0.00012363721010178122
      0.0001236864695912684
      0.0001237357469599077
      0.00012378504221341466
      0.00012383435535750822
      0.00012388368639790721
      0.00012393303534033266
      0.00012398240219050778
      0.00012403178695415563
      0.00012408118963700261
      0.00012413061024477487
      0.00012418004878320127
      0.00012422950525801189
      0.00012427897967493879
      0.00012432847203971333
      0.00012437798235807046
      0.00012442751063574667
      0.00012447705687847918
      0.0001245266210920067
      0.00012457620328206961
      0.00012462580345440997
      0.00012467542161477056
      0.00012472505776889656
      0.0001247747119225347
      0.00012482438408143197
      0.00012487407425133869
      0.00012492378243800505
      0.00012497350864718271
      0.0001250232528846268
      0.00012507301515609222
      0.00012512279546733463
      0.00012517259382411363
      0.00012522241023218901
      0.00012527224469732057
      0.00012532209722527268
      0.00012537196782180847
      0.00012542185649269406
      0.00012547176324369689
      0.00012552168808058529
      0.00012557163100912987
      0.00012562159203510236
      0.00012567157116427505
      0.00012572156840242427
      0.00012577158375532416
      0.00012582161722875419
      0.00012587166882849286
      0.00012592173856032054
      0.00012597182643001942
      0.00012602193244337344
      0.00012607205660616859
      0.00012612219892418973
      0.00012617235940322693
      0.00012622253804906805
      0.00012627273486750574
      0.00012632294986433137
      0.00012637318304533984
      0.0001264234344163269
      0.00012647370398308959
      0.00012652399175142607
      0.00012657429772713715
      0.00012662462191602374
      0.00012667496432388982
      0.00012672532495653984
      0.00012677570381977935
      0.00012682610091941599
      0.00012687651626125935
      0.00012692694985112036
      0.00012697740169481068
      0.00012702787179814416
      0.0001270783601669358
      0.00012712886680700202
      0.00012717939172416086
      0.00012722993492423267
      0.00012728049641303843
      0.0001273310761964004
      0.0001273816742801429
      0.00012743229067009189
      0.00012748292537207421
      0.00012753357839191792
      0.00012758424973545424
      0.0001276349394085145
      0.00012768564741693185
      0.00012773637376654041
      0.00012778711846317775
      0.00012783788151267978
      0.00012788866292088674
      0.00012793946269363973
      0.0001279902808367798
      0.00012804111735615072
      0.00012809197225759899
      0.00012814284554697064
      0.00012819373723011314
      0.00012824464731287701
      0.00012829557580111326
      0.00012834652270067457
      0.00012839748801741542
      0.00012844847175719166
      0.00012849947392586032
      0.00012855049452927954
      0.00012860153357331143
      0.00012865259106381561
      0.0001287036670066564
      0.00012875476140769877
      0.00012880587427280865
      0.00012885700560785382
      0.00012890815541870461
      0.0001289593237112304
      0.00012901051049130376
      0.00012906171576479954
      0.00012911293953759225
      0.00012916418181555894
      0.00012921544260457819
      0.00012926672191052979
      0.00012931801973929531
      0.0001293693360967575
      0.00012942067098880046
      0.00012947202442131051
      0.00012952339640017531
      0.0001295747869312837
      0.00012962619602052542
      0.0001296776236737939
      0.00012972906989698108
      0.00012978053469598296
      0.00012983201807669552
      0.00012988352004501765
      0.00012993504060684793
      0.00012998657976808766
      0.00013003813753464041
      0.00013008971391240874
      0.00013014130890729884
      0.00013019292252521857
      0.00013024455477207605
      0.00013029620565378078
      0.00013034787517624555
      0.00013039956334538275
      0.00013045127016710726
      0.00013050299564733533
      0.00013055473979198512
      0.00013060650260697542
      0.00013065828409822682
      0.00013071008427166202
      0.00013076190313320526
      0.00013081374068878089
      0.00013086559694431589
      0.00013091747190573916
      0.00013096936557898008
      0.00013102127796997044
      0.00013107320908464288
      0.00013112515892893127
      0.00013117712750877327
      0.00013122911483010453
      0.00013128112089886499
      0.00013133314572099484
      0.00013138518930243687
      0.00013143725164913277
      0.00013148933276703001
      0.00013154143266207318
      0.00013159355134021128
      0.00013164568880739432
      0.0001316978450695726
      0.00013175002013269906
      0.00013180221400272806
      0.00013185442668561486
      0.00013190665818731714
      0.0001319589085137942
      0.00013201117767100523
      0.00013206346566491258
      0.00013211577250148003
      0.00013216809818667101
      0.00013222044272645351
      0.0001322728061267941
      0.00013232518839366347
      0.00013237758953303113
      0.00013243000955087103
      0.00013248244845315637
      0.00013253490624586179
      0.00013258738293496665
      0.00013263987852644716
      0.00013269239302628473
      0.00013274492644046104
      0.00013279747877495825
      0.00013285005003576153
      0.00013290264022885792
      0.00013295524936023418
      0.00013300787743587912
      0.00013306052446178439
      0.00013311319044394273
      0.0001331658753883471
      0.00013321857930099243
      0.00013327130218787679
      0.00013332404405499805
      0.00013337680490835602
      0.00013342958475395233
      0.00013348238359779039
      0.00013353520144587347
      0.00013358803830420898
      0.00013364089417880395
      0.00013369376907566732
      0.00013374666300081
      0.00013379957596024381
      0.00013385250795998362
      0.00013390545900604338
      0.00013395842910443969
      0.00013401141826119243
      0.00013406442648231947
      0.00013411745377384394
      0.00013417050014178766
      0.00013422356559217519
      0.0001342766501310326
      0.00013432975376438707
      0.00013438287649826858
      0.00013443601833870627
      0.00013448917929173386
      0.00013454235936338378
      0.0001345955585596912
      0.00013464877688669291
      0.00013470201435042826
      0.00013475527095693546
      0.00013480854671225659
      0.00013486184162243384
      0.00013491515569351241
      0.00013496848893153804
      0.00013502184134255789
      0.00013507521293262064
      0.00013512860370777671
      0.00013518201367407909
      0.00013523544283758061
      0.00013528889120433622
      0.00013534235878040319
      0.00013539584557183904
      0.00013544935158470419
      0.00013550287682505957
      0.00013555642129896807
      0.00013560998501249322
      0.00013566356797170201
      0.00013571717018266095
      0.00013577079165143994
      0.00013582443238410811
      0.00013587809238673897
      0.0001359317716654051
      0.00013598547022618143
      0.00013603918807514521
      0.00013609292521837477
      0.00013614668166194916
      0.00013620045741194982
      0.00013625425247446024
      0.00013630806685556367
      0.00013636190056134703
      0.00013641575359789616
      0.00013646962597130163
      0.00013652351768765359
      0.00013657742875304314
      0.00013663135917356495
      0.00013668530895531426
      0.00013673927810438615
      0.00013679326662688048
      0.00013684727452889644
      0.00013690130181653504
      0.00013695534849589923
      0.00013700941457309298
      0.00013706350005422341
      0.00013711760494539705
      0.00013717172925272351
      0.0001372258729823124
      0.00013728003614027631
      0.00013733421873272903
      0.00013738842076578585
      0.0001374426422455629
      0.0001374968831781793
      0.00013755114356975423
      0.00013760542342640861
      0.00013765972275426661
      0.0001377140415594521
      0.00013776837984809056
      0.00013782273762631017
      0.00013787711490023948
      0.00013793151167600982
      0.00013798592795975252
      0.00013804036375760208
      0.00013809481907569384
      0.0001381492939201638
      0.00013820378829715099
      0.00013825830221279541
      0.00013831283567323834
      0.00013836738868462192
      0.00013842196125309211
      0.00013847655338479432
      0.00013853116508587675
      0.00013858579636248753
      0.00013864044722077898
      0.00013869511766690146
      0.00013874980770701048
      0.00013880451734726111
      0.00013885924659380936
      0.0001389139954528148
      0.00013896876393043749
      0.00013902355203283803
      0.00013907835976618055
      0.00013913318713662978
      0.00013918803415035138
      0.00013924290081351314
      0.00013929778713228538
      0.00013935269311283796
      0.00013940761876134387
      0.00013946256408397728
      0.00013951752908691368
      0.00013957251377632953
      0.00013962751815840477
      0.00013968254223931836
      0.000139737586025253
      0.00013979264952239173
      0.00013984773273691985
      0.00013990283567502312
      0.00013995795834288906
      0.00014001310074670913
      0.00014006826289267294
      0.00014012344478697339
      0.00014017864643580495
      0.00014023386784536366
      0.00014028910902184701
      0.00014034436997145225
      0.00014039965070038174
      0.00014045495121483694
      0.0001405102715210211
      0.00014056561162513988
      0.000140620971533399
      0.00014067635125200758
      0.00014073175078717535
      0.00014078717014511308
      0.00014084260933203434
      0.0001408980683541537
      0.00014095354721768634
      0.0001410090459288505
      0.0001410645644938647
      0.0001411201029189509
      0.00014117566121032998
      0.00014123123937422695
      0.00014128683741686639
      0.00014134245534447515
      0.00014139809316328244
      0.00014145375087951724
      0.00014150942849941274
      0.0001415651260292009
      0.00014162084347511724
      0.00014167658084339772
      0.00014173233814027925
      0.00014178811537200259
      0.00014184391254480847
      0.0001418997296649399
      0.00014195556673863996
      0.00014201142377215397
      0.00014206730077173104
      0.00014212319774361832
      0.00014217911469406654
      0.00014223505162932877
      0.0001422910085556566
      0.00014234698547930681
      0.00014240298240653511
      0.00014245899934359923
      0.00014251503629676056
      0.0001425710932722786
      0.00014262717027641714
      0.00014268326731544103
      0.00014273938439561562
      0.00014279552152320822
      0.00014285167870448892
      0.0001429078559457275
      0.00014296405325319689
      0.0001430202706331709
      0.00014307650809192442
      0.00014313276563573458
      0.00014318904327087977
      0.0001432453410036407
      0.00014330165884029875
      0.0001433579967871376
      0.00014341435485044091
      0.00014347073303649626
      0.00014352713135159015
      0.00014358354980201419
      0.00014363998839405715
      0.00014369644713401334
      0.00014375292602817626
      0.00014380942508284233
      0.00014386594430430827
      0.00014392248369887346
      0.0001439790432728376
      0.00014403562303250274
      0.00014409222298417411
      0.00014414884313415565
      0.00014420548348875436
      0.0001442621440542782
      0.00014431882483703702
      0.00014437552584334364
      0.00014443224707951028
      0.00014448898855185102
      0.00014454575026668216
      0.00014460253223032269
      0.00014465933444909092
      0.0001447161569293076
      0.00014477299967729539
      0.00014482986269937916
      0.00014488674600188407
      0.00014494364959113704
      0.00014500057347346717
      0.00014505751765520389
      0.00014511448214268085
      0.00014517146694223047
      0.0001452284720601875
      0.00014528549750288951
      0.00014534254327667388
      0.000145399609387881
      0.00014545669584285217
      0.00014551380264793043
      0.00014557092980945993
      0.00014562807733378688
      0.00014568524522725934
      0.00014574243349622598
      0.00014579964214703786
      0.00014585687118604744
      0.00014591412061960892
      0.00014597139045407741
      0.00014602868069581087
      0.00014608599135116723
      0.00014614332242650642
      0.00014620067392819187
      0.00014625804586258521
      0.0001463154382360528
      0.00014637285105496104
      0.00014643028432567733
      0.00014648773805457164
      0.00014654521224801597
      0.00014660270691238333
      0.0001466602220540473
      0.00014671775767938393
      0.00014677531379477245
      0.00014683289040659056
      0.00014689048752121941
      0.00014694810514504167
      0.00014700574328444099
      0.00014706340194580358
      0.00014712108113551582
      0.00014717878085996705
      0.00014723650112554704
      0.00014729424193864782
      0.00014735200330566269
      0.00014740978523298761
      0.00014746758772701785
      0.00014752541079415349
      0.00014758325444079183
      0.00014764111867333676
      0.00014769900349818899
      0.00014775690892175503
      0.00014781483495043951
      0.00014787278159065183
      0.00014793074884879908
      0.00014798873673129402
      0.00014804674524454735
      0.00014810477439497501
      0.00014816282418899222
      0.00014822089463301482
      0.00014827898573346269
      0.00014833709749675672
      0.00014839522992931745
      0.0001484533830375697
      0.00014851155682793778
      0.00014856975130684953
      0.0001486279664807319
      0.00014868620235601525
      0.00014874445893913173
      0.00014880273623651402
      0.00014886103425459601
      0.00014891935299981486
      0.00014897769247860861
      0.00014903605269741597
      0.0001490944336626782
      0.00014915283538083853
      0.00014921125785833977
      0.00014926970110162925
      0.00014932816511715286
      0.00014938664991136024
      0.000149445155490703
      0.00014950368186163131
      0.00014956222903059977
      0.00014962079700406455
      0.00014967938578848091
      0.00014973799539030858
      0.00014979662581600788
      0.00014985527707203918
      0.00014991394916486606
      0.00014997264210095447
      0.00015003135588676991
      0.00015009009052878048
      0.00015014884603345639
      0.00015020762240726816
      0.00015026641965668909
      0.00015032523778819276
      0.00015038407680825582
      0.00015044293672335655
      0.00015050181753997304
      0.00015056071926458642
      0.00015061964190367941
      0.00015067858546373493
      0.00015073754995123989
      0.00015079653537268021
      0.00015085554173454585
      0.0001509145690433265
      0.00015097361730551315
      0.00015103268652760113
      0.00015109177671608425
      0.00015115088787746037
      0.00015121002001822651
      0.00015126917314488303
      0.00015132834726393145
      0.0001513875423818752
      0.00015144675850521926
      0.00015150599564046856
      0.00015156525379413259
      0.00015162453297271958
      0.00015168383318274074
      0.00015174315443070973
      0.00015180249672314014
      0.00015186186006654716
      0.00015192124446744979
      0.00015198064993236595
      0.00015204007646781679
      0.00015209952408032395
      0.00015215899277641221
      0.00015221848256260614
      0.00015227799344543294
      0.00015233752543142171
      0.00015239707852710317
      0.0001524566527390079
      0.00015251624807366946
      0.00015257586453762436
      0.00015263550213740772
      0.00015269516087955829
      0.00015275484077061652
      0.00015281454181712234
      0.00015287426402562
      0.0001529340074026542
      0.00015299377195477089
      0.00015305355768851768
      0.00015311336461044467
      0.00015317319272710253
      0.00015323304204504311
      0.0001532929125708224
      0.00015335280431099472
      0.0001534127172721178
      0.00015347265146075129
      0.00015353260688345617
      0.00015359258354679292
      0.00015365258145732738
      0.00015371260062162464
      0.00015377264104625061
      0.00015383270273777489
      0.00015389278570276745
      0.00015395288994780073
      0.00015401301547944758
      0.00015407316230428407
      0.00015413333042888495
      0.00015419351985983035
      0.00015425373060369972
      0.00015431396266707461
      0.0001543742160565379
      0.00015443449077867416
      0.00015449478684007015
      0.00015455510424731286
      0.00015461544300699332
      0.00015467580312570158
      0.00015473618461003149
      0.00015479658746657583
      0.00015485701170193169
      0.0001549174573226972
      0.00015497792433547005
      0.00015503841274685127
      0.00015509892256344404
      0.00015515945379185225
      0.00015522000643868145
      0.00015528058051053839
      0.00015534117601403207
      0.00015540179295577342
      0.00015546243134237413
      0.00015552309118044787
      0.0001555837724766105
      0.00015564447523747801
      0.00015570519946966872
      0.00015576594517980325
      0.00015582671237450343
      0.00015588750106039284
      0.00015594831124409567
      0.0001560091429322388
      0.00015606999613145041
      0.00015613087084835966
      0.00015619176708959857
      0.00015625268486180061
      0.00015631362417159944
      0.00015637458502563143
      0.00015643556743053508
      0.00015649657139294923
      0.00015655759691951467
      0.00015661864401687466
      0.00015667971269167253
      0.00015674080295055576
      0.00015680191480017052
      0.00015686304824716603
      0.00015692420329819351
      0.00015698537995990482
      0.00015704657823895486
      0.0001571077981419978
      0.0001571690396756912
      0.00015723030284669484
      0.0001572915876616684
      0.00015735289412727358
      0.00015741422225017392
      0.00015747557203703568
      0.00015753694349452516
      0.00015759833662931091
      0.00015765975144806248
      0.00015772118795745214
      0.00015778264616415344
      0.00015784412607484075
      0.00015790562769619034
      0.00015796715103488142
      0.00015802869609759311
      0.00015809026289100736
      0.00015815185142180633
      0.00015821346169667567
      0.0001582750937223006
      0.00015833674750536985
      0.00015839842305257197
      0.00015846012037059947
      0.00015852183946614325
      0.00015858358034589949
      0.00015864534301656376
      0.00015870712748483254
      0.00015876893375740586
      0.00015883076184098412
      0.00015889261174227061
      0.00015895448346796818
      0.00015901637702478381
      0.00015907829241942371
      0.00015914022965859807
      0.00015920218874901579
      0.00015926416969739077
      0.000159326172510435
      0.00015938819719486523
      0.00015945024375739776
      0.00015951231220475204
      0.00015957440254364764
      0.00015963651478080669
      0.00015969864892295265
      0.00015976080497681074
      0.00015982298294910731
      0.0001598851828465717
      0.00015994740467593249
      0.00016000964844392274
      0.00016007191415727412
      0.00016013420182272339
      0.00016019651144700628
      0.00016025884303685968
      0.00016032119659902501
      0.000160383572140243
      0.00016044596966725678
      0.000160508389186811
      0.0001605708307056515
      0.00016063329423052577
      0.00016069577976818457
      0.00016075828732537808
      0.00016082081690885916
      0.00016088336852538269
      0.00016094594218170438
      0.00016100853788458128
      0.00016107115564077294
      0.00016113379545704091
      0.00016119645734014745
      0.00016125914129685521
      0.00016132184733393196
      0.00016138457545814363
      0.0001614473256762607
      0.00016151009799505252
      0.0001615728924212914
      0.00016163570896175173
      0.00016169854762320885
      0.00016176140841243957
      0.00016182429133622346
      0.00016188719640134044
      0.00016195012361457138
      0.00016201307298270232
      0.00016207604451251725
      0.00016213903821080263
      0.0001622020540843468
      0.00016226509213994198
      0.00016232815238437792
      0.00016239123482444836
      0.00016245433946694885
      0.00016251746631867653
      0.00016258061538642805
      0.00016264378667700492
      0.00016270698019720827
      0.00016277019595384109
      0.00016283343395370907
      0.00016289669420361687
      0.00016295997671037467
      0.00016302328148079087
      0.00016308660852167674
      0.00016314995783984579
      0.00016321332944211283
      0.00016327672333529383
      0.00016334013952620652
      0.00016340357802167122
      0.00016346703882850835
      0.0001635305219535405
      0.00016359402740359261
      0.00016365755518549043
      0.00016372110530606118
      0.00016378467777213552
      0.0001638482725905438
      0.00016391188976811838
      0.00016397552931169288
      0.00016403919122810466
      0.00016410287552418999
      0.00016416658220678854
      0.00016423031128274117
      0.00016429406275888977
      0.00016435783664207874
      0.00016442163293915372
      0.00016448545165696161
      0.00016454929280235235
      0.00016461315638217539
      0.00016467704240328315
      0.00016474095087253059
      0.0001648048817967717
      0.00016486883518286493
      0.00016493281103766735
      0.00016499680936804138
      0.00016506083018084784
      0.00016512487348294995
      0.00016518893928121453
      0.00016525302758250694
      0.0001653171383936973
      0.00016538127172165446
      0.00016544542757325085
      0.00016550960595535991
      0.00016557380687485718
      0.00016563803033861835
      0.00016570227635352374
      0.00016576654492645181
      0.00016583083606428386
      0.00016589514977390497
      0.00016595948606219901
      0.00016602384493605231
      0.00016608822640235446
      0.00016615263046799373
      0.00016621705713986269
      0.00016628150642485385
      0.00016634597832986293
      0.0001664104728617854
      0.0001664749900275199
      0.00016653952983396663
      0.00016660409228802568
      0.00016666867739660146
      0.0001667332851665972
      0.00016679791560492057
      0.00016686256871847898
      0.00016692724451418162
      0.00016699194299893999
      0.00016705666417966749
      0.00016712140806327767
      0.00016718617465668749
      0.00016725096396681447
      0.00016731577600057802
      0.00016738061076489906
      0.00016744546826670095
      0.00016751034851290788
      0.00016757525151044452
      0.00016764017726624106
      0.00016770512578722388
      0.00016777009708032609
      0.00016783509115248006
      0.0001679001080106198
      0.00016796514766167996
      0.00016803021011260017
      0.00016809529537031818
      0.00016816040344177469
      0.00016822553433391331
      0.00016829068805367762
      0.00016835586460801317
      0.00016842106400386745
      0.00016848628624818892
      0.00016855153134792995
      0.00016861679931004183
      0.00016868209014147823
      0.00016874740384919485
      0.0001688127404401495
      0.00016887809992130121
      0.00016894348229960969
      0.00016900888758203777
