src/apps/iosdisplay/iosdisplay/OpenColorIOConfigs/spi-anim/luts/lm8.spi1d
Version 1
From 0 1
Length 512
Components 1
{
      0.0001220703125
      0.00013515525403142499
      0.00014950356730830756
      0.0001652207924925215
      0.00018241934662780108
      0.0002012187321403915
      0.00022174571660629313
      0.00024413447705744511
      0.00026852670127958263
      0.00029507163767081155
      0.00032392608428070203
      0.00035525430663419828
      0.00038922787286269637
      0.00042602539351711442
      0.00046583215222633306
      0.00050883961209198763
      0.00055524478138159689
      0.00060524942070230457
      0.00065905907241468507
      0.00071688189159024331
      0.00077892725633921397
      0.0008454041338519726
      0.00091651917702565094
      0.00099247452510805895
      0.0010734652804084046
      0.0011596766318268288
      0.0012512805947746681
      0.0013484323360314211
      0.0014512660512531641
      0.0015598903622565106
      0.0016743832009006288
      0.0017947861464307543
      0.0019210981835846249
      0.0020532688496544623
      0.0021911907400947025
      0.0023346913442179726
      0.0024835241850627615
      0.0026373592406602089
      0.0027957726276517333
      0.0029582355324359981
      0.0031241023795879124
      0.0032925982318962382
      0.0034628054205084529
      0.0036336494065380988
      0.0038038838757865835
      0.0039720750639137903
      0.0041394152327425167
      0.0043098243224794419
      0.0044831838850995171
      0.004659319522490107
      0.0048380760826271249
      0.0050193196764134569
      0.0052029387450982668
      0.0053888442928319317
      0.0055769694301015804
      0.0057672683852936736
      0.0059597151375000643
      0.0061543018087506377
      0.0063510369327438206
      0.0065499436936866653
      0.0067510582058484172
      0.0069544278836585162
      0.0071601099345705091
      0.0073681699927590051
      0.0075786809008863499
      0.0077917216392968305
      0.0080073763965867219
      0.0082257337720590077
      0.0084468860986390438
      0.0086709288739990516
      0.0088979602875876238
      0.0091280808317245766
      0.0093613929857059384
      0.0095980009628230563
      0.0098380105112323701
      0.010081528760648436
      0.010328664107827389
      0.010579526134734134
      0.010834225554130585
      0.011092874178077826
      0.011355584905513763
      0.011622471725652592
      0.011893649734460542
      0.01216923516189964
      0.012449345408007078
      0.012734099086197508
      0.013023616072448032
      0.013318017559255834
      0.013617426113453335
      0.013921965737129378
      0.014231761931042577
      0.014546941760028853
      0.014867633920001308
      0.015193968806221279
      0.015526078582587078
      0.01586409725174226
      0.016208160725852128
      0.01655840689793538
      0.016914975713669796
      0.01727800924361694
      0.017647651755832432
      0.018024161990486062
      0.018408090807597158
      0.018799598018356276
      0.019198804816133404
      0.019605833351277854
      0.020020806737850273
      0.020443849064652565
      0.020875085410918971
      0.021314641867020267
      0.021762645560516679
      0.022219224687873601
      0.022684508552127648
      0.023158627606759203
      0.023641713505990276
      0.024133899161685915
      0.024635318806990585
      0.025146108066781504
      0.025666404034967314
      0.026196345358604694
      0.026736072328746686
      0.027285726977878497
      0.027845453183736307
      0.028415396779246614
      0.028995705668267736
      0.029586529946760792
      0.030188022028968527
      0.030800336778136209
      0.031423631641269108
      0.032058066787390302
      0.032703805248736409
      0.033361013064312939
      0.034029859425221153
      0.034710516821167124
      0.035403161187572828
      0.036107972052721295
      0.036825132684394191
      0.037554830235487127
      0.038297255888126512
      0.03905260499585133
      0.039821077223472855
      0.040602876684271663
      0.041398212074248049
      0.042207296803193746
      0.043030349122410244
      0.043867592248952585
      0.044719254486333099
      0.045585569341670476
      0.046466775639319585
      0.047363117631063704
      0.048274845102993597
      0.049202213479235028
      0.050145483922722361
      0.05110492343324273
      0.052080804943002851
      0.053073407409987956
      0.054083015909400664
      0.055109921723476847
      0.05615442242998489
      0.057216821989717233
      0.058297430833284029
      0.059396565947515932
      0.060514550961777998
      0.061651716234488375
      0.062808398940127172
      0.063984943157007992
      0.06518169995607466
      0.066399027490969778
      0.067637291089610488
      0.068896863347490053
      0.070178124222912044
      0.071481461134347377
      0.072807269060092189
      0.074155950640389087
      0.07552791628216339
      0.076923584266511594
      0.078343380859068043
      0.079787740423365089
      0.081257105537292165
      0.082751927112747495
      0.084272664518570697
      0.08581978570683424
      0.087393767342565792
      0.088995094936966584
      0.090624262984186549
      0.092281775101710345
      0.093968144174406451
      0.095683892502285622
      0.097429551952014665
      0.099205664112226463
      0.10101278045266779
      0.10285146248722332
      0.10472228194085448
      0.10662582092048981
      0.10856267208990618
      0.11053343884863523
      0.11253873551493689
      0.11457918751287523
      0.11665543156353826
      0.11876811588044177
      0.12091790036915881
      0.1231054568312189
      0.12533146917232177
      0.12759663361491166
      0.12990165891516262
      0.13224726658442218
      0.13463419111516994
      0.13706318021154154
      0.13953499502447683
      0.1420504103915515
      0.14461021508155056
      0.14721521204385016
      0.14986621866266994
      0.15256406701626612
      0.15530960414113454
      0.15810369230129395
      0.16094720926272868
      0.16384104857306289
      0.16678611984654812
      0.16978334905444589
      0.17283367882088921
      0.17593806872430834
      0.17909749560451035
      0.18231190863847052
      0.18557932408063593
      0.1889003962712095
      0.19227595780386605
      0.19570685358375514
      0.19919394100257398
      0.20273809011601801
      0.20634018382364205
      0.21000111805115632
      0.21372180193519918
      0.21750315801060771
      0.22134612240023149
      0.22525164500730815
      0.2292206897104454
      0.23325423456124078
      0.23735327198456702
      0.24151880898156816
      0.24575186733538951
      0.25005348381968556
      0.25442471040994297
      0.2588666144976402
      0.26338027910730416
      0.2679668031164732
      0.27262730147863212
      0.27736290544913217
      0.28217476281415271
      0.28706403812273035
      0.29203191292190445
      0.29707958599501261
      0.30220827360317948
      0.30741920973003439
      0.31271364632970861
      0.31809285357814088
      0.32355812012774615
      0.32911075336548018
      0.3347520796743445
      0.34048344469838376
      0.34630621361120545
      0.35222177138808008
      0.35823152308165196
      0.36433689410132486
      0.37053933049634785
      0.37684029924266504
      0.38324128853356154
      0.38974380807417036
      0.39634938937986725
      0.40305958607861714
      0.40987597421732225
      0.41680015257220754
      0.42383374296330428
      0.4309783905730854
      0.43823576426928984
      0.4456075569320081
      0.45309548578505277
      0.46070129273170141
      0.46842674469483242
      0.47627363396153372
      0.48424377853222272
      0.49233902247433509
      0.50056123628064442
      0.50891231723227137
      0.51739418976641194
      0.52600880584889054
      0.53475814535154997
      0.54364421643456173
      0.55266905593370697
      0.56183472975269333
      0.5711433332605651
      0.58059699169426726
      0.59019786056642587
      0.59994812607839942
      0.60985000553868451
      0.61990574778672158
      0.63011763362215389
      0.64048797623964404
      0.65101912166926867
      0.66171344922259423
      0.67257337194446043
      0.68360133707058823
      0.69479982649102301
      0.70617135721955304
      0.71771848186907317
      0.72944378913308061
      0.74134990427326486
      0.75343948961334128
      0.76571524503914767
      0.77817990850511465
      0.79083625654715339
      0.80368710480204852
      0.81673530853342158
      0.82998376316435574
      0.84343540481673329
      0.85709321085738488
      0.87096020045109923
      0.8850394351206099
      0.89933401931357859
      0.91384710097672595
      0.92858187213711985
      0.94354156949073564
      0.95872947499837302
      0.97414891648898483
      0.98980326827051412
      1.005695951748323
      1.0218304360512791
      1.0382102386656116
      1.054838926076576
      1.0717201144180479
      1.0888574701301119
      1.1062547106247476
      1.1239156049596424
      1.1418439745203113
      1.1600436937105014
      1.178518690651063
      1.1972729478872797
      1.2163105031048496
      1.2356354498544799
      1.2552519382853182
      1.2751641758871706
      1.2953764282417093
      1.315893019782681
      1.3367183345652376
      1.3578568170444585
      1.379312972863179
      1.4010913696491805
      1.423196637821855
      1.4456334714083949
      1.4684066288696724
      1.4915209339357691
      1.5149812764514003
      1.5387926132311578
      1.5629599689248095
      1.5874884368925981
      1.6123831800907646
      1.637649431967261
      1.6632924973678034
      1.6893177534523338
      1.71573065062199
      1.7425367134565994
      1.7697415416628861
      1.7973508110333676
      1.8253702744160853
      1.8538057626952036
      1.8826631857826157
      1.9119485336205333
      1.9416678771952549
      1.9718273695620552
      2.002433246881377
      2.0334918294663189
      2.0650095228415508
      2.0969928188135971
      2.1294482965527508
      2.1623826236864425
      2.1958025574043201
      2.2297149455749432
      2.2641267278742623
      2.2990449369258052
      2.3344766994527508
      2.3704292374417686
      2.4069098693188189
      2.4439260111368148
      2.4814851777752418
      2.5195949841517145
      2.5582631464455456
      2.5974974833332078
      2.6373059172358606
      2.6776964755787684
      2.7186772920627478
      2.7602566079474791
      2.8024427733467769
      2.8452442485357015
      2.8886696052695116
      2.9327275281143574
      2.9774268157897184
      3.0227763825223972
      3.0687852594121257
      3.1154625958085105
      3.1628176606994005
      3.2108598441103506
      3.2595986585151513
      3.3090437402572825
      3.3592048509820263
      3.4100918790790655
      3.4617148411354752
      3.5140838833986447
      3.5672092832490954
      3.6211014506827701
      3.6757709298025225
      3.7312284003185461
      3.7874846790572398
      3.8445507214782375
      3.9024376231991433
      3.9611566215274658
      4.020719096999362
      4.0811365749244368
      4.14242072693638
      4.2045833725483694
      4.2676364807129827
      4.3315921713855623
      4.3964627170904302
      4.4622605444891059
      4.5289982359495253
      4.5966885311152801
      4.6653443284739868
      4.734978686923407
      4.8056048273342853
      4.8772361341084522
      4.9498861567308934
      5.0235686113140918
      5.0982973821331772
      5.1740865231499571
      5.2509502595239281
      5.328902989108288
      5.4079592839285873
      5.4881338916416746
      5.5694417369723315
      5.6518979231246886
      5.7355177331655396
      5.8203166313759773
      5.9063102645681145
      5.9935144633626356
      6.0819452434233821
      6.1716188066438988
      6.2625515422814892
      6.3547600280329686
      6.44826103104654
      6.5430715088630143
      6.6392086102798435
      6.7366896761298358
      6.835532239966617
      6.9357540286472696
      7.037372962802495
      7.1404071571830006
      7.2448749208701102
      7.350794757337118
      7.4581853643469103
      7.5670656336692232
      7.6774546505998948
      7.7893716932618027
      7.9028362316656153
      8.0178679265054509
      8.1344866276620778
      8.2527123723827494
      8.3725653831034688
      8.4940660648747386
      8.6172350023476305
      8.7420929562707173
      8.8686608594428815
      8.9969598120585665
      9.1270110763744103
      9.2588360706151178
      9.3924563620258184
      9.5278936589629115
      9.6651698019006975
      9.8043067532102484
      9.9453265855452919
      10.088251468641577
      10.23310365430404
      10.379905459315729
      10.528679245955031
      10.679447399748604
      10.832232304015962
      10.987056310672315
      11.143941706646842
      11.302910675134672
      11.463985250727726
      11.627187267247631
      11.792538296821569
      11.960059578373995
      12.129771933229522
      12.301695664888213
      12.47585043919103
      12.652255139948815
      12.830927693542511
      13.011884853820799
      13.195141935538388
      13.380712480137479
      13.568607831154562
      13.758836586742129
      13.951403881726115
      14.146310427763643
      14.343551201185736
      14.543113602025361
      14.744974790817912
      14.949097692220571
      15.155424724486847
      15.363867398416035
      15.574287789941211
      15.786462241533407
      16.0
}
