src/apps/iosdisplay/iosdisplay/OpenColorIOConfigs/spi-anim/luts/lmf.spi1d
Version 1
From -0.2 2.484
Length 131072
Components 1
{
      2.0150393319362419e-08
      2.0168873875224182e-08
      2.0187371063284922e-08
      2.0205884898308545e-08
      2.0224415395071919e-08
      2.0242962568364781e-08
      2.0261526432990042e-08
      2.0280107003763405e-08
      2.0298704295513831e-08
      2.0317318323082935e-08
      2.0335949101325917e-08
      2.0354596645110506e-08
      2.0373260969317777e-08
      2.0391942088841821e-08
      2.0410640018589893e-08
      2.042935477348208e-08
      2.0448086368451864e-08
      2.0466834818445636e-08
      2.048560013842314e-08
      2.050438234335706e-08
      2.0523181448233258e-08
      2.0541997468050957e-08
      2.0560830417822285e-08
      2.0579680312572737e-08
      2.0598547167340907e-08
      2.0617430997178626e-08
      2.0636331817151077e-08
      2.0655249642336479e-08
      2.0674184487826464e-08
      2.0693136368725763e-08
      2.0712105300152359e-08
      2.0731091297237809e-08
      2.0750094375126577e-08
      2.0769114548976792e-08
      2.0788151833959608e-08
      2.08072062452595e-08
      2.0826277798074621e-08
      2.0845366507616151e-08
      2.0864472389108671e-08
      2.0883595457790266e-08
      2.0902735728912393e-08
      2.0921893217739688e-08
      2.0941067939550435e-08
      2.096025990963611e-08
      2.0979469143302076e-08
      2.0998695655866393e-08
      2.101793946266145e-08
      2.1037200579032404e-08
      2.1056479020338185e-08
      2.1075774801951204e-08
      2.1095087939257252e-08
      2.1114418447655871e-08
      2.1133766342559858e-08
      2.1153131639395687e-08
      2.117251435360347e-08
      2.1191914500636598e-08
      2.1211332095962388e-08
      2.123076715506141e-08
      2.1250219693427968e-08
      2.126968972657012e-08
      2.1289177270009314e-08
      2.1308682339280827e-08
      2.1328204949933507e-08
      2.1347745117529582e-08
      2.1367302857645402e-08
      2.1386878185870662e-08
      2.1406471117809e-08
      2.1426081669077574e-08
      2.1445709855307307e-08
      2.1465355692142929e-08
      2.1485019195242676e-08
      2.1504700380278744e-08
      2.1524399262937112e-08
      2.1544115858917479e-08
      2.1563850183933309e-08
      2.1583602253711734e-08
      2.1603372083993959e-08
      2.1623159690534934e-08
      2.1642965089103266e-08
      2.1662788295481559e-08
      2.1682629325466306e-08
      2.1702488194867809e-08
      2.1722364919510332e-08
      2.1742259515231812e-08
      2.1762171997884391e-08
      2.1782102383333911e-08
      2.1802050687460276e-08
      2.182201692615722e-08
      2.184200111533262e-08
      2.1862003270908048e-08
      2.1882023408819186e-08
      2.1902061545015868e-08
      2.1922117695461795e-08
      2.1942191876134515e-08
      2.1962284103025904e-08
      2.1982394392141706e-08
      2.2002522759501752e-08
      2.2022669221139926e-08
      2.2042833793104326e-08
      2.2063016491456916e-08
      2.2083217332273955e-08
      2.2103436331645586e-08
      2.2123673505676329e-08
      2.2143928870484728e-08
      2.21642024422035e-08
      2.2184494236979577e-08
      2.2204804270973764e-08
      2.2225132560361708e-08
      2.2245479121332512e-08
      2.2265843970089873e-08
      2.2286227122851847e-08
      2.2306628595850339e-08
      2.2327048405331862e-08
      2.2347486567557064e-08
      2.2367943098800752e-08
      2.2388418015352154e-08
      2.2408911333514733e-08
      2.242942306960636e-08
      2.2449953239959257e-08
      2.2470501860919645e-08
      2.2491068948848572e-08
      2.2511654520121206e-08
      2.2532258591126968e-08
      2.2552881178269974e-08
      2.2573522297968394e-08
      2.2594181966655121e-08
      2.2614860200777354e-08
      2.263555701679664e-08
      2.2656272431189141e-08
      2.2677006460445347e-08
      2.2697759121070256e-08
      2.2718530429583452e-08
      2.2739320402519002e-08
      2.2760129056425243e-08
      2.2780956407865303e-08
      2.2801802473416714e-08
      2.2822667269671708e-08
      2.2843550813237069e-08
      2.2864453120733907e-08
      2.288537420879819e-08
      2.2906314094080298e-08
      2.2927272793245493e-08
      2.2948250322973301e-08
      2.2969246699958154e-08
      2.2990261940909179e-08
      2.3011296062549977e-08
      2.303234908161881e-08
      2.3053421014868836e-08
      2.3074511879067849e-08
      2.3095621690998218e-08
      2.3116750467457202e-08
      2.3137898225256665e-08
      2.315906498122344e-08
      2.3180250752199043e-08
      2.3201455555039594e-08
      2.3222679406616031e-08
      2.3243922323814437e-08
      2.3265184323535457e-08
      2.3286465422694607e-08
      2.330776563822218e-08
      2.3329084987063306e-08
      2.3350423486178244e-08
      2.3371781152541901e-08
      2.339315800314417e-08
      2.3414554054989841e-08
      2.3435969325098599e-08
      2.345740383050506e-08
      2.3478857588258872e-08
      2.3500330615424571e-08
      2.3521822929081657e-08
      2.3543334546324761e-08
      2.356486548426339e-08
      2.3586415760021925e-08
      2.3607985390740164e-08
      2.3629574393572572e-08
      2.3651182785688713e-08
      2.3672810584273661e-08
      2.3694457806527025e-08
      2.3716124469663664e-08
      2.3737810590913699e-08
      2.3759516187522292e-08
      2.378124127674948e-08
      2.3802985875871021e-08
      2.3824750002177212e-08
      2.3846533672974044e-08
      2.3868336905582254e-08
      2.3890159717338113e-08
      2.391200212559291e-08
      2.393386414771313e-08
      2.3955745801080842e-08
      2.397764710309298e-08
      2.3999568071161737e-08
      2.402150872271502e-08
      2.4043469075195495e-08
      2.4065449146061506e-08
      2.4087448952786476e-08
      2.410946851285936e-08
      2.4131507843784333e-08
      2.4153566963080961e-08
      2.4175645888284395e-08
      2.4197744636944564e-08
      2.421986322662754e-08
      2.4242001674914261e-08
      2.4264159999401475e-08
      2.4286338217701055e-08
      2.4308536347440432e-08
      2.4330754406262587e-08
      2.4352992411825967e-08
      2.4375250381804497e-08
      2.4397528333887576e-08
      2.4419826285780049e-08
      2.4442144255202386e-08
      2.4464482259890713e-08
      2.4486840317596507e-08
      2.4509218446086981e-08
      2.4531616663144851e-08
      2.4554034986568358e-08
      2.4576473434171632e-08
      2.4598932023784171e-08
      2.462141077325122e-08
      2.4643909700433586e-08
      2.466642882320791e-08
      2.4688968159466443e-08
      2.4711527727117032e-08
      2.4734107544083348e-08
      2.4756707628304824e-08
      2.4779327997736597e-08
      2.4801968670349368e-08
      2.482462966412987e-08
      2.484731099708042e-08
      2.487001268721947e-08
      2.4892734752580761e-08
      2.4915477211214271e-08
      2.4938240081185592e-08
      2.4961023380576219e-08
      2.4983827127483655e-08
      2.5006651340021082e-08
      2.5029496036317482e-08
      2.5052361234518089e-08
      2.5075246952783783e-08
      2.5098153209291541e-08
      2.5121080022234138e-08
      2.51440274098204e-08
      2.5166995390274988e-08
      2.5189983981838896e-08
      2.521299320276866e-08
      2.5236023071337121e-08
      2.5259073605833121e-08
      2.5282144824561518e-08
      2.5305236745843092e-08
      2.5328349388014903e-08
      2.5351482769430146e-08
      2.5374636908457587e-08
      2.5397811823483019e-08
      2.5421007532907518e-08
      2.5444224055148603e-08
      2.5467461408640041e-08
      2.549071961183168e-08
      2.5513998683189722e-08
      2.5537298641196154e-08
      2.5560619504349477e-08
      2.5583961291164575e-08
      2.5607324020172169e-08
      2.5630707709919528e-08
      2.5654112378970159e-08
      2.5677538045903582e-08
      2.5700984729315896e-08
      2.5724452447819491e-08
      2.5747941220043061e-08
      2.5771451064631411e-08
      2.579498200024613e-08
      2.581853404556464e-08
      2.584210721928135e-08
      2.5865701540106538e-08
      2.5889317026767243e-08
      2.5912953698006586e-08
      2.5936611572584618e-08
      2.5960290669277364e-08
      2.5983991006877554e-08
      2.6007712604194297e-08
      2.6031455480053381e-08
      2.6055219653296945e-08
      2.6079005142783622e-08
      2.6102811967388631e-08
      2.6126640146003973e-08
      2.6150489697537677e-08
      2.6174360640915102e-08
      2.6198252995077341e-08
      2.6222166778982778e-08
      2.6246102011606275e-08
      2.6270058711939049e-08
      2.6294036898989328e-08
      2.6318036591781735e-08
      2.6342057809357862e-08
      2.6366100570775591e-08
      2.6390164895110017e-08
      2.6414250801452537e-08
      2.643835830891146e-08
      2.6462487436611899e-08
      2.6486638203695636e-08
      2.6510810629321479e-08
      2.6535004732664617e-08
      2.6559220532917426e-08
      2.6583458049288818e-08
      2.6607717301004912e-08
      2.6631998307308274e-08
      2.6656301087458644e-08
      2.6680625660732751e-08
      2.6704972046423547e-08
      2.6729340263841929e-08
      2.6753730332314771e-08
      2.6778142271186471e-08
      2.680257609981822e-08
      2.6827031837588235e-08
      2.6851509503891493e-08
      2.6876009118140481e-08
      2.6900530699764086e-08
      2.6925074268208799e-08
      2.6949639842937606e-08
      2.6974227443430996e-08
      2.6998837089186438e-08
      2.7023468799718484e-08
      2.7048122594558625e-08
      2.707279849325558e-08
      2.7097496515375463e-08
      2.7122216680501299e-08
      2.7146959008232996e-08
      2.7171723518188292e-08
      2.7196510230001756e-08
      2.7221319163325146e-08
      2.7246150337827427e-08
      2.7271003773195107e-08
      2.7295879489131536e-08
      2.732077750535757e-08
      2.7345697841611399e-08
      2.7370640517648488e-08
      2.7395605553241597e-08
      2.742059296818052e-08
      2.7445602782273121e-08
      2.747063501534399e-08
      2.7495689687235202e-08
      2.7520766817806546e-08
      2.7545866426934779e-08
      2.7570988534514532e-08
      2.7596133160457449e-08
      2.7621300324693136e-08
      2.7646490047168034e-08
      2.7671702347846519e-08
      2.7696937246710581e-08
      2.772219476375921e-08
      2.7747474919009462e-08
      2.7772777732495552e-08
      2.7798103224269385e-08
      2.7823451414400465e-08
      2.7848822322976084e-08
      2.787421597010083e-08
      2.7899632375896956e-08
      2.7925071560504743e-08
      2.79505335440814e-08
      2.7976018346802477e-08
      2.8001525988860897e-08
      2.8027056490467468e-08
      2.8052609871850405e-08
      2.8078186153255903e-08
      2.8103785354947945e-08
      2.8129407497208109e-08
      2.8155052600335858e-08
      2.818072068464836e-08
      2.8206411770480614e-08
      2.8232125878185573e-08
      2.8257863028133849e-08
      2.828362324071409e-08
      2.8309406536332586e-08
      2.8335212935413748e-08
      2.8361042458399737e-08
      2.8386895125750658e-08
      2.8412770957944739e-08
      2.8438669975477772e-08
      2.8464592198863837e-08
      2.8490537648634963e-08
      2.8516506345340939e-08
      2.8542498309549807e-08
      2.8568513561847684e-08
      2.8594552122838351e-08
      2.8620614013144245e-08
      2.8646699253405221e-08
      2.8672807864279745e-08
      2.8698939866444016e-08
      2.8725095280592751e-08
      2.8751274127438339e-08
      2.8777476427711728e-08
      2.8803702202161716e-08
      2.8829951471555608e-08
      2.8856224256678812e-08
      2.8882520578334635e-08
      2.8908840457344944e-08
      2.8935183914549897e-08
      2.8961550970807735e-08
      2.8987941646994883e-08
      2.901435596400632e-08
      2.9040793942755292e-08
      2.9067255604173361e-08
      2.9093740969210391e-08
      2.9120250058834289e-08
      2.9146782894032168e-08
      2.9173339495808636e-08
      2.9199919885187124e-08
      2.9226524083209719e-08
      2.9253152110936295e-08
      2.9279803989445994e-08
      2.9306479739835761e-08
      2.9333179383221213e-08
      2.9359902940736723e-08
      2.938665043353487e-08
      2.9413421882787024e-08
      2.9440217309682714e-08
      2.9467036735430662e-08
      2.9493880181257627e-08
      2.9520747668409163e-08
      2.9547639218149479e-08
      2.9574554851761315e-08
      2.9601494590546021e-08
      2.9628458455824103e-08
      2.965544646893398e-08
      2.9682458651233319e-08
      2.9709495024098329e-08
      2.973655560892392e-08
      2.9763640427123853e-08
      2.979074950013041e-08
      2.9817882849395128e-08
      2.9845040496387949e-08
      2.9872222462597438e-08
      2.9899428769531556e-08
      2.992665943871662e-08
      2.9953914491698295e-08
      2.9981193950040823e-08
      3.0008497835327047e-08
      3.0035826169159232e-08
      3.0063178973158449e-08
      3.0090556268964551e-08
      3.0117958078236369e-08
      3.0145384422652063e-08
      3.017283532390823e-08
      3.020031080372075e-08
      3.02278108838247e-08
      3.0255335585973965e-08
      3.0282884931941591e-08
      3.0310458943519746e-08
      3.0338057642519435e-08
      3.0365681050770886e-08
      3.0393329190123879e-08
      3.0421002082446752e-08
      3.0448699749627153e-08
      3.0476422213572227e-08
      3.0504169496207753e-08
      3.0531941619479369e-08
      3.0559738605351451e-08
      3.0587560475807729e-08
      3.0615407252851406e-08
      3.0643278958504522e-08
      3.0671175614808995e-08
      3.0699097243825339e-08
      3.0727043867634269e-08
      3.0755015508335125e-08
      3.0783012188046948e-08
      3.0811033928907904e-08
      3.0839080753075965e-08
      3.0867152682727961e-08
      3.0895249740060709e-08
      3.0923371947289991e-08
      3.095151932665154e-08
      3.0979691900400153e-08
      3.1007889690810257e-08
      3.1036112720175883e-08
      3.1064361010810508e-08
      3.1092634585047174e-08
      3.1120933465238391e-08
      3.1149257673756353e-08
      3.1177607232993148e-08
      3.1205982165359647e-08
      3.1234382493287335e-08
      3.1262808239226773e-08
      3.1291259425647905e-08
      3.1319736075041501e-08
      3.1348238209916516e-08
      3.137676585280306e-08
      3.1405319026249857e-08
      3.1433897752825968e-08
      3.1462502055120188e-08
      3.1491131955740976e-08
      3.1519787477316574e-08
      3.1548468642495073e-08
      3.1577175473944691e-08
      3.1605907994352913e-08
      3.1634666226427284e-08
      3.1663450192895847e-08
      3.1692259916505792e-08
      3.1721095420024604e-08
      3.1749956726239593e-08
      3.1778843857958219e-08
      3.1807756838007425e-08
      3.1836695689234952e-08
      3.1865660434507599e-08
      3.1894651096712925e-08
      3.1923667698758432e-08
      3.1952710263571244e-08
      3.1981778814099172e-08
      3.2010873373309678e-08
      3.2039993964190325e-08
      3.2069140609749299e-08
      3.2098313333014535e-08
      3.2127512157033918e-08
      3.2156737104876199e-08
      3.2185988199629589e-08
      3.2215265464403273e-08
      3.2244568922325927e-08
      3.2273898596547149e-08
      3.2303254510236233e-08
      3.2332636686583194e-08
      3.2362045148798238e-08
      3.2391479920111634e-08
      3.2420941023774349e-08
      3.2450428483057748e-08
      3.2479942321253073e-08
      3.2509482561672714e-08
      3.2539049227648638e-08
      3.2568642342533947e-08
      3.259826192970182e-08
      3.2627908012546182e-08
      3.2657580614481017e-08
      3.2687279758941183e-08
      3.2717005469381997e-08
      3.2746757769279069e-08
      3.2776536682129152e-08
      3.2806342231448814e-08
      3.2836174440775669e-08
      3.2866033333668061e-08
      3.2895918933704527e-08
      3.292583126448469e-08
      3.2955770349628486e-08
      3.2985736212776645e-08
      3.3015728877590986e-08
      3.3045748367753425e-08
      3.3075794706967061e-08
      3.3105867918955322e-08
      3.3135968027462836e-08
      3.316609505625492e-08
      3.3196249029117742e-08
      3.322642996985785e-08
      3.3256637902303235e-08
      3.3286872850302744e-08
      3.3317134837725388e-08
      3.3347423888461865e-08
      3.3377740026423272e-08
      3.3408083275542081e-08
      3.3438453659771446e-08
      3.3468851203085515e-08
      3.3499275929479673e-08
      3.3529727862969739e-08
      3.3560207027593052e-08
      3.3590713447408008e-08
      3.3621247146493809e-08
      3.3651808148951009e-08
      3.3682396478900905e-08
      3.371301216048629e-08
      3.3743655217871122e-08
      3.3774325675239832e-08
      3.380502355679881e-08
      3.3835748886775665e-08
      3.3866501689418292e-08
      3.3897281988996923e-08
      3.3928089809802252e-08
      3.3958925176146694e-08
      3.3989788112363844e-08
      3.4020678642808381e-08
      3.4051596791856681e-08
      3.4082542583906008e-08
      3.4113516043375698e-08
      3.4144517194705591e-08
      3.4175546062357218e-08
      3.4206602670814144e-08
      3.4237687044580583e-08
      3.4268799208182507e-08
      3.4299939186167465e-08
      3.4331107003104127e-08
      3.4362302683583313e-08
      3.4393526252216816e-08
      3.4424777733637937e-08
      3.4456057152502097e-08
      3.4487364533485477e-08
      3.4518699901286956e-08
      3.455006328062611e-08
      3.4581454696244304e-08
      3.4612874172905199e-08
      3.4644321735393147e-08
      3.4675797408515021e-08
      3.4707301217099019e-08
      3.4738833185995108e-08
      3.4770393340074983e-08
      3.4801981704232483e-08
      3.4833598303382873e-08
      3.4865243162463073e-08
      3.4896916306432159e-08
      3.4928617760271007e-08
      3.4960347548982294e-08
      3.499210569759067e-08
      3.5023892231142607e-08
      3.5055707174706404e-08
      3.5087550553372413e-08
      3.511942239225317e-08
      3.5151322716482722e-08
      3.5183251551217591e-08
      3.5215208921636017e-08
      3.5247194852938415e-08
      3.5279209370347109e-08
      3.5311252499106566e-08
      3.5343324264483475e-08
      3.537542469176668e-08
      3.5407553806266941e-08
      3.5439711633316955e-08
      3.5471898198272356e-08
      3.5504113526510364e-08
      3.5536357643430578e-08
      3.556863057445486e-08
      3.5600932345027099e-08
      3.5633262980613758e-08
      3.5665622506703568e-08
      3.5698010948807499e-08
      3.5730428332458652e-08
      3.5762874683212673e-08
      3.579535002664764e-08
      3.5827854388363873e-08
      3.5860387793984239e-08
      3.5892950269153897e-08
      3.592554183954048e-08
      3.5958162530834154e-08
      3.5990812368747595e-08
      3.6023491379015856e-08
      3.6056199587396301e-08
      3.6088937019669756e-08
      3.6121703701638411e-08
      3.6154499659127884e-08
      3.6187324917985823e-08
      3.6220179504083161e-08
      3.625306344331271e-08
      3.6285976761590792e-08
      3.6318919484855569e-08
      3.6351891639068295e-08
      3.6384893250213083e-08
      3.641792434429665e-08
      3.6450984947348517e-08
      3.648407508542067e-08
      3.6517194784588293e-08
      3.6550344070949356e-08
      3.658352297062443e-08
      3.6616731509757001e-08
      3.664996971451373e-08
      3.668323761108397e-08
      3.6716535225679843e-08
      3.6749862584536561e-08
      3.6783219713912316e-08
      3.6816606640088159e-08
      3.6850023389368446e-08
      3.6883469988080146e-08
      3.6916946462573502e-08
      3.6950452839221849e-08
      3.6983989144421455e-08
      3.7017555404591933e-08
      3.7051151646175592e-08
      3.7084777895638116e-08
      3.7118434179468641e-08
      3.7152120524178742e-08
      3.7185836956304393e-08
      3.7219583502403214e-08
      3.7253360189057454e-08
      3.7287167042872048e-08
      3.732100409047488e-08
      3.7354871358517721e-08
      3.7388768873675538e-08
      3.7422696662646407e-08
      3.7456654752151795e-08
      3.7490643168936701e-08
      3.7524661939769749e-08
      3.7558711091442484e-08
      3.7592790650769931e-08
      3.7626900644591177e-08
      3.7661041099767999e-08
      3.7695212043186388e-08
      3.7729413501755434e-08
      3.7763645502407795e-08
      3.779790807209987e-08
      3.7832201237811374e-08
      3.7866525026546166e-08
      3.790087946533101e-08
      3.793526458121675e-08
      3.7969680401278119e-08
      3.8004126952612846e-08
      3.8038604262342965e-08
      3.8073112357614196e-08
      3.8107651265595589e-08
      3.8142221013480562e-08
      3.8176821628485441e-08
      3.8211453137851634e-08
      3.8246115568843191e-08
      3.8280808948748729e-08
      3.8315533304880308e-08
      3.835028866457431e-08
      3.8385075055190705e-08
      3.8419892504113619e-08
      3.8454741038750814e-08
      3.8489620686534458e-08
      3.8524531474920285e-08
      3.8559473431388457e-08
      3.8594446583442969e-08
      3.8629450958611611e-08
      3.866448658444708e-08
      3.8699553488525255e-08
      3.8734651698446587e-08
      3.8769781241835783e-08
      3.8804942146341324e-08
      3.8840134439636356e-08
      3.8875358149417946e-08
      3.8910613303407105e-08
      3.8945899929349549e-08
      3.8981218055015313e-08
      3.9016567708198744e-08
      3.905194891671782e-08
      3.9087361708415533e-08
      3.9122806111159208e-08
      3.9158282152840295e-08
      3.9193789861374693e-08
      3.9229329264702854e-08
      3.9264900390789432e-08
      3.9300503267623785e-08
      3.9336137923219607e-08
      3.937180438561533e-08
      3.9407502682873672e-08
      3.9443232843081849e-08
      3.9478994894351884e-08
      3.951478886482034e-08
      3.9550614782648137e-08
      3.9586472676021091e-08
      3.9622362573149686e-08
      3.9658284502269065e-08
      3.9694238491638795e-08
      3.9730224569543423e-08
      3.9766242764292352e-08
      3.9802293104219343e-08
      3.9838375617683437e-08
      3.9874490333068066e-08
      3.9910637278781611e-08
      3.9946816483257364e-08
      3.9983027974953623e-08
      4.0019271782353425e-08
      4.0055547933964371e-08
      4.009185645831974e-08
      4.012819738397732e-08
      4.0164570739519715e-08
      4.0200976553554887e-08
      4.0237414854715455e-08
      4.0273885671659732e-08
      4.031038903307034e-08
      4.034692496765564e-08
      4.0383493504148246e-08
      4.0420094671307053e-08
      4.0456728497915039e-08
      4.0493395012781119e-08
      4.053009424473895e-08
      4.0566826222647639e-08
      4.06035909753913e-08
      4.0640388531879638e-08
      4.0677218921047498e-08
      4.0714082171854875e-08
      4.075097831328733e-08
      4.0787907374355437e-08
      4.0824869384095869e-08
      4.0861864371569553e-08
      4.089889236586397e-08
      4.0935953396091292e-08
      4.0973047491389797e-08
      4.1010174680922286e-08
      4.1047334993878117e-08
      4.1084528459471304e-08
      4.1121755106942185e-08
      4.1159014965556199e-08
      4.1196308064604208e-08
      4.1233634433403373e-08
      4.1270994101295602e-08
      4.1308387097649342e-08
      4.1345813451858337e-08
      4.1383273193341602e-08
      4.1420766351544616e-08
      4.1458292955938362e-08
      4.1495853036019129e-08
      4.1533446621309965e-08
      4.1571073741358754e-08
      4.1608734425739684e-08
      4.1646428704052951e-08
      4.1684156605924372e-08
      4.1721918161005619e-08
      4.1759713398974431e-08
      4.1797542349534665e-08
      4.1835405042415781e-08
      4.1873301507373795e-08
      4.1911231774189756e-08
      4.1949195872672046e-08
      4.1987193832653818e-08
      4.2025225683995599e-08
      4.206329145658292e-08
      4.2101391180327825e-08
      4.2139524885169063e-08
      4.2177692601070789e-08
      4.2215894358023501e-08
      4.2254130186044597e-08
      4.2292400115176404e-08
      4.2330704175489155e-08
      4.2369042397078035e-08
      4.2407414810065343e-08
      4.2445821444599025e-08
      4.2484262330854374e-08
      4.2522737499031964e-08
      4.2561246979359563e-08
      4.2599790802091202e-08
      4.263836899750688e-08
      4.2676981595913853e-08
      4.2715628627645211e-08
      4.2754310123061109e-08
      4.2793026112547683e-08
      4.2831776626518194e-08
