src/apps/iosdisplay/iosdisplay/OpenColorIOConfigs/spi-anim/luts/vd10.spi1d
Version 1
From 0.0 1.0
Length 2048
Components 1
{
        0.0037965930661236582
        0.0040459857357483019
        0.0042662767861965907
        0.0044697642729340783
        0.0046607306102967256
        0.0048418755043948087
        0.0050150396467951788
        0.0051815505621358796
        0.0053424069535683493
        0.0054983851979311018
        0.0056501048140045898
        0.005798070760072248
        0.0059427018979821451
        0.006084350811899052
        0.0062233180126686875
        0.0063598623746909961
        0.006494208972016708
        0.0066265550740815951
        0.006757074810431668
        0.006885922853980069
        0.0070132373678962693
        0.0071391423913541065
        0.0072637497916188112
        0.0073871608766991224
        0.0075094677392238225
        0.0076307543852335629
        0.007751097689182463
        0.0078705682072654406
        0.0079892308743064969
        0.0081071456042264099
        0.008224367810109311
        0.0083409488567936889
        0.0084569364564956988
        0.0085723750160682614
        0.0086873059429865597
        0.0088017679159403759
        0.0089157971249377004
        0.009029427485032741
        0.0091426908271454443
        0.0092556170689087492
        0.0093682343680416922
        0.0094805692603830601
        0.0095926467844164205
        0.0097044905938633921
        0.0098161230597079794
        0.0099275653628334067
        0.010038837578299849
        0.010149958752160154
        0.010260946971598883
        0.010371819429084089
        0.010482592481138295
        0.010593281702264128
        0.010703901934497993
        0.010814467333011349
        0.010924991408132837
        0.01103548706412312
        0.01114596663499888
        0.01125644191767089
        0.011366924202633522
        0.011477424302418621
        0.01158795257800533
        0.011698518963358153
        0.011809132988248974
        0.011919803799503385
        0.012030540180798669
        0.012141350571128475
        0.012252243082038818
        0.012363225513730572
        0.012474305370114638
        0.012585489872898838
        0.012696785974778194
        0.012808200371794365
        0.012919739514924335
        0.013031409620952934
        0.013143216682680165
        0.013255166478508934
        0.013367264581456076
        0.013479516367625368
        0.013591927024178725
        0.013704501556838396
        0.013817244796950835
        0.013930161408140211
        0.014043255892577785
        0.014156532596890838
        0.014269995717733703
        0.014383649307041196
        0.014497497276983665
        0.014611543404641209
        0.014725791336413527
        0.014840244592180534
        0.014954906569227966
        0.015069780545950873
        0.015184869685347541
        0.015300177038314879
        0.015415705546755915
        0.015531458046509508
        0.015647437270110837
        0.015763645849391938
        0.015880086317929549
        0.015996761113348197
        0.016113672579485091
        0.016230822968423448
        0.016348214442400238
        0.016465849075593789
        0.0165837288557967
        0.016701855685978737
        0.016820231385744365
        0.016938857692689036
        0.01705773626365813
        0.017176868675912543
        0.017296256428203604
        0.017415900941761285
        0.017535803561198032
        0.017655965555331082
        0.017776388117925965
        0.017897097007319229
        0.018018125993639875
        0.018139474652637225
        0.018261142300941904
        0.018383128197441652
        0.018505431543131622
        0.018628051480924675
        0.018750987095421119
        0.018874237412638412
        0.018997801399700354
        0.019121677964485991
        0.019245865955237706
        0.019370364160128346
        0.019495171306787063
        0.019620286061782993
        0.019745707030066895
        0.019871432754369308
        0.019997461714555194
        0.020123792326933756
        0.020250422943522792
        0.020377351851266521
        0.020504577271205651
        0.020632097357598675
        0.020759910196993157
        0.020888013807245219
        0.021016406136486348
        0.021145085062035187
        0.021274048389253411
        0.02140329385034297
        0.021532819103083391
        0.021662621729506764
        0.021792699234508151
        0.021923049044389076
        0.022053668505331619
        0.022184554881800173
        0.022315705354868372
        0.022447117020467727
        0.022578786887555012
        0.022710711876194754
        0.022842888815553304
        0.022975314441800537
        0.023107985395915024
        0.023240898221388202
        0.023374049361823104
        0.023507435158422355
        0.023641051847360529
        0.023774895557034728
        0.023908962305187974
        0.024043247995898687
        0.024177748416429362
        0.024312459233927712
        0.02444737599197197
        0.024582494106952651
        0.024717808864281491
        0.024853315414418774
        0.024989008768708524
        0.02512488379501113
        0.025260935213121921
        0.025397157589963412
        0.025533545334538138
        0.025670092692627881
        0.025806793741224375
        0.025943642382675155
        0.026080632338527126
        0.026217757143049268
        0.026355010136414107
        0.026492384457516449
        0.026629873036405748
        0.026767468586307134
        0.026905163595203407
        0.027042950316949053
        0.02718082076188362
        0.027318766686910662
        0.027456779585004122
        0.027594850674101685
        0.027732970885340758
        0.027871130850589166
        0.028009320889217634
        0.028147530994057306
        0.028285750816479497
        0.028423969650529613
        0.028562176416040298
        0.028700359640641868
        0.028838507440580297
        0.028976607500243338
        0.029114647050286407
        0.0292526128442381
        0.02939049113345249
        0.029528267640261969
        0.029665927529168069
        0.02980345537589018
        0.029940835134071662
        0.030078050099420682
        0.030215082871036251
        0.030351915309641903
        0.030488528492414999
        0.030624902664061683
        0.030761017183744441
        0.030896850467418011
        0.031032379925072597
        0.031167581892316162
        0.031302431555651038
        0.031442768214497839
        0.03158597058138575
        0.031729422699792335
        0.031873123348187968
        0.032017071310158011
        0.032161265374487741
        0.032305704335244323
        0.032450386991857538
        0.032595312149197968
        0.032740478617653022
        0.032885885213201495
        0.033031530757485335
        0.033177414077880267
        0.03332353400756357
        0.03346988938558057
        0.033616479056908719
        0.033763301872520343
        0.033910356689442464
        0.034057642370816127
        0.034205157785952449
        0.034352901810387901
        0.034500873325937327
        0.034649071220745065
        0.034797494389334556
        0.03494614173265613
        0.035095012158132939
        0.035244104579705421
        0.035393417917873808
        0.035542951099739296
        0.035692703059043443
        0.035842672736205693
        0.035992859078360022
        0.036143261039389182
        0.036293877579958167
        0.036444707667545657
        0.036595750276474263
        0.036747004387939319
        0.036898468990035918
        0.037050143077785334
        0.037202025653158839
        0.037354115725101576
        0.037506412309553878
        0.037658914429472237
        0.037811621114848343
        0.037964531402727243
        0.038117644337224144
        0.038270958969540123
        0.038424474357976343
        0.038578189567947757
        0.038732103671994964
        0.038886215749795422
        0.039040524888173507
        0.039195030181109466
        0.039349730729747345
        0.039504625642401904
        0.039659714034564739
        0.039814995028909096
        0.039970467755293955
        0.040126131350767397
        0.040281984959568633
        0.040438027733129517
        0.04059425883007528
        0.040750677416223978
        0.040907282664585515
        0.041064073755359989
        0.041221049875934841
        0.041378210220881617
        0.041535553991951947
        0.041693080398072693
        0.041850788655340601
        0.042008677987016053
        0.04216674762351641
        0.04232499680240874
        0.042483424768401487
        0.042642030773336267
        0.042800814076178639
        0.042959773943008248
        0.04311890964700877
        0.043278220468456918
        0.043437705694711573
        0.043597364620201674
        0.043757196546414086
        0.043917200781881154
        0.044077376642167231
        0.044237723449855354
        0.044398240534533326
        0.044558927232779107
        0.044719782888146348
        0.044880806851149167
        0.04504199847924658
        0.04520335713682691
        0.045364882195191442
        0.045526573032538022
        0.045688429033944239
        0.045850449591350463
        0.046012634103542505
        0.046174981976133692
        0.046337492621547405
        0.046500165458998446
        0.046662999914475221
        0.046825995420720641
        0.0469891514172135
        0.047152467350149413
        0.047315942672421472
        0.047479576843601101
        0.047643369329917841
        0.047807319604240214
        0.047971427146055144
        0.048135691441448449
        0.048300111983083933
        0.048464688270183423
        0.048629419808505929
        0.048794306110327229
        0.048959346694418648
        0.049124541086026666
        0.04928988881685125
        0.04945538942502533
        0.049621042455093176
        0.049786847457989218
        0.049952803991016551
        0.05011891161782573
        0.050285169908392879
        0.050451578438998106
        0.050618136792204088
        0.050784844556834068
        0.050951701327950155
        0.051118706706831635
        0.051285860300952786
        0.051453161723961208
        0.051620610595655751
        0.051788206541964726
        0.051955949194923551
        0.052123838192653114
        0.052291873179337291
        0.05246005380520153
        0.052628379726490017
        0.05279685060544418
        0.05296546611028035
        0.053134225915167706
        0.053303129700206162
        0.053472177151404544
        0.053641367960658062
        0.053810701825726719
        0.053980178450212829
        0.054149797543539394
        0.054319558820927816
        0.054489462003376045
        0.054659506817636289
        0.054829692996193717
        0.055000020277243676
        0.055170488404670717
        0.055341097128025762
        0.05551184620250519
        0.055682735388928241
        0.055853764453715871
        0.056024933168868522
        0.056196241311944777
        0.056367688666039598
        0.056539275019762567
        0.056711000167216537
        0.056882863907976047
        0.057054866047065583
        0.057227006394938412
        0.057399284767455053
        0.057571700985862159
        0.057744254876770852
        0.057916946272135707
        0.058089775009233499
        0.05826274093064205
        0.058435843884219095
        0.058609083723081282
        0.058782460305583276
        0.0589559734952965
        0.059129623160988666
        0.059303409176602657
        0.059477331421235825
        0.059651389779119324
        0.059825584139597529
        0.059999914397107133
        0.060174380451157111
        0.060348982206307474
        0.060523719572149706
        0.060698592463285926
        0.060873600799308557
        0.061048744504780289
        0.061224023509213729
        0.061399437747051297
        0.061574987157645381
        0.061750671685238012
        0.061926491278941245
        0.062102445892717011
        0.062278535485357452
        0.062454760020465114
        0.06263111946643353
        0.062807613796426937
        0.062984242988361611
        0.06316100702488564
        0.063337905893359761
        0.063514939585838037
        0.063692108099048614
        0.063869411434374274
        0.0640468495978333
        0.064224422600060657
        0.064402130456288481
        0.064579973186327397
        0.06475795081454773
        0.064936063369860367
        0.065114310885697954
        0.065292693399996424
        0.065471210955176329
        0.065649863598123831
        0.065828651380172798
        0.066007574357085999
        0.066186632589036551
        0.066365826140590001
        0.066545155080685731
        0.066724619482618888
        0.066904219424022429
        0.06708395498684859
        0.067263826257351583
        0.067443833326068792
        0.067623976287803769
        0.067804255241607853
        0.06798467029076255
        0.06816522154276225
        0.068345909109296041
        0.068526733106230517
        0.068707693653592264
        0.068888790875550485
        0.069070024900399554
        0.069251395860541867
        0.069432903892470463
        0.069614549136752038
        0.069796331738010087
        0.069978251844907274
        0.070160309610129146
        0.070342505190366805
        0.070524838746300514
        0.070707310442582549
        0.07088992044782072
        0.071072668934561989
        0.071255556079275389
        0.07143858206233604
        0.071621747068008515
        0.071805051284430654
        0.071988494903597183
        0.072172078121343422
        0.072355801137329312
        0.072539664155023359
        0.07272366738168648
        0.072907811028356223
        0.073092095309830782
        0.073276520444653215
        0.073461086655095792
        0.073645794167144202
        0.073830643210482105
        0.074015634018475399
        0.074200766828157072
        0.074386041880211376
        0.074571459418958902
        0.074757019692340956
        0.074942722951904739
        0.075128569452787952
        0.075314559453703953
        0.075500693216926137
        0.075686971008274026
        0.075873393097097577
        0.076059959756262951
        0.076246671262137258
        0.076433527894574263
        0.076620529936899787
        0.076807677675896857
        0.076994971401792012
        0.077182411408239879
        0.077369997992309675
        0.077557731454470591
        0.077745612098577679
        0.077933640231857809
        0.078121816164895497
        0.078310140211618959
        0.078498612689286387
        0.078687233918471919
        0.078876004223051827
        0.079064923930190864
        0.079253993370328776
        0.079443212877166561
        0.079632582787652922
        0.079822103441971159
        0.080011775183525299
        0.080201598358927179
        0.080391573317983342
        0.080581700413681304
        0.080771980002176905
        0.080962412442781226
        0.081152998097947682
        0.081343737333258878
        0.081534630517414136
        0.08172567802221635
        0.081916880222559788
        0.082108237496416936
        0.082299750224826329
        0.082491418791880086
        0.082683243584711213
        0.082875224993481697
        0.083067363411369638
        0.083259659234557429
        0.083452112862219846
        0.083644724696511491
        0.083837495142555049
        0.084030424608429216
        0.08422351350515718
        0.084416762246694282
        0.084610171249916835
        0.084803740934610031
        0.084997471723456508
        0.085191364042025292
        0.085385418318759287
        0.085579634984964889
        0.085774014474800292
        0.085968557225264142
        0.086163263676184335
        0.08635813427020736
        0.086553169452786641
        0.086748369672171824
        0.086943735379398035
        0.087139267028274792
        0.087334965075375345
        0.08753082998002587
        0.087726862204295181
        0.087923062212983571
        0.088119430473612773
        0.088315967456415276
        0.088512673634324329
        0.088709549482962988
        0.088906595480634593
        0.089103812108312183
        0.089301199849628407
        0.08949875919086564
        0.089696490620946256
        0.089894394631421778
        0.090092471716464478
        0.090290722372856208
        0.090489147099979864
        0.090687746399809005
        0.090886520776898488
        0.091085470738375099
        0.091284596793928072
        0.091483899455799766
        0.091683379238776314
        0.09188303666017815
        0.092082872239851468
        0.092282886500158479
        0.092483079965968842
        0.092683453164650376
        0.0928840066260605
        0.093084740882537112
        0.093285656468890019
        0.093486753922391988
        0.093688033782770366
        0.093889496592198571
        0.094091142895287513
        0.094292973239076483
        0.094494988173026248
        0.09469718824900944
        0.094899574021302821
        0.095102146046579183
        0.095304904883898978
        0.09550785109470257
        0.09571098524280218
        0.095914307894373496
        0.096117819617948685
        0.096321520984408077
        0.096525412566972391
        0.096729494941195163
        0.096933768684955277
        0.097138234378449498
        0.097342892604184869
        0.097547743946970841
        0.097752788993913001
        0.097958028334404923
        0.098163462560121401
        0.098369092265010921
        0.098574918045288937
        0.098780940499430467
        0.098987160228164034
        0.09919357783446317
        0.099400193923541477
        0.099607009102844132
        0.09981402398204231
        0.10002123917302636
        0.1002286552898987
        0.10043627294896758
        0.10064409276874133
        0.10085211536992035
        0.10106034137539262
        0.10126877141022586
        0.10147740610166245
        0.1016862460791126
        0.10189529197414865
        0.10210454442049839
        0.10231400405404034
        0.10252367151279622
        0.10273354743692659
        0.10294363246872408
        0.10315392725260841
        0.10336443243511931
        0.10357514866491303
        0.10378607659275511
        0.10399721687151525
        0.10420857015616247
        0.10442013710375914
        0.10463191837345583
        0.104843914626486
        0.10505612652616118
        0.1052685547378652
        0.10548119992904935
        0.10569406276922781
        0.105907143929972
        0.10612044408490631
        0.10633396390970265
        0.10654770408207583
        0.10676166528177923
        0.10697584819059966
        0.10719025349235296
        0.10740488187287912
        0.10761973402003862
        0.10783481062370663
        0.10805011237576985
        0.10826563997012144
        0.10848139410265739
        0.10869737547127113
        0.10891358477585097
        0.1091300227182747
        0.10934669000240568
        0.10956358733408972
        0.10978071542114991
        0.10999807497338387
        0.11021566670255903
        0.11043349132240923
        0.11065154954863092
        0.11086984209887962
        0.11108836969276592
        0.11130713305185258
        0.11152613289965002
        0.1117453699616141
        0.11196484496514122
        0.11218455863956643
        0.11240451171615923
        0.11262470492812063
        0.11284513901057962
        0.11306581470059067
        0.11328673273712965
        0.11350789386109213
        0.11372929881528886
        0.11395094834444414
        0.11417284319519225
        0.11439498411607436
        0.11461737185753679
        0.11484000717192717
        0.11506289081349216
        0.11528602353837522
        0.1155094061046131
        0.11573303927213434
        0.11595692380275592
        0.11618106046018177
        0.11640545000999901
        0.11663009321967711
        0.11685499085856478
        0.1170801436978873
        0.11730555251074584
        0.11753121807211354
        0.11775714115883484
        0.11798332254962261
        0.11820976302505605
        0.11843646336757982
        0.11866342436150085
        0.1188906467929874
        0.11911813145006658
        0.11934587912262326
        0.11957389060239762
        0.11980216668298428
        0.12003070815983022
        0.12025951583023305
        0.12048859049333996
        0.12071793295014611
        0.12094754400349243
        0.12117742445806599
        0.12140757512039678
        0.1216379967988573
        0.12186869030366147
        0.12209965644686335
        0.12233089604235534
        0.12256240990586784
        0.12279419885496778
        0.12302626370905811
        0.12325860528937579
        0.12349122441899213
        0.12372412192281072
        0.12395729862756767
        0.12419075536182993
        0.12442449295599503
        0.12465851224229019
        0.12489281405477157
        0.12512739922932373
        0.12536226860365962
        0.12559742301731888
        0.12583286331166785
        0.12606859032990014
        0.12630460491703421
        0.12654090791991471
        0.12677750018721143
        0.12701438256941894
        0.12725155591885684
        0.12748902108966889
        0.12772677893782342
        0.12796483032111286
        0.1282031760991538
        0.12844181713338715
        0.12868075428707756
        0.12891998842531402
        0.1291595204150098
        0.12939935112490247
        0.12963948142555431
        0.12987991218935199
        0.13012064429050724
        0.1303616786050571
        0.13060301601086446
        0.13084465738761761
        0.13108660361683186
        0.13132885558184842
        0.13157141416783652
        0.1318142802617929
        0.1320574547525426
        0.13230093853073957
        0.13254473248886775
        0.1327888375212406
        0.13303325452400319
        0.13327798439513169
        0.13352302803443541
        0.13376838634355659
        0.13401406022597179
        0.13426005058699225
        0.13450635833376598
        0.13475298437527716
        0.13499992962234875
        0.13524719498764201
        0.13549478138565907
        0.13574268973274256
        0.13599092094707788
        0.1362394759486944
        0.13648835565946557
        0.13673756100311169
        0.13698709290519989
        0.13723695229314622
        0.13748714009621693
        0.13773765724552967
        0.13798850467405527
        0.13823968331661876
        0.1384911941099011
        0.13874303799244078
        0.13899521590463576
        0.13924774349314684
        0.13950064736869319
        0.13975392894110886
        0.14000758916198039
        0.14026162898447281
        0.14051604936334453
        0.14077085125495845
        0.14102603561729779
        0.14128160340997722
        0.14153755559425729
        0.14179389313305793
        0.14205061699097035
        0.14230772813427203
        0.14256522753093798
        0.14282311615065557
        0.14308139496483685
        0.1433400649466321
        0.14359912707094266
        0.14385858231443419
        0.14411843165554947
        0.14437867607452226
        0.14463931655338996
        0.1449003540760061
        0.14516178962805468
        0.14542362419706212
        0.14568585877241116
        0.1459484943453529
        0.14621153190902098
        0.14647497245844404
        0.14673881699055874
        0.14700306650422285
        0.14726772200022842
        0.14753278448131452
        0.14779825495218094
        0.14806413441950017
        0.14833042389193157
        0.14859712438013331
        0.14886423689677616
        0.14913176245655671
        0.14939970207620906
        0.14966805677452
        0.14993682757233964
        0.15020601549259657
        0.15047562156030964
        0.15074564680260158
        0.15101609224871138
        0.15128695893000868
        0.15155824788000544
        0.15182996013437003
        0.15210209673093947
        0.15237465870973357
        0.15264764711296697
        0.15292106298506339
        0.15319490737266761
        0.15346918132465923
        0.15374388589216637
        0.1540190221285776
