src/apps/iosdisplay/iosdisplay/OpenColorIOConfigs/spi-anim/luts/vd16.spi1d
Version 1
From 0.0 1.0
Length 131072
Components 1
{
        0.0037965930661236582
        0.0038008543326060414
        0.0038051021418722768
        0.0038093365935017651
        0.0038135577855092292
        0.0038177658143781611
        0.0038219607750932479
        0.0038261427611719274
        0.0038303118646951582
        0.003834468176337303
        0.0038386117853952315
        0.0038427427798166758
        0.0038468612462278224
        0.0038509672699601864
        0.0038550609350767608
        0.0038591423243975616
        0.003863211519524427
        0.0038672686008652366
        0.0038713136476575183
        0.0038753467379914457
        0.0038793679488322206
        0.0038833773560419979
        0.0038873750344011137
        0.003891361057628951
        0.0038953354984041831
        0.0038992984283845516
        0.0039032499182261957
        0.0039071900376024512
        0.0039111188552222592
        0.0039150364388480735
        0.0039189428553134346
        0.0039228381705400219
        0.0039267224495543561
        0.003930595756504114
        0.0039344581546740731
        0.0039383097065016368
        0.003942150473592059
        0.0039459805167332621
        0.0039497998959103905
        0.0039536086703199531
        0.0039574068983837044
        0.0039611946377622106
        0.0039649719453680298
        0.0039687388773787585
        0.0039724954892496013
        0.0039762418357258264
        0.0039799779708548401
        0.003983703947998048
        0.003987419819842449
        0.0039911256384119473
        0.0039948214550785104
        0.0039985083419848471
        0.0040021887876768424
        0.0040058629345717418
        0.0040095308257328934
        0.0040131925037228443
        0.0040168480106115359
        0.0040204973879842815
        0.0040241406769495752
        0.0040277779181467962
        0.0040314091517537169
        0.0040350344174938189
        0.00403865375464356
        0.0040422672020393631
        0.0040458747980846137
        0.0040494765807563664
        0.004053072587612022
        0.0040566628557958525
        0.00406024742204534
        0.004063826322697469
        0.0040673995936948235
        0.0040709672705916515
        0.0040745293885596839
        0.0040780859823939903
        0.0040816370865186021
        0.0040851827349920634
        0.0040887229615129304
        0.0040922577994250723
        0.0040957872817229376
        0.0040993114410567003
        0.0041028303097373113
        0.0041063439197414507
        0.0041098523027163856
        0.0041133554899847446
        0.0041168535125492116
        0.0041203464010971073
        0.0041238341860049032
        0.0041273168973426757
        0.0041307945648784159
        0.0041342672180823235
        0.0041377348861309947
        0.0041411975979115372
        0.0041446553820256226
        0.0041481082667934399
        0.0041515562802576077
        0.0041549994501869966
        0.0041584378040805036
        0.0041618713691707427
        0.0041653001724276696
        0.00416872424056216
        0.004172143600029511
        0.0041755582770328873
        0.0041789682975267107
        0.0041823736872199898
        0.0041857744715795737
        0.0041891706758333891
        0.0041925623249735701
        0.0041959494437596246
        0.0041993320567214115
        0.0042027101881621969
        0.0042060838621615854
        0.0042094531025784337
        0.0042128179330536922
        0.0042161783770132324
        0.004219534457670579
        0.0042228861980296547
        0.0042262336208874346
        0.0042295767488365853
        0.0042329156042680361
        0.0042362502093735224
        0.0042395805861481072
        0.0042429067563926207
        0.0042462287417160943
        0.0042495465635381448
        0.0042528602430912986
        0.0042561698014233268
        0.0042594752593995222
        0.0042627766377048943
        0.0042660739568463986
        0.0042693672371551207
        0.0042726564987883584
        0.0042759417617317767
        0.0042792230458014169
        0.0042825003706457943
        0.004285773755747852
        0.0042890432204269529
        0.0042923087838408151
        0.0042955704649874438
        0.004298828282706996
        0.0043020822556836431
        0.004305332402447389
        0.0043085787413758882
        0.0043118212906961993
        0.0043150600684865592
        0.0043182950926780629
        0.0043215263810564035
        0.0043247539512635018
        0.0043279778207991719
        0.0043311980070227657
        0.0043344145271547131
        0.0043376273982781389
        0.0043408366373404155
        0.0043440422611546649
        0.0043472442864012908
        0.0043504427296294475
        0.0043536376072585052
        0.0043568289355795098
        0.0043600167307565781
        0.0043632010088283267
        0.0043663817857092363
        0.004369559077191003
        0.0043727328989439252
        0.0043759032665181786
        0.0043790701953451607
        0.004382233700738738
        0.0043853937978965652
        0.0043885505019013006
        0.0043917038277218445
        0.004394853790214568
        0.0043980004041245134
        0.004401143684086577
        0.0044042836446266777
        0.0044074203001628915
        0.004410553665006616
        0.0044136837533636829
        0.0044168105793354661
        0.0044199341569199514
        0.0044230545000128315
        0.0044261716224085852
        0.0044292855378014907
        0.0044323962597866912
        0.0044355038018611794
        0.0044386081774248458
        0.0044417093997814287
        0.0044448074821395542
        0.004447902437613639
        0.0044509942792248756
        0.0044540830199021886
        0.0044571686724831387
        0.0044602512497148583
        0.0044633307642549481
        0.0044664072286723835
        0.0044694806554483827
        0.0044725510569772848
        0.0044756184455674291
        0.0044786828334419659
        0.00448174423273974
        0.0044848026555160733
        0.0044878581137436195
        0.0044909106193131649
        0.004493960184034417
        0.0044970068196367799
        0.0045000505377701715
        0.0045030913500057387
        0.0045061292678366749
        0.0045091643026789136
        0.0045121964658719049
        0.0045152257686793384
        0.0045182522222898414
        0.0045212758378177283
        0.0045242966263036944
        0.0045273145987154793
        0.0045303297659486028
        0.0045333421388270108
        0.0045363517281037519
        0.0045393585444616549
        0.0045423625985139523
        0.0045453639008049673
        0.0045483624618107288
        0.0045513582919395881
        0.0045543514015328789
        0.0045573418008655123
        0.0045603295001465753
        0.0045633145095199685
        0.0045662968390649521
        0.0045692764987967944
        0.004572253498667289
        0.0045752278485653632
        0.0045781995583176584
        0.0045811686376890509
        0.004584135096383243
        0.0045870989440432936
        0.0045900601902521673
        0.0045930188445332558
        0.0045959749163509188
        0.0045989284151110163
        0.0046018793501613952
        0.0046048277307924506
        0.0046077735662375637
        0.0046107168656736612
        0.0046136576382216936
        0.0046165958929471002
        0.0046195316388603158
        0.0046224648849172425
        0.0046253956400197135
        0.0046283239130159894
        0.004631249712701172
        0.00463417304781771
        0.0046370939270558176
        0.0046400123590539218
        0.0046429283523991361
        0.0046458419156276669
        0.0046487530572252413
        0.0046516617856275661
        0.0046545681092207145
        0.0046574720363415792
        0.004660373575278258
        0.0046632727342704643
        0.0046661695215099623
        0.0046690639451409249
        0.0046719560132603647
        0.0046748457339184984
        0.0046777331151191598
        0.0046806181648201611
        0.0046835008909336794
        0.0046863813013266467
        0.0046892594038210932
        0.0046921352061945424
        0.0046950087161803603
        0.0046978799414681026
        0.0047007488897038976
        0.0047036155684907878
        0.0047064799853890754
        0.0047093421479166616
        0.0047122020635493866
        0.0047150597397213907
        0.0047179151838254293
        0.0047207684032131887
        0.0047236194051956662
        0.0047264681970434147
        0.0047293147859869449
        0.0047321591792169951
        0.004735001383884844
        0.0047378414071026376
        0.0047406792559437057
        0.004743514937442829
        0.0047463484585965965
        0.0047491798263636373
        0.0047520090476649837
        0.0047548361293843072
        0.0047576610783682258
        0.0047604839014266341
        0.0047633046053329117
        0.004766123196824258
        0.0047689396826019487
        0.0047717540693316268
        0.0047745663636435511
        0.0047773765721328869
        0.0047801847013599665
        0.0047829907578505549
        0.0047857947480961088
        0.0047885966785540333
        0.0047913965556479546
        0.0047941943857679548
        0.0047969901752708353
        0.0047997839304803587
        0.0048025756576875033
        0.0048053653631507202
        0.0048081530530961281
        0.0048109387337178129
        0.0048137224111780277
        0.0048165040916074413
        0.0048192837811053746
        0.0048220614857400028
        0.0048248372115486313
        0.0048276109645378944
        0.0048303827506839675
        0.0048331525759328269
        0.0048359204462004339
        0.0048386863673729654
        0.0048414503453070344
        0.0048442123858299171
        0.0048469724947397255
        0.0048497306778056545
        0.0048524869407681739
        0.0048552412893392311
        0.0048579937292024785
        0.0048607442660134389
        0.0048634929053997392
        0.0048662396529612862
        0.0048689845142704784
        0.0048717274948723976
        0.0048744686002849934
        0.0048772078359992851
        0.0048799452074795449
        0.0048826807201634969
        0.0048854143794624773
        0.0048881461907616499
        0.0048908761594201773
        0.0048936042907713872
        0.0048963305901229756
        0.0048990550627571712
        0.0049017777139309139
        0.004904498548876029
        0.0049072175727993992
        0.0049099347908831475
        0.0049126502082847915
        0.004915363830137417
        0.0049180756615498531
        0.0049207857076068347
        0.0049234939733691519
        0.0049262004638738269
        0.0049289051841342833
        0.0049316081391404861
        0.0049343093338591135
        0.0049370087732337068
        0.0049397064621848358
        0.0049424024056102332
        0.0049450966083849739
        0.0049477890753616173
        0.004950479811370331
        0.0049531688212190901
        0.0049558561096937764
        0.0049585416815583682
        0.0049612255415550409
        0.00496390769440435
        0.004966588144805344
        0.0049692668974357221
        0.004971943956951985
        0.0049746193279895544
        0.004977293015162902
        0.0049799650230657223
        0.0049826353562710275
        0.0049853040193313276
        0.0049879710167787085
        0.004990636353125022
        0.0049933000328619623
        0.0049959620604612337
        0.0049986224403746685
        0.0050012811770343618
        0.0050039382748527728
        0.0050065937382228771
        0.0050092475715182837
        0.005011899779093356
        0.0050145503652833422
        0.0050171993344044737
        0.005019846690754109
        0.0050224924386108602
        0.0050251365822346784
        0.0050277791258670004
        0.0050304200737308598
        0.0050330594300309868
        0.0050356971989539475
        0.0050383333846682216
        0.0050409679913243667
        0.0050436010230550951
        0.0050462324839753809
        0.0050488623781825793
        0.00505149070975655
        0.0050541174827597509
        0.0050567427012373376
        0.0050593663692172957
        0.0050619884907105121
        0.005064609069710917
        0.0050672281101955706
        0.0050698456161247353
        0.0050724615914420476
        0.0050750760400745613
        0.0050776889659328549
        0.0050803003729111744
        0.0050829102648874917
        0.0050855186457235994
        0.0050881255192652278
        0.005090730889342158
        0.0050933347597682688
        0.0050959371343416741
        0.0050985380168448021
        0.0051011374110444983
        0.0051037353206920856
        0.0051063317495235183
        0.0051089267012594175
        0.005111520179605175
        0.0051141121882510637
        0.0051167027308723157
        0.0051192918111292018
        0.0051218794326671306
        0.0051244655991167405
        0.0051270503140939715
        0.0051296335812001572
        0.0051322154040221247
        0.0051347957861322575
        0.0051373747310885865
        0.0051399522424348939
        0.0051425283237007575
        0.0051451029784016682
        0.0051476762100390967
        0.0051502480221005753
        0.0051528184180597734
        0.0051553874013765865
        0.0051579549754972188
        0.005160521143854257
        0.005163085909866731
        0.0051656492769402134
        0.0051682112484669048
        0.0051707718278256659
        0.0051733310183821549
        0.0051758888234888561
        0.005178445246485165
        0.0051810002906974781
        0.0051835539594392369
        0.005186106256011039
        0.0051886571837006885
        0.0051912067457832627
        0.005193754945521184
        0.005196301786164312
        0.0051988472709499946
        0.0052013914031031495
        0.0052039341858363094
        0.0052064756223497276
        0.0052090157158314193
        0.0052115544694572346
        0.0052140918863909378
        0.0052166279697842544
        0.0052191627227769627
        0.0052216961484969375
        0.0052242282500602
        0.0052267590305710666
        0.005229288493122086
        0.0052318166407942174
        0.0052343434766568258
        0.0052368690037677681
        0.0052393932251734608
        0.0052419161439089257
        0.0052444377629978804
        0.0052469580854527633
        0.0052494771142748099
        0.0052519948524541284
        0.0052545113029697421
        0.0052570264687896526
        0.005259540352870914
        0.0052620529581596399
        0.0052645642875911456
        0.0052670743440899354
        0.0052695831305697889
        0.0052720906499338039
        0.0052745969050744974
        0.0052771018988737994
        0.0052796056342031437
        0.005282108113923518
        0.0052846093408855229
        0.0052871093179294127
        0.0052896080478851771
        0.0052921055335725638
        0.0052946017778011606
        0.0052970967833704131
        0.005299590553069714
        0.0053020830896784469
        0.0053045743959660189
        0.0053070644746919336
        0.0053095533286058264
        0.0053120409604475363
        0.0053145273729471466
        0.0053170125688250169
        0.0053194965507918747
        0.0053219793215488172
        0.0053244608837873988
        0.0053269412401896667
        0.0053294203934281942
        0.0053318983461661633
        0.0053343751010573757
        0.0053368506607463359
        0.0053393250278682561
        0.0053417982050491634
        0.0053442701949058874
        0.005346741000046131
        0.0053492106230685265
        0.005351679066562671
        0.0053541463331091702
        0.0053566124252796875
        0.0053590773456369794
        0.0053615410967349682
        0.0053640036811187491
        0.00536646510132467
        0.0053689253598803435
        0.0053713844593047105
        0.0053738424021080745
        0.0053762991907921453
        0.0053787548278501039
        0.0053812093157666009
        0.0053836626570178455
        0.0053861148540716068
        0.0053885659093872804
        0.0053910158254159343
        0.0053934646046003209
        0.0053959122493749479
        0.0053983587621661104
        0.0054008041453919133
        0.0054032484014623419
        0.0054056915327792684
        0.0054081335417365305
        0.0054105744307199324
        0.0054130142021073012
        0.0054154528582685312
        0.005417890401565627
        0.005420326834352702
        0.0054227621589760661
        0.005425196377774234
        0.0054276294930779897
        0.0054300615072103804
        0.0054324924224868013
        0.0054349222412149872
        0.0054373509656950947
        0.0054397785982197048
        0.0054422051410738604
        0.0054446305965351414
        0.0054470549668736434
        0.0054494782543520548
        0.0054519004612256592
        0.0054543215897424249
        0.0054567416421429683
        0.0054591606206606568
        0.0054615785275215758
        0.0054639953649446293
        0.0054664111351415256
        0.005468825840316837
        0.0054712394826680159
        0.0054736520643854465
        0.0054760635876524542
        0.0054784740546453626
        0.0054808834675335255
        0.0054832918284793307
        0.0054856991396382577
        0.0054881054031589169
        0.0054905106211830534
        0.0054929147958455984
        0.0054953179292747028
        0.0054977200235917442
        0.0055001210809113984
        0.0055025211033416415
        0.0055049200929837777
        0.0055073180519324824
        0.0055097149822758394
        0.0055121108860953522
        0.0055145057654659877
        0.0055168996224561982
        0.0055192924591279556
        0.005521684277536785
        0.0055240750797317783
        0.0055264648677556408
        0.0055288536436447202
        0.0055312414094290134
        0.0055336281671322287
        0.0055360139187717681
        0.0055383986663588196
        0.0055407824118983203
        0.0055431651573890359
        0.0055455469048235392
        0.0055479276561882949
        0.005550307413463621
        0.0055526861786238009
        0.0055550639536370034
        0.0055574407404654184
        0.0055598165410652078
        0.0055621913573865546
        0.005564565191373709
        0.0055669380449649896
        0.0055693099200928142
        0.0055716808186837344
        0.0055740507426584552
        0.0055764196939318668
        0.0055787876744130705
        0.0055811546860053771
        0.0055835207306063799
        0.0055858858101079404
        0.0055882499263962453
        0.0055906130813517842
        0.0055929752768494375
        0.0055953365147584384
        0.005597696796942454
        0.0056000561252595501
        0.0056024145015622752
        0.0056047719276976519
        0.0056071284055071949
        0.0056094839368269452
        0.0056118385234875138
        0.0056141921673140598
        0.0056165448701263583
        0.0056188966337388027
        0.0056212474599604137
        0.0056235973505949031
        0.0056259463074406499
        0.0056282943322907572
        0.0056306414269330692
        0.0056329875931501608
        0.0056353328327194219
        0.0056376771474130165
        0.0056400205389979478
        0.0056423630092360573
        0.0056447045598840527
        0.0056470451926935381
        0.0056493849094110312
        0.0056517237117779699
        0.005654061601530749
        0.0056563985804007431
        0.0056587346501143186
        0.0056610698123928721
        0.0056634040689528212
        0.0056657374215056495
        0.0056680698717579171
        0.0056704014214112889
        0.0056727320721625491
        0.0056750618257036256
        0.0056773906837215959
        0.005679718647898728
        0.0056820457199124978
        0.0056843719014355787
        0.0056866971941359071
        0.0056890215996766797
        0.0056913451197163553
        0.0056936677559087032
        0.0056959895099028173
        0.0056983103833431192
        0.0057006303778693954
        0.0057029494951168066
        0.005705267736715894
        0.005707585104292639
        0.00570990159946844
        0.0057122172238601452
        0.0057145319790800802
        0.0057168458667360535
        0.0057191588884313799
        0.005721471045764902
        0.0057237823403310127
        0.0057260927737196468
        0.0057284023475163261
        0.0057307110633021841
        0.0057330189226539475
        0.0057353259271439904
        0.0057376320783403345
        0.0057399373778066459
        0.005742241827102308
        0.0057445454277823844
        0.0057468481813976839
        0.0057491500894947083
        0.005751451153615755
        0.0057537513752988663
        0.0057560507560778709
        0.0057583492974824305
        0.0057606470010379829
        0.0057629438682658459
        0.0057652399006831436
        0.0057675350998029279
        0.0057698294671340829
        0.0057721230041814292
        0.0057744157124456829
        0.0057767075934235185
        0.0057789986486075388
        0.0057812888794863283
        0.0057835782875444476
        0.0057858668742624495
        0.0057881546411169106
        0.005790441589580436
        0.0057927277211216625
        0.0057950130372053038
        0.0057972975392921386
        0.0057995812288390344
        0.0058018641072989756
        0.0058041461761210679
        0.0058064274367505232
        0.0058087078906287459
        0.0058109875391932691
        0.0058132663838778489
        0.0058155444261123969
        0.0058178216673230448
        0.0058200981089321585
        0.0058223737523583454
        0.0058246485990164389
        0.0058269226503175784
        0.0058291959076691565
        0.0058314683724748732
        0.0058337400461347371
        0.0058360109300450817
        0.0058382810255985735
        0.0058405503341842383
        0.0058428188571874691
        0.005845086595990031
        0.0058473535519700864
        0.005849619726502199
        0.0058518851209573702
        0.0058541497367030149
        0.0058564135751030082
        0.005858676637517682
        0.0058609389253038453
        0.0058632004398147973
        0.0058654611824003229
        0.0058677211544067333
        0.0058699803571768726
        0.0058722387920501044
        0.005874496460362374
        0.0058767533634461631
        0.0058790095026305389
        0.0058812648792411753
        0.0058835194946003392
        0.0058857733500269089
        0.0058880264468364005
        0.0058902787863409686
        0.0058925303698494158
        0.0058947811986672146
        0.005897031274096529
        0.0058992805974361958
        0.0059015291699817509
        0.0059037769930254625
        0.005906024067856324
        0.0059082703957600482
        0.00591051597801913
        0.00591276081591279
        0.0059150049107170562
        0.0059172482637047247
        0.0059194908761453884
        0.0059217327493054769
        0.0059239738844481986
        0.0059262142828336297
        0.0059284539457186702
        0.0059306928743570828
        0.0059329310699995069
        0.0059351685338934436
        0.0059374052672832916
        0.0059396412714103558
        0.0059418765475128489
        0.0059441110968258982
        0.005946344920581585
        0.0059485780200089168
        0.0059508103963338511
        0.0059530420507793516
        0.0059552729845653192
        0.0059575031989086719
        0.0059597326950232973
        0.0059619614741201173
        0.005964189537407071
        0.0059664168860891252
        0.0059686435213682906
        0.0059708694444436166
        0.0059730946565112446
        0.0059753191587643617
        0.0059775429523932578
        0.0059797660385853026
        0.0059819884185249748
        0.0059842100933938779
        0.0059864310643707262
        0.0059886513326313732
        0.0059908708993488191
        0.0059930897656932129
        0.0059953079328318778
        0.0059975254019293076
        0.0059997421741471791
        0.0060019582506443602
        0.0060041736325769333
        0.0060063883210981824
        0.0060086023173586281
        0.0060108156225060147
        0.0060130282376853394
