src/apps/iosdisplay/iosdisplay/OpenColorIOConfigs/spi-anim/luts/vd8.spi1d
Version 1
From 0.0 1.0
Length 512
Components 1
{
        0.0037965930661236582
        0.0046618206150030265
        0.0053442653585101425
        0.0059452215421059605
        0.0064973391188774422
        0.0070169527156392648
        0.0075137569326379928
        0.0079940910287994976
        0.0084623701817231056
        0.0089218107696549705
        0.0093748369236444553
        0.0098233254437854745
        0.010268761541841854
        0.010712342147678411
        0.011155046800118669
        0.011597687672052428
        0.012040945706893524
        0.012485397244716659
        0.012931533975071179
        0.013379778105762871
        0.013830494035896156
        0.014283997429953241
        0.014740562328523775
        0.015200426753361723
        0.015663797140870586
        0.016130851850767826
        0.016601743933903804
        0.017076603297365076
        0.017555538370968876
        0.01803876357551587
        0.018527005065378955
        0.019020323215361404
        0.019518652806341977
        0.020021913216316471
        0.020530007899916124
        0.021042823687998719
        0.021560229892564967
        0.022082077195894473
        0.022608196295529688
        0.023138396268121284
        0.023672462604625837
        0.024210154856183469
        0.024751203813205374
        0.025295308118394078
        0.02584213018566598
        0.026391291258464619
        0.026942365388687141
        0.027494872045366273
        0.028048266961237463
        0.028601930681286691
        0.029155154068093572
        0.029707119708308263
        0.03025687769322297
        0.030803313511914461
        0.031345108807047647
        0.031919576632761619
        0.032498006919734777
        0.033080322441759638
        0.033666447398317347
        0.034256307487370984
        0.034849829970081916
        0.035446943727788602
        0.036047579311617603
        0.036651668985117257
        0.03725914676032023
        0.037869948427650971
        0.038484011580097177
        0.039101275632064308
        0.039721681833325362
        0.04034517327847132
        0.040971694912252367
        0.041601193531188442
        0.042233617781807349
        0.042868918155853815
        0.043507046982789239
        0.04414795841988528
        0.044791608440191089
        0.04543795481863435
        0.046086957116496879
        0.046738576664482008
        0.047392776544576978
        0.048049521570889563
        0.048708778269624574
        0.049370514858347717
        0.050034701224668021
        0.050701308904457079
        0.051370311059709496
        0.052041682456135586
        0.05271539944056846
        0.053391439918254228
        0.054069783330088821
        0.054750410629852801
        0.055433304261490589
        0.056118448136473459
        0.056805827611279579
        0.057495429465018878
        0.058187241877226917
        0.058881254405848765
        0.059577457965426808
        0.060275844805509265
        0.060976408489288279
        0.061679143872478595
        0.062384047082442586
        0.063091115497568809
        0.063800347726908346
        0.06451174359007314
        0.065225304097397976
        0.065941031430370819
        0.066658928922330579
        0.067379001039436115
        0.068101253361906103
        0.068825692565530991
        0.069552326403458931
        0.070281163688254392
        0.07101221427423153
        0.07174548904006306
        0.072480999871663315
        0.0732187596453482
        0.073958782211271751
        0.074701082377138808
        0.075445675892196293
        0.076192579431502247
        0.076941810580473169
        0.077693387819711551
        0.078447330510112337
        0.079203658878249886
        0.079962394002046105
        0.080723557796719206
        0.081487173001013893
        0.082253263163714216
        0.083021852630437265
        0.083792966530710042
        0.08456663076532818
        0.085342871993996428
        0.086121717623252103
        0.086903195794669569
        0.087687335373346248
        0.088474165936670165
        0.089263717763367154
        0.090056021822828292
        0.090851109764715457
        0.091649013908846153
        0.092449767235353503
        0.09325340337512332
        0.094059956600504729
        0.094869461816293812
        0.095681954550989878
        0.096497470948319064
        0.097316047759029356
        0.098137722332948596
        0.098962532611309592
        0.099790517119335342
        0.10062171495908612
        0.10145616580256336
        0.10229390988507053
        0.10313498799882573
        0.10397944148682702
        0.10482731223696506
        0.10567864267638169
        0.10653347576607304
        0.10739185499573137
        0.10825382437882713
        0.10911942844792402
        0.10998871225022862
        0.11086172134336793
        0.11173850179139524
        0.1126191001610187
        0.11350356351805185
        0.11439193942408238
        0.11528427593335579
        0.11618062158987165
        0.11708102542468973
        0.11798553695344251
        0.11889420617405153
        0.11980708356464417
        0.1207242200816698
        0.12164566715820913
        0.12257147670247749
        0.12350170109651701
        0.12443639319507452
        0.12537560632466643
        0.12631939428282007
        0.12726781133749804
        0.12822091222669543
        0.12917875215821162
        0.13014138680959178
        0.13110887232823706
        0.13208126533167902
        0.13305862290801809
        0.13404100261652271
        0.13502846248838477
        0.13602106102763209
        0.13701885721219487
        0.13802191049512022
        0.13903028080264229
        0.14004435417966432
        0.14106452127354607
        0.14209084363038199
        0.14312338322052925
        0.14416220245224984
        0.14520736418528615
        0.14625893174438664
        0.14731696893279289
        0.14838154004569984
        0.14945270988370252
        0.15053054376624087
        0.15161510754505264
        0.15270646761764764
        0.15380469094081051
        0.15490984504414709
        0.15602199804368005
        0.15714121865550723
        0.15826757620952978
        0.15940114066326189
        0.1605419826157311
        0.16169017332147639
        0.16284578470465652
        0.16400888937327585
        0.16517956063353698
        0.16635787250432885
        0.16754389973186076
        0.16873771780444874
        0.16993940296746549
        0.17114903223846145
        0.17236668342246747
        0.17359243512748376
        0.17482636678017061
        0.1760685586417442
        0.17731909182408973
        0.17857804830609972
        0.17984551095024628
        0.18112132079586871
        0.18240515890187964
        0.18369709279259869
        0.18499719631080958
        0.1863055440692068
        0.18762221146495364
        0.18894727469446601
        0.19028081076842204
        0.19162289752702052
        0.19297361365548196
        0.19433303869981261
        0.19570125308283365
        0.19707833812048459
        0.19846437603841946
        0.19985944998888647
        0.20126364406792488
        0.20267704333286676
        0.2040997338201688
        0.20553180256357739
        0.20697333761263934
        0.20842442805157069
        0.20988516401849136
        0.21135563672503857
        0.21283593847637666
        0.21432616269160182
        0.21582640392456953
        0.21733675788514534
        0.21885732146090123
        0.22038819273926355
        0.22192947103013089
        0.22348125688897735
        0.22504365214045113
        0.2266167599024865
        0.22820068461094795
        0.22979553204481376
        0.23140140935192768
        0.23301842507532539
        0.23464668918015968
        0.23628631308124035
        0.23793740967120766
        0.23960009334936291
        0.24127448005116808
        0.24296068727844414
        0.24465883413028502
        0.24636904133471266
        0.24809143128109087
        0.24982612805332818
        0.25157325746389236
        0.25333294708866144
        0.25510532630263655
        0.25689052631654974
        0.2586886802143904
        0.26049992299187863
        0.26232439159592702
        0.26416222496510466
        0.26601356407115584
        0.26787855196159394
        0.26975733380341271
        0.27165005692795113
        0.27355687087694736
        0.27547792744983041
        0.27741338075227295
        0.27936338724607634
        0.28132810580040357
        0.28330769774442516
        0.28530232692142482
        0.2873121597444061
        0.2893373652532622
        0.29137811517356382
        0.29343458397700789
        0.29550694894361246
        0.29759539022568876
        0.29970009091368532
        0.30182123710394282
        0.30395901796845792
        0.30611362582670493
        0.30828525621960301
        0.31047410798571423
        0.3126803833397413
        0.31490428795342124
        0.31714603103890887
        0.31940582543473134
        0.32168388769442913
        0.32398043817797384
        0.32629570114607986
        0.32862990485751781
        0.33098328166955082
        0.33335606814162372
        0.33574850514241333
        0.33816083796041224
        0.34059331641815244
        0.34304619499023831
        0.34551973292535121
        0.34801419437236575
        0.35052984851078028
        0.35306696968561752
        0.35562583754700555
        0.35820673719462459
        0.36080995932723958
        0.36343580039753692
        0.36608456277249202
        0.36875655489952514
        0.37145209147869124
        0.37417149364117896
        0.3769150891344098
        0.37968321251403186
        0.38247620534312682
        0.38529441639897288
        0.38813820188770137
        0.3910079256672454
        0.39390395947894702
        0.3968266831882587
        0.39977648503497887
        0.40275376189347645
        0.40575891954340748
        0.40879237295144932
        0.4118545465645968
        0.41494587461561239
        0.41806680144125102
        0.42121778181392977
        0.42439928128752347
        0.42761177655805749
        0.4308557558400658
        0.43413171925946931
        0.43744017926387579
        0.44078166105124023
        0.4441567030179146
        0.44756585722717046
        0.45100968989935009
        0.45448878192487513
        0.45800372940143774
        0.46155514419679294
        0.46514365453863937
        0.46876990563322457
        0.47243456031439157
        0.47613829972492588
        0.47988182403219554
        0.48366585318020883
        0.4874911276804072
        0.49135840944362957
        0.49526848265594009
        0.49922215470115749
        0.50322025713316931
        0.50726364670138446
        0.51135320643289339
        0.5154898467752389
        0.5196745068039913
        0.5239081554997076
        0.52819179309917308
        0.53252645252633635
        0.53691320090872285
        0.54135314118566857
        0.54584741381530455
        0.55039719858774794
        0.55500371655277625
        0.55966823207088501
        0.5643920549975906
        0.56917654301167464
        0.57402310409919366
        0.57893319920616226
        0.58390834507415668
        0.58895011727450619
        0.59406015345837015
        0.59924015684176779
        0.60449189994671126
        0.60981722862184307
        0.61521806636853216
        0.62069641900135109
        0.6262543796750708
        0.63189413431408037
        0.63761796748436383
        0.64342826875294923
        0.64932753958531864
        0.65531840083746229
        0.66140360090655836
        0.6675860246124995
        0.67386870289206369
        0.68025482339859
        0.68674774211279555
        0.69335099608530437
        0.70006831744879594
        0.70690364885801005
        0.71386116053974857
        0.72094526916304669
        0.72816065877301961
        0.73551230407128598
        0.7430054963729501
        0.75064587262640703
        0.75843944794989948
        0.76639265222058417
        0.77451237135098039
        0.78280599400888118
        0.79128146468521487
        0.79994734419768665
        0.80881287894548248
        0.81788808051451445
        0.82718381759032411
        0.83671192258877225
        0.84648531599334365
        0.8565181521330919
        0.86682599110334191
        0.87742600280134531
        0.88833721073208038
        0.8995710831722552
        0.91106200132094428
        0.92279908105162622
        0.93478988202730129
        0.9470422662366198
        0.95956441294481298
        0.97236483452888167
        0.98545239325809708
        0.99883631908574311
        1.0125262285232859
        1.0265321446738882
        1.0408645185085312
        1.0555342514747539
        1.0705527195356443
        1.0859317987447874
        1.1016838924719721
        1.1178219604042277
        1.1343595494576086
        1.1513108267469652
        1.1686906147740748
        1.1865144290087033
        1.2047985180531522
        1.2235599065981622
        1.2428164413972804
        1.2625868405081428
        1.2828907460725845
        1.3037487809334622
        1.325182609415114
        1.3472150026262528
        1.3698699086798021
        1.393172528263781
        1.4171493960414758
        1.4418284684084166
        1.4672392181885974
        1.4934127369140189
        1.5203818454004308
        1.5481812134094715
        1.5768474892742717
        1.6064194404631245
        1.6369381061660384
        1.6684469631129548
        1.7009921059729913
        1.7346224438427265
        1.7693899145120684
        1.8053497184007146
        1.8425605742915261
        1.8810849992526966
        1.9209896154445414
        1.9623454868539956
        2.0052284893991392
        2.0497197183041607
        2.0959059371735753
        2.1438800738043544
        2.1937417684805092
        2.2455979813135678
        2.2995636661449725
        2.3557625196369001
        2.4143278154766201
        2.4754033351417597
        2.5391444084636854
        2.6057190793369256
        2.675309414419075
        2.748112975628314
        2.8243444807729774
        2.9042376808617494
        2.9880474876963672
        3.0760523914299194
        3.1685572151227945
        3.2658962622429581
        3.3684369239203966
        3.4765838260596089
        3.5907836127617228
        3.711530482706805
        3.8393726202359701
        3.9749196942015561
        4.1188516369990706
        4.2719289659016031
        4.4350049720132239
}
