configs/raw/config.ocio
ocio_profile_version: 1
strictparsing: false
luma: [0.2126, 0.7152, 0.0722]
description: ""
roles:
  default: raw
displays:
  - !<Display> {device: sRGB, name: Raw, colorspace: raw}
colorspaces:
  - !<ColorSpace>
    name: raw
    family: raw
    bitdepth: 32f
    description: |
      A raw color space. Conversions to and from this space are no-ops.
    isdata: true
    gpuallocation: uniform
    gpumin: 0
    gpumax: 1
