kotoba/fixtures/tiny.ocio
ocio_profile_version: 2
colorspaces:
  - !<ColorSpace>
      name: raw
