tests/data/files/configs/mergeconfigs/merged1/base1.ocio
ocio_profile_version: 2.1
name: base
environment:
  TEXTURE_SPACE: sRGB - Texture
  SHOT: 001a

search_path:
  - luts
  - .

family_separator: "-"

roles:
#  aces_interchange: ap0
  cie_xyz_d65_interchange: CIE-XYZ-D65

file_rules:
  - !<Rule> {name: Default, colorspace: ACEScg}

view_transforms:
  - !<ViewTransform>
    name: SDR Video
    description: from base
    from_scene_reference: !<BuiltinTransform> {style: ACES-OUTPUT - ACES2065-1_to_CIE-XYZ-D65 - SDR-VIDEO-P3lim_1.1}

  - !<ViewTransform>
    name: vt2
    description: from base
    to_display_reference: !<ExponentWithLinearTransform> {gamma: 2.4, offset: 0.055}

display_colorspaces:   # reference space = cie xyz d65
  - !<ColorSpace>
    name: sRGB - Display
    aliases: [srgb_display]
    family: Display-Basic
    description: from base
    categories: [file-io, display]
    from_display_reference: !<BuiltinTransform> {style: DISPLAY - CIE-XYZ-D65_to_sRGB}

  - !<ColorSpace>
    name: CIE-XYZ-D65
    aliases: []
    description: The \"CIE XYZ (D65)\" display connection colorspace.
    isdata: false

colorspaces:   # reference space = aces2065-1
  - !<ColorSpace>
    name: ACEScg
    aliases: [aces]
    family: ACES-Linear
    description: from base
    to_scene_reference: !<BuiltinTransform> {style: ACEScg_to_ACES2065-1}

  - !<ColorSpace>
    name: ap0
    family: ACES-Linear
    categories: [file-io]
    description: from base

  - !<ColorSpace>
    name: sRGB - Texture
    family: Texture
    aliases: [srgb, srgb_tx]
    description: from base
    categories: [file-io]
    from_scene_reference: !<GroupTransform>
      children:
        - !<MatrixTransform> {matrix: [2.52168618674388, -1.13413098823972, -0.387555198504164, 0, -0.276479914229922, 1.37271908766826, -0.096239173438334, 0, -0.0153780649660342, -0.152975335867399, 1.16835340083343, 0, 0, 0, 0, 1]}
        - !<ExponentWithLinearTransform> {gamma: 2.4, offset: 0.055, direction: inverse}