tests/data/files/crosstalk.3dl
# Generated by Foundry::LUT
0 8192 16384 24576 32768 40960 49152 57344 65535
0 0 0
0 0 4748
0 0 9496
0 0 14244
0 0 18991
0 0 23739
0 0 28487
0 0 33234
0 0 37982
0 3961 510
0 3961 5258
0 3961 10006
0 3961 14753
0 3961 19501
0 3961 24249
0 3961 28996
0 3961 33744
0 3961 38492
0 7922 1020
0 7922 5768
0 7922 10515
0 7922 15263
0 7922 20011
0 7922 24758
0 7922 29506
0 7922 34254
0 7922 39001
0 11883 1530
0 11883 6277
0 11883 11025
0 11883 15773
0 11883 20520
0 11883 25268
0 11883 30016
0 11883 34763
0 11883 39511
0 15844 2039
0 15844 6787
0 15844 11535
0 15844 16282
0 15844 21030
0 15844 25778
0 15844 30526
0 15844 35273
0 15844 40021
0 19805 2549
0 19805 7297
0 19805 12045
0 19805 16792
0 19805 21540
0 19805 26288
0 19805 31035
0 19805 35783
0 19805 40531
0 23766 3059
0 23766 7807
0 23766 12554
0 23766 17302
0 23766 22050
0 23766 26797
0 23766 31545
0 23766 36293
0 23766 41040
0 27727 3569
0 27727 8316
0 27727 13064
0 27727 17812
0 27727 22559
0 27727 27307
0 27727 32055
0 27727 36802
0 27727 41550
0 31688 4078
0 31688 8826
0 31688 13574
0 31688 18321
0 31688 23069
0 31688 27817
0 31688 32564
0 31688 37312
0 31688 42060
4319 488 0
3160 488 4748
2001 488 9496
842 488 14244
0 488 18991
0 488 23739
0 488 28487
0 488 33234
0 488 37982
4319 4449 510
3160 4449 5258
2001 4449 10006
842 4449 14753
0 4449 19501
0 4449 24249
0 4449 28996
0 4449 33744
0 4449 38492
4319 8410 1020
3160 8410 5768
2001 8410 10515
842 8410 15263
0 8410 20011
0 8410 24758
0 8410 29506
0 8410 34254
0 8410 39001
4319 12371 1530
3160 12371 6277
2001 12371 11025
842 12371 15773
0 12371 20520
0 12371 25268
0 12371 30016
0 12371 34763
0 12371 39511
4319 16331 2039
3160 16331 6787
2001 16331 11535
842 16331 16282
0 16331 21030
0 16331 25778
0 16331 30526
0 16331 35273
0 16331 40021
4319 20292 2549
3160 20292 7297
2001 20292 12045
842 20292 16792
0 20292 21540
0 20292 26288
0 20292 31035
0 20292 35783
0 20292 40531
4319 24253 3059
3160 24253 7807
2001 24253 12554
842 24253 17302
0 24253 22050
0 24253 26797
0 24253 31545
0 24253 36293
0 24253 41040
4319 28214 3569
3160 28214 8316
2001 28214 13064
842 28214 17812
0 28214 22559
0 28214 27307
0 28214 32055
0 28214 36802
0 28214 41550
4319 32175 4078
3160 32175 8826
2001 32175 13574
842 32175 18321
0 32175 23069
0 32175 27817
0 32175 32564
0 32175 37312
0 32175 42060
8686 975 0
7527 975 4748
6368 975 9496
5209 975 14244
4050 975 18991
2891 975 23739
1732 975 28487
573 975 33234
0 975 37982
8686 4936 510
7527 4936 5258
6368 4936 10006
5209 4936 14753
4050 4936 19501
2891 4936 24249
1732 4936 28996
573 4936 33744
0 4936 38492
8686 8897 1020
7527 8897 5768
6368 8897 10515
5209 8897 15263
4050 8897 20011
2891 8897 24758
1732 8897 29506
573 8897 34254
0 8897 39001
8686 12858 1530
7527 12858 6277
6368 12858 11025
5209 12858 15773
4050 12858 20520
2891 12858 25268
1732 12858 30016
573 12858 34763
0 12858 39511
8686 16819 2039
7527 16819 6787
6368 16819 11535
5209 16819 16282
4050 16819 21030
2891 16819 25778
1732 16819 30526
573 16819 35273
0 16819 40021
8686 20780 2549
7527 20780 7297
6368 20780 12045
5209 20780 16792
4050 20780 21540
2891 20780 26288
1732 20780 31035
573 20780 35783
0 20780 40531
8686 24741 3059
7527 24741 7807
6368 24741 12554
5209 24741 17302
4050 24741 22050
2891 24741 26797
1732 24741 31545
573 24741 36293
0 24741 41040
8686 28702 3569
7527 28702 8316
6368 28702 13064
5209 28702 17812
4050 28702 22559
2891 28702 27307
1732 28702 32055
573 28702 36802
0 28702 41550
8686 32662 4078
7527 32662 8826
6368 32662 13574
5209 32662 18321
4050 32662 23069
2891 32662 27817
1732 32662 32564
573 32662 37312
0 32662 42060
13053 1462 0
11894 1462 4748
10735 1462 9496
9576 1462 14244
8417 1462 18991
7258 1462 23739
6099 1462 28487
4940 1462 33234
3781 1462 37982
13053 5423 510
11894 5423 5258
10735 5423 10006
9576 5423 14753
8417 5423 19501
7258 5423 24249
6099 5423 28996
4940 5423 33744
3781 5423 38492
13053 9384 1020
11894 9384 5768
10735 9384 10515
9576 9384 15263
8417 9384 20011
7258 9384 24758
6099 9384 29506
4940 9384 34254
3781 9384 39001
13053 13345 1530
11894 13345 6277
10735 13345 11025
9576 13345 15773
8417 13345 20520
7258 13345 25268
6099 13345 30016
4940 13345 34763
3781 13345 39511
13053 17306 2039
11894 17306 6787
10735 17306 11535
9576 17306 16282
8417 17306 21030
7258 17306 25778
6099 17306 30526
4940 17306 35273
3781 17306 40021
13053 21267 2549
11894 21267 7297
10735 21267 12045
9576 21267 16792
8417 21267 21540
7258 21267 26288
6099 21267 31035
4940 21267 35783
3781 21267 40531
13053 25228 3059
11894 25228 7807
10735 25228 12554
9576 25228 17302
8417 25228 22050
7258 25228 26797
6099 25228 31545
4940 25228 36293
3781 25228 41040
13053 29189 3569
11894 29189 8316
10735 29189 13064
9576 29189 17812
8417 29189 22559
7258 29189 27307
6099 29189 32055
4940 29189 36802
3781 29189 41550
13053 33150 4078
11894 33150 8826
10735 33150 13574
9576 33150 18321
8417 33150 23069
7258 33150 27817
6099 33150 32564
4940 33150 37312
3781 33150 42060
17420 1949 0
16261 1949 4748
15102 1949 9496
13943 1949 14244
12784 1949 18991
11625 1949 23739
10466 1949 28487
9307 1949 33234
8148 1949 37982
17420 5910 510
16261 5910 5258
15102 5910 10006
13943 5910 14753
12784 5910 19501
11625 5910 24249
10466 5910 28996
9307 5910 33744
8148 5910 38492
17420 9871 1020
16261 9871 5768
15102 9871 10515
13943 9871 15263
12784 9871 20011
11625 9871 24758
10466 9871 29506
9307 9871 34254
8148 9871 39001
17420 13832 1530
16261 13832 6277
15102 13832 11025
13943 13832 15773
12784 13832 20520
11625 13832 25268
10466 13832 30016
9307 13832 34763
8148 13832 39511
17420 17793 2039
16261 17793 6787
15102 17793 11535
13943 17793 16282
12784 17793 21030
11625 17793 25778
10466 17793 30526
9307 17793 35273
8148 17793 40021
17420 21754 2549
16261 21754 7297
15102 21754 12045
13943 21754 16792
12784 21754 21540
11625 21754 26288
10466 21754 31035
9307 21754 35783
8148 21754 40531
17420 25715 3059
16261 25715 7807
15102 25715 12554
13943 25715 17302
12784 25715 22050
11625 25715 26797
10466 25715 31545
9307 25715 36293
8148 25715 41040
17420 29676 3569
16261 29676 8316
15102 29676 13064
13943 29676 17812
12784 29676 22559
11625 29676 27307
10466 29676 32055
9307 29676 36802
8148 29676 41550
17420 33637 4078
16261 33637 8826
15102 33637 13574
13943 33637 18321
12784 33637 23069
11625 33637 27817
10466 33637 32564
9307 33637 37312
8148 33637 42060
21787 2436 0
20628 2436 4748
19469 2436 9496
18310 2436 14244
17151 2436 18991
15992 2436 23739
14833 2436 28487
13674 2436 33234
12515 2436 37982
21787 6397 510
20628 6397 5258
19469 6397 10006
18310 6397 14753
17151 6397 19501
15992 6397 24249
14833 6397 28996
13674 6397 33744
12515 6397 38492
21787 10358 1020
20628 10358 5768
19469 10358 10515
18310 10358 15263
17151 10358 20011
15992 10358 24758
14833 10358 29506
13674 10358 34254
12515 10358 39001
21787 14319 1530
20628 14319 6277
19469 14319 11025
18310 14319 15773
17151 14319 20520
15992 14319 25268
14833 14319 30016
13674 14319 34763
12515 14319 39511
21787 18280 2039
20628 18280 6787
19469 18280 11535
18310 18280 16282
17151 18280 21030
15992 18280 25778
14833 18280 30526
13674 18280 35273
12515 18280 40021
21787 22241 2549
20628 22241 7297
19469 22241 12045
18310 22241 16792
17151 22241 21540
15992 22241 26288
14833 22241 31035
13674 22241 35783
12515 22241 40531
21787 26202 3059
20628 26202 7807
19469 26202 12554
18310 26202 17302
17151 26202 22050
15992 26202 26797
14833 26202 31545
13674 26202 36293
12515 26202 41040
21787 30163 3569
20628 30163 8316
19469 30163 13064
18310 30163 17812
17151 30163 22559
15992 30163 27307
14833 30163 32055
13674 30163 36802
12515 30163 41550
21787 34124 4078
20628 34124 8826
19469 34124 13574
18310 34124 18321
17151 34124 23069
15992 34124 27817
14833 34124 32564
13674 34124 37312
12515 34124 42060
26154 2923 0
24995 2923 4748
23836 2923 9496
22677 2923 14244
21518 2923 18991
20359 2923 23739
19200 2923 28487
18041 2923 33234
16882 2923 37982
26154 6884 510
24995 6884 5258
23836 6884 10006
22677 6884 14753
21518 6884 19501
20359 6884 24249
19200 6884 28996
18041 6884 33744
16882 6884 38492
26154 10845 1020
24995 10845 5768
23836 10845 10515
22677 10845 15263
21518 10845 20011
20359 10845 24758
19200 10845 29506
18041 10845 34254
16882 10845 39001
26154 14806 1530
24995 14806 6277
23836 14806 11025
22677 14806 15773
21518 14806 20520
20359 14806 25268
19200 14806 30016
18041 14806 34763
16882 14806 39511
26154 18767 2039
24995 18767 6787
23836 18767 11535
22677 18767 16282
21518 18767 21030
20359 18767 25778
19200 18767 30526
18041 18767 35273
16882 18767 40021
26154 22728 2549
24995 22728 7297
23836 22728 12045
22677 22728 16792
21518 22728 21540
20359 22728 26288
19200 22728 31035
18041 22728 35783
16882 22728 40531
26154 26689 3059
24995 26689 7807
23836 26689 12554
22677 26689 17302
21518 26689 22050
20359 26689 26797
19200 26689 31545
18041 26689 36293
16882 26689 41040
26154 30650 3569
24995 30650 8316
23836 30650 13064
22677 30650 17812
21518 30650 22559
20359 30650 27307
19200 30650 32055
18041 30650 36802
16882 30650 41550
26154 34611 4078
24995 34611 8826
23836 34611 13574
22677 34611 18321
21518 34611 23069
20359 34611 27817
19200 34611 32564
18041 34611 37312
16882 34611 42060
30521 3410 0
29362 3410 4748
28203 3410 9496
27044 3410 14244
25885 3410 18991
24726 3410 23739
23567 3410 28487
22408 3410 33234
21249 3410 37982
30521 7371 510
29362 7371 5258
28203 7371 10006
27044 7371 14753
25885 7371 19501
24726 7371 24249
23567 7371 28996
22408 7371 33744
21249 7371 38492
30521 11332 1020
29362 11332 5768
28203 11332 10515
27044 11332 15263
25885 11332 20011
24726 11332 24758
23567 11332 29506
22408 11332 34254
21249 11332 39001
30521 15293 1530
29362 15293 6277
28203 15293 11025
27044 15293 15773
25885 15293 20520
24726 15293 25268
23567 15293 30016
22408 15293 34763
21249 15293 39511
30521 19254 2039
29362 19254 6787
28203 19254 11535
27044 19254 16282
25885 19254 21030
24726 19254 25778
23567 19254 30526
22408 19254 35273
21249 19254 40021
30521 23215 2549
29362 23215 7297
28203 23215 12045
27044 23215 16792
25885 23215 21540
24726 23215 26288
23567 23215 31035
22408 23215 35783
21249 23215 40531
30521 27176 3059
29362 27176 7807
28203 27176 12554
27044 27176 17302
25885 27176 22050
24726 27176 26797
23567 27176 31545
22408 27176 36293
21249 27176 41040
30521 31137 3569
29362 31137 8316
28203 31137 13064
27044 31137 17812
25885 31137 22559
24726 31137 27307
23567 31137 32055
22408 31137 36802
21249 31137 41550
30521 35098 4078
29362 35098 8826
28203 35098 13574
27044 35098 18321
25885 35098 23069
24726 35098 27817
23567 35098 32564
22408 35098 37312
21249 35098 42060
34888 3897 0
33729 3897 4748
32570 3897 9496
31411 3897 14244
30252 3897 18991
29093 3897 23739
27934 3897 28487
26775 3897 33234
25616 3897 37982
34888 7858 510
33729 7858 5258
32570 7858 10006
31411 7858 14753
30252 7858 19501
29093 7858 24249
27934 7858 28996
26775 7858 33744
25616 7858 38492
34888 11819 1020
33729 11819 5768
32570 11819 10515
31411 11819 15263
30252 11819 20011
29093 11819 24758
27934 11819 29506
26775 11819 34254
25616 11819 39001
34888 15780 1530
33729 15780 6277
32570 15780 11025
31411 15780 15773
30252 15780 20520
29093 15780 25268
27934 15780 30016
26775 15780 34763
25616 15780 39511
34888 19741 2039
33729 19741 6787
32570 19741 11535
31411 19741 16282
30252 19741 21030
29093 19741 25778
27934 19741 30526
26775 19741 35273
25616 19741 40021
34888 23702 2549
33729 23702 7297
32570 23702 12045
31411 23702 16792
30252 23702 21540
29093 23702 26288
27934 23702 31035
26775 23702 35783
25616 23702 40531
34888 27663 3059
33729 27663 7807
32570 27663 12554
31411 27663 17302
30252 27663 22050
29093 27663 26797
27934 27663 31545
26775 27663 36293
25616 27663 41040
34888 31624 3569
33729 31624 8316
32570 31624 13064
31411 31624 17812
30252 31624 22559
29093 31624 27307
27934 31624 32055
26775 31624 36802
25616 31624 41550
34888 35585 4078
33729 35585 8826
32570 35585 13574
31411 35585 18321
30252 35585 23069
29093 35585 27817
27934 35585 32564
26775 35585 37312
25616 35585 42060
