tests/data/files/crosstalk.3dl
# Generated by Foundry::LUT
0 16384 32768 49152 65535
0 0 0
0 0 9496
0 0 18991
0 0 28487
0 0 37982
0 7922 1020
0 7922 10515
0 7922 20011
0 7922 29506
0 7922 39001
0 15844 2039
0 15844 11535
0 15844 21030
0 15844 30526
0 15844 40021
0 23766 3059
0 23766 12554
0 23766 22050
0 23766 31545
0 23766 41040
0 31688 4078
0 31688 13574
0 31688 23069
0 31688 32564
0 31688 42060
8686 975 0
6368 975 9496
4050 975 18991
1732 975 28487
0 975 37982
8686 8897 1020
6368 8897 10515
4050 8897 20011
1732 8897 29506
0 8897 39001
8686 16819 2039
6368 16819 11535
4050 16819 21030
1732 16819 30526
0 16819 40021
8686 24741 3059
6368 24741 12554
4050 24741 22050
1732 24741 31545
0 24741 41040
8686 32662 4078
6368 32662 13574
4050 32662 23069
1732 32662 32564
0 32662 42060
17420 1949 0
15102 1949 9496
12784 1949 18991
10466 1949 28487
8148 1949 37982
17420 9871 1020
15102 9871 10515
12784 9871 20011
10466 9871 29506
8148 9871 39001
17420 17793 2039
15102 17793 11535
12784 17793 21030
10466 17793 30526
8148 17793 40021
17420 25715 3059
15102 25715 12554
12784 25715 22050
10466 25715 31545
8148 25715 41040
17420 33637 4078
15102 33637 13574
12784 33637 23069
10466 33637 32564
8148 33637 42060
26154 2923 0
23836 2923 9496
21518 2923 18991
19200 2923 28487
16882 2923 37982
26154 10845 1020
23836 10845 10515
21518 10845 20011
19200 10845 29506
16882 10845 39001
26154 18767 2039
23836 18767 11535
21518 18767 21030
19200 18767 30526
16882 18767 40021
26154 26689 3059
23836 26689 12554
21518 26689 22050
19200 26689 31545
16882 26689 41040
26154 34611 4078
23836 34611 13574
21518 34611 23069
19200 34611 32564
16882 34611 42060
34888 3897 0
32570 3897 9496
30252 3897 18991
27934 3897 28487
25616 3897 37982
34888 11819 1020
32570 11819 10515
30252 11819 20011
27934 11819 29506
25616 11819 39001
34888 19741 2039
32570 19741 11535
30252 19741 21030
27934 19741 30526
25616 19741 40021
34888 27663 3059
32570 27663 12554
30252 27663 22050
27934 27663 31545
25616 27663 41040
34888 35585 4078
32570 35585 13574
30252 35585 23069
27934 35585 32564
25616 35585 42060
