tests/data/files/crosstalk.3dl
# Generated by Foundry::LUT
0 4096 8192 12288 16384 20480 24576 28672 32768 36864 40960 45056 49152 53248 57344 61440 65535 
0 0 0
0 0 2374
0 0 4748
0 0 7122
0 0 9496
0 0 11870
0 0 14244
0 0 16617
0 0 18991
0 0 21365
0 0 23739
0 0 26113
0 0 28487
0 0 30860
0 0 33234
0 0 35608
0 0 37982
0 1981 255
0 1981 2629
0 1981 5003
0 1981 7377
0 1981 9751
0 1981 12125
0 1981 14498
0 1981 16872
0 1981 19246
0 1981 21620
0 1981 23994
0 1981 26368
0 1981 28741
0 1981 31115
0 1981 33489
0 1981 35863
0 1981 38237
0 3961 510
0 3961 2884
0 3961 5258
0 3961 7632
0 3961 10006
0 3961 12379
0 3961 14753
0 3961 17127
0 3961 19501
0 3961 21875
0 3961 24249
0 3961 26622
0 3961 28996
0 3961 31370
0 3961 33744
0 3961 36118
0 3961 38492
0 5942 765
0 5942 3139
0 5942 5513
0 5942 7887
0 5942 10260
0 5942 12634
0 5942 15008
0 5942 17382
0 5942 19756
0 5942 22130
0 5942 24503
0 5942 26877
0 5942 29251
0 5942 31625
0 5942 33999
0 5942 36373
0 5942 38746
0 7922 1020
0 7922 3394
0 7922 5768
0 7922 8141
0 7922 10515
0 7922 12889
0 7922 15263
0 7922 17637
0 7922 20011
0 7922 22385
0 7922 24758
0 7922 27132
0 7922 29506
0 7922 31880
0 7922 34254
0 7922 36628
0 7922 39001
0 9903 1275
0 9903 3649
0 9903 6023
0 9903 8396
0 9903 10770
0 9903 13144
0 9903 15518
0 9903 17892
0 9903 20266
0 9903 22639
0 9903 25013
0 9903 27387
0 9903 29761
0 9903 32135
0 9903 34509
0 9903 36882
0 9903 39256
0 11883 1530
0 11883 3904
0 11883 6277
0 11883 8651
0 11883 11025
0 11883 13399
0 11883 15773
0 11883 18147
0 11883 20520
0 11883 22894
0 11883 25268
0 11883 27642
0 11883 30016
0 11883 32390
0 11883 34763
0 11883 37137
0 11883 39511
0 13864 1785
0 13864 4158
0 13864 6532
0 13864 8906
0 13864 11280
0 13864 13654
0 13864 16028
0 13864 18401
0 13864 20775
0 13864 23149
0 13864 25523
0 13864 27897
0 13864 30271
0 13864 32644
0 13864 35018
0 13864 37392
0 13864 39766
0 15844 2039
0 15844 4413
0 15844 6787
0 15844 9161
0 15844 11535
0 15844 13909
0 15844 16282
0 15844 18656
0 15844 21030
0 15844 23404
0 15844 25778
0 15844 28152
0 15844 30526
0 15844 32899
0 15844 35273
0 15844 37647
0 15844 40021
0 17825 2294
0 17825 4668
0 17825 7042
0 17825 9416
0 17825 11790
0 17825 14164
0 17825 16537
0 17825 18911
0 17825 21285
0 17825 23659
0 17825 26033
0 17825 28407
0 17825 30780
0 17825 33154
0 17825 35528
0 17825 37902
0 17825 40276
0 19805 2549
0 19805 4923
0 19805 7297
0 19805 9671
0 19805 12045
0 19805 14418
0 19805 16792
0 19805 19166
0 19805 21540
0 19805 23914
0 19805 26288
0 19805 28661
0 19805 31035
0 19805 33409
0 19805 35783
0 19805 38157
0 19805 40531
0 21786 2804
0 21786 5178
0 21786 7552
0 21786 9926
0 21786 12299
0 21786 14673
0 21786 17047
0 21786 19421
0 21786 21795
0 21786 24169
0 21786 26542
0 21786 28916
0 21786 31290
0 21786 33664
0 21786 36038
0 21786 38412
0 21786 40785
0 23766 3059
0 23766 5433
0 23766 7807
0 23766 10180
0 23766 12554
0 23766 14928
0 23766 17302
0 23766 19676
0 23766 22050
0 23766 24423
0 23766 26797
0 23766 29171
0 23766 31545
0 23766 33919
0 23766 36293
0 23766 38666
0 23766 41040
0 25747 3314
0 25747 5688
0 25747 8061
0 25747 10435
0 25747 12809
0 25747 15183
0 25747 17557
0 25747 19931
0 25747 22305
0 25747 24678
0 25747 27052
0 25747 29426
0 25747 31800
0 25747 34174
0 25747 36548
0 25747 38921
0 25747 41295
0 27727 3569
0 27727 5943
0 27727 8316
0 27727 10690
0 27727 13064
0 27727 15438
0 27727 17812
0 27727 20186
0 27727 22559
0 27727 24933
0 27727 27307
0 27727 29681
0 27727 32055
0 27727 34429
0 27727 36802
0 27727 39176
0 27727 41550
0 29708 3824
0 29708 6197
0 29708 8571
0 29708 10945
0 29708 13319
0 29708 15693
0 29708 18067
0 29708 20440
0 29708 22814
0 29708 25188
0 29708 27562
0 29708 29936
0 29708 32310
0 29708 34683
0 29708 37057
0 29708 39431
0 29708 41805
0 31688 4078
0 31688 6452
0 31688 8826
0 31688 11200
0 31688 13574
0 31688 15948
0 31688 18321
0 31688 20695
0 31688 23069
0 31688 25443
0 31688 27817
0 31688 30191
0 31688 32564
0 31688 34938
0 31688 37312
0 31688 39686
0 31688 42060
2135 244 0
1556 244 2374
976 244 4748
397 244 7122
0 244 9496
0 244 11870
0 244 14244
0 244 16617
0 244 18991
0 244 21365
0 244 23739
0 244 26113
0 244 28487
0 244 30860
0 244 33234
0 244 35608
0 244 37982
2135 2225 255
1556 2225 2629
976 2225 5003
397 2225 7377
0 2225 9751
0 2225 12125
0 2225 14498
0 2225 16872
0 2225 19246
0 2225 21620
0 2225 23994
0 2225 26368
0 2225 28741
0 2225 31115
0 2225 33489
0 2225 35863
0 2225 38237
2135 4205 510
1556 4205 2884
976 4205 5258
397 4205 7632
0 4205 10006
0 4205 12379
0 4205 14753
0 4205 17127
0 4205 19501
0 4205 21875
0 4205 24249
0 4205 26622
0 4205 28996
0 4205 31370
0 4205 33744
0 4205 36118
0 4205 38492
2135 6186 765
1556 6186 3139
976 6186 5513
397 6186 7887
0 6186 10260
0 6186 12634
0 6186 15008
0 6186 17382
0 6186 19756
0 6186 22130
0 6186 24503
0 6186 26877
0 6186 29251
0 6186 31625
0 6186 33999
0 6186 36373
0 6186 38746
2135 8166 1020
1556 8166 3394
976 8166 5768
397 8166 8141
0 8166 10515
0 8166 12889
0 8166 15263
0 8166 17637
0 8166 20011
0 8166 22385
0 8166 24758
0 8166 27132
0 8166 29506
0 8166 31880
0 8166 34254
0 8166 36628
0 8166 39001
2135 10146 1275
1556 10146 3649
976 10146 6023
397 10146 8396
0 10146 10770
0 10146 13144
0 10146 15518
0 10146 17892
0 10146 20266
0 10146 22639
0 10146 25013
0 10146 27387
0 10146 29761
0 10146 32135
0 10146 34509
0 10146 36882
0 10146 39256
2135 12127 1530
1556 12127 3904
976 12127 6277
397 12127 8651
0 12127 11025
0 12127 13399
0 12127 15773
0 12127 18147
0 12127 20520
0 12127 22894
0 12127 25268
0 12127 27642
0 12127 30016
0 12127 32390
0 12127 34763
0 12127 37137
0 12127 39511
2135 14107 1785
1556 14107 4158
976 14107 6532
397 14107 8906
0 14107 11280
0 14107 13654
0 14107 16028
0 14107 18401
0 14107 20775
0 14107 23149
0 14107 25523
0 14107 27897
0 14107 30271
0 14107 32644
0 14107 35018
0 14107 37392
0 14107 39766
2135 16088 2039
1556 16088 4413
976 16088 6787
397 16088 9161
0 16088 11535
0 16088 13909
0 16088 16282
0 16088 18656
0 16088 21030
0 16088 23404
0 16088 25778
0 16088 28152
0 16088 30526
0 16088 32899
0 16088 35273
0 16088 37647
0 16088 40021
2135 18068 2294
1556 18068 4668
976 18068 7042
397 18068 9416
0 18068 11790
0 18068 14164
0 18068 16537
0 18068 18911
0 18068 21285
0 18068 23659
0 18068 26033
0 18068 28407
0 18068 30780
0 18068 33154
0 18068 35528
0 18068 37902
0 18068 40276
2135 20049 2549
1556 20049 4923
976 20049 7297
397 20049 9671
0 20049 12045
0 20049 14418
0 20049 16792
0 20049 19166
0 20049 21540
0 20049 23914
0 20049 26288
0 20049 28661
0 20049 31035
0 20049 33409
0 20049 35783
0 20049 38157
0 20049 40531
2135 22029 2804
1556 22029 5178
976 22029 7552
397 22029 9926
0 22029 12299
0 22029 14673
0 22029 17047
0 22029 19421
0 22029 21795
0 22029 24169
0 22029 26542
0 22029 28916
0 22029 31290
0 22029 33664
0 22029 36038
0 22029 38412
0 22029 40785
2135 24010 3059
1556 24010 5433
976 24010 7807
397 24010 10180
0 24010 12554
0 24010 14928
0 24010 17302
0 24010 19676
0 24010 22050
0 24010 24423
0 24010 26797
0 24010 29171
0 24010 31545
0 24010 33919
0 24010 36293
0 24010 38666
0 24010 41040
2135 25990 3314
1556 25990 5688
976 25990 8061
397 25990 10435
0 25990 12809
0 25990 15183
0 25990 17557
0 25990 19931
0 25990 22305
0 25990 24678
0 25990 27052
0 25990 29426
0 25990 31800
0 25990 34174
0 25990 36548
0 25990 38921
0 25990 41295
2135 27971 3569
1556 27971 5943
976 27971 8316
397 27971 10690
0 27971 13064
0 27971 15438
0 27971 17812
0 27971 20186
0 27971 22559
0 27971 24933
0 27971 27307
0 27971 29681
0 27971 32055
0 27971 34429
0 27971 36802
0 27971 39176
0 27971 41550
2135 29951 3824
1556 29951 6197
976 29951 8571
397 29951 10945
0 29951 13319
0 29951 15693
0 29951 18067
0 29951 20440
0 29951 22814
0 29951 25188
0 29951 27562
0 29951 29936
0 29951 32310
0 29951 34683
0 29951 37057
0 29951 39431
0 29951 41805
2135 31932 4078
1556 31932 6452
976 31932 8826
397 31932 11200
0 31932 13574
0 31932 15948
0 31932 18321
0 31932 20695
0 31932 23069
0 31932 25443
0 31932 27817
0 31932 30191
0 31932 32564
0 31932 34938
0 31932 37312
0 31932 39686
0 31932 42060
4319 488 0
3739 488 2374
3160 488 4748
2580 488 7122
2001 488 9496
1421 488 11870
842 488 14244
262 488 16617
0 488 18991
0 488 21365
0 488 23739
0 488 26113
0 488 28487
0 488 30860
0 488 33234
0 488 35608
0 488 37982
4319 2468 255
3739 2468 2629
3160 2468 5003
2580 2468 7377
2001 2468 9751
1421 2468 12125
842 2468 14498
262 2468 16872
0 2468 19246
0 2468 21620
0 2468 23994
0 2468 26368
0 2468 28741
0 2468 31115
0 2468 33489
0 2468 35863
0 2468 38237
4319 4449 510
3739 4449 2884
3160 4449 5258
2580 4449 7632
2001 4449 10006
1421 4449 12379
842 4449 14753
262 4449 17127
0 4449 19501
0 4449 21875
0 4449 24249
0 4449 26622
0 4449 28996
0 4449 31370
0 4449 33744
0 4449 36118
0 4449 38492
4319 6429 765
3739 6429 3139
3160 6429 5513
2580 6429 7887
2001 6429 10260
1421 6429 12634
842 6429 15008
262 6429 17382
0 6429 19756
0 6429 22130
0 6429 24503
0 6429 26877
0 6429 29251
0 6429 31625
0 6429 33999
0 6429 36373
0 6429 38746
4319 8410 1020
3739 8410 3394
3160 8410 5768
2580 8410 8141
2001 8410 10515
1421 8410 12889
842 8410 15263
262 8410 17637
0 8410 20011
0 8410 22385
0 8410 24758
0 8410 27132
0 8410 29506
0 8410 31880
0 8410 34254
0 8410 36628
0 8410 39001
4319 10390 1275
3739 10390 3649
3160 10390 6023
2580 10390 8396
2001 10390 10770
1421 10390 13144
842 10390 15518
262 10390 17892
0 10390 20266
0 10390 22639
0 10390 25013
0 10390 27387
0 10390 29761
0 10390 32135
0 10390 34509
0 10390 36882
0 10390 39256
4319 12371 1530
3739 12371 3904
3160 12371 6277
2580 12371 8651
2001 12371 11025
1421 12371 13399
842 12371 15773
262 12371 18147
0 12371 20520
0 12371 22894
0 12371 25268
0 12371 27642
0 12371 30016
0 12371 32390
0 12371 34763
0 12371 37137
0 12371 39511
4319 14351 1785
3739 14351 4158
3160 14351 6532
2580 14351 8906
2001 14351 11280
1421 14351 13654
842 14351 16028
262 14351 18401
0 14351 20775
0 14351 23149
0 14351 25523
0 14351 27897
0 14351 30271
0 14351 32644
0 14351 35018
0 14351 37392
0 14351 39766
4319 16331 2039
3739 16331 4413
3160 16331 6787
2580 16331 9161
2001 16331 11535
1421 16331 13909
842 16331 16282
262 16331 18656
0 16331 21030
0 16331 23404
0 16331 25778
0 16331 28152
0 16331 30526
0 16331 32899
0 16331 35273
0 16331 37647
0 16331 40021
4319 18312 2294
3739 18312 4668
3160 18312 7042
2580 18312 9416
2001 18312 11790
1421 18312 14164
842 18312 16537
262 18312 18911
0 18312 21285
0 18312 23659
0 18312 26033
0 18312 28407
0 18312 30780
0 18312 33154
0 18312 35528
0 18312 37902
0 18312 40276
4319 20292 2549
3739 20292 4923
3160 20292 7297
2580 20292 9671
2001 20292 12045
1421 20292 14418
842 20292 16792
262 20292 19166
0 20292 21540
0 20292 23914
0 20292 26288
0 20292 28661
0 20292 31035
0 20292 33409
0 20292 35783
0 20292 38157
0 20292 40531
4319 22273 2804
3739 22273 5178
3160 22273 7552
2580 22273 9926
2001 22273 12299
1421 22273 14673
842 22273 17047
262 22273 19421
0 22273 21795
0 22273 24169
0 22273 26542
0 22273 28916
0 22273 31290
0 22273 33664
0 22273 36038
0 22273 38412
0 22273 40785
4319 24253 3059
3739 24253 5433
3160 24253 7807
2580 24253 10180
2001 24253 12554
1421 24253 14928
842 24253 17302
262 24253 19676
0 24253 22050
0 24253 24423
0 24253 26797
0 24253 29171
0 24253 31545
0 24253 33919
0 24253 36293
0 24253 38666
0 24253 41040
4319 26234 3314
3739 26234 5688
3160 26234 8061
2580 26234 10435
2001 26234 12809
1421 26234 15183
842 26234 17557
262 26234 19931
0 26234 22305
0 26234 24678
0 26234 27052
0 26234 29426
0 26234 31800
0 26234 34174
0 26234 36548
0 26234 38921
0 26234 41295
4319 28214 3569
3739 28214 5943
3160 28214 8316
2580 28214 10690
2001 28214 13064
1421 28214 15438
842 28214 17812
262 28214 20186
0 28214 22559
0 28214 24933
0 28214 27307
0 28214 29681
0 28214 32055
0 28214 34429
0 28214 36802
0 28214 39176
0 28214 41550
4319 30195 3824
3739 30195 6197
3160 30195 8571
2580 30195 10945
2001 30195 13319
1421 30195 15693
842 30195 18067
262 30195 20440
0 30195 22814
0 30195 25188
0 30195 27562
0 30195 29936
0 30195 32310
0 30195 34683
0 30195 37057
0 30195 39431
0 30195 41805
4319 32175 4078
3739 32175 6452
3160 32175 8826
2580 32175 11200
2001 32175 13574
1421 32175 15948
842 32175 18321
262 32175 20695
0 32175 23069
0 32175 25443
0 32175 27817
0 32175 30191
0 32175 32564
0 32175 34938
0 32175 37312
0 32175 39686
0 32175 42060
6502 731 0
5923 731 2374
5343 731 4748
4764 731 7122
4184 731 9496
3605 731 11870
3025 731 14244
2446 731 16617
1866 731 18991
1287 731 21365
707 731 23739
128 731 26113
0 731 28487
0 731 30860
0 731 33234
0 731 35608
0 731 37982
6502 2712 255
5923 2712 2629
5343 2712 5003
4764 2712 7377
4184 2712 9751
3605 2712 12125
3025 2712 14498
2446 2712 16872
1866 2712 19246
1287 2712 21620
707 2712 23994
128 2712 26368
0 2712 28741
0 2712 31115
0 2712 33489
0 2712 35863
