tests/data/files/discreet-3d-lut.3dl
#Tokens required by applications - do not edit
3DMESH
Mesh 4 12
0 64 128 192 256 320 384 448 512 576 640 704 768 832 896 960 1023
17 17 17
0 0 68
0 0 126
0 19 198
0 115 202
0 151 289
0 203 399
0 271 524
8 346 683
68 425 841
54 490 987
0 541 1103
0 577 1188
0 601 1243
0 615 1275
0 642 1332
0 694 1391
0 79 53
0 75 83
0 78 135
23 109 159
0 132 230
0 165 312
0 217 419
0 286 558
63 373 718
0 451 896
0 519 1049
0 574 1174
75 623 1242
62 649 1298
0 669 1338
0 706 1412
0 769 1491
0 118 71
42 110 111
46 125 137
31 142 189
9 161 255
0 193 337
0 246 453
54 323 597
0 407 791
54 495 955
0 567 1111
0 626 1240
0 670 1333
0 698 1394
0 722 1441
0 772 1493
0 828 1598
37 160 119
55 164 138
58 174 166
46 188 213
21 206 280
39 235 366
0 291 500
0 374 680
42 466 857
6 552 1033
0 630 1197
0 692 1325
0 737 1418
0 770 1484
0 796 1535
0 843 1579
0 893 1666
50 231 154
45 235 167
67 238 196
86 247 241
50 267 310
53 298 404
0 358 559
0 450 766
29 542 945
0 627 1138
0 712 1309
0 774 1434
0 820 1525
0 856 1595
0 883 1645
0 917 1705
0 969 1751
66 311 195
69 319 210
70 328 238
96 337 284
88 358 354
42 403 473
48 475 649
0 562 860
0 661 1070
0 757 1271
0 837 1449
0 898 1570
0 937 1679
0 969 1741
0 992 1783
0 1035 1814
0 1083 1887
33 436 249
44 448 266
5 465 298
43 483 350
44 510 431
37 564 569
8 637 756
0 724 972
0 830 1211
0 928 1423
0 1000 1604
0 1060 1744
0 1105 1829
0 1133 1880
0 1157 1919
0 1193 1972
0 1245 2015
0 631 338
31 646 354
45 663 388
55 687 446
27 720 534
0 769 671
31 841 869
0 937 1106
0 1042 1350
0 1132 1576
0 1204 1766
0 1270 1908
0 1315 2013
0 1342 2064
0 1369 2109
0 1401 2153
0 1433 2195
0 867 433
35 889 455
10 907 492
0 930 552
48 969 645
51 1018 789
0 1091 999
0 1191 1254
0 1293 1507
0 1386 1739
0 1468 1937
112 1537 2088
0 1582 2204
0 1605 2253
0 1617 2297
0 1639 2327
0 1671 2347
0 1096 523
86 1125 553
0 1148 588
0 1171 650
0 1212 748
0 1267 905
0 1342 1127
0 1442 1391
0 1547 1658
0 1647 1904
0 1734 2111
0 1800 2266
0 1844 2375
116 1866 2436
0 1871 2465
0 1883 2483
0 1907 2511
0 1288 592
0 1317 627
0 1343 664
121 1366 734
0 1408 835
32 1465 1002
45 1547 1230
0 1648 1501
51 1761 1781
16 1865 2034
64 1947 2240
0 2008 2398
125 2050 2504
0 2078 2576
74 2090 2604
0 2096 2627
0 2102 2638
0 1419 650
126 1439 681
95 1466 721
0 1498 787
0 1535 892
80 1585 1068
0 1668 1304
0 1779 1581
0 1896 1866
0 2002 2123
0 2087 2332
0 2147 2488
88 2189 2592
0 2216 2660
143 2221 2686
0 2227 2708
0 2241 2723
87 1500 684
0 1526 702
93 1546 761
0 1579 833
51 1613 951
0 1669 1131
0 1756 1378
0 1870 1661
0 1982 1940
32 2085 2190
0 2173 2400
0 2231 2553
0 2269 2652
0 2293 2709
0 2299 2739
10 2305 2754
0 2321 2771
127 1544 703
0 1578 726
0 1599 789
0 1626 878
0 1669 1010
0 1738 1209
0 1833 1465
0 1940 1747
0 2044 2016
0 2143 2256
119 2227 2453
89 2278 2596
0 2310 2692
130 2335 2740
0 2354 2777
0 2361 2792
145 2359 2797
135 1583 720
124 1602 759
149 1625 824
0 1663 920
0 1712 1071
0 1788 1292
0 1883 1553
0 1982 1822
0 2084 2079
65 2182 2311
0 2267 2506
30 2313 2634
0 2341 2716
0 2368 2770
124 2387 2801
0 2397 2823
0 2398 2831
0 1699 744
0 1708 813
27 1736 911
50 1782 1050
0 1842 1229
0 1916 1457
31 2004 1707
0 2099 1961
0 2197 2208
0 2287 2429
0 2359 2608
0 2404 2727
108 2433 2801
0 2457 2852
0 2469 2882
0 2478 2897
0 2489 2911
0 1882 786
0 1899 904
0 1935 1049
0 1987 1244
0 2055 1465
87 2128 1691
0 2212 1925
0 2306 2171
0 2397 2411
58 2466 2611
0 2514 2762
0 2558 2876
0 2593 2951
0 2611 2995
137 2614 3011
0 2619 3028
0 2632 3042
35 10 29
62 35 70
47 40 129
24 91 145
0 105 226
0 148 302
0 203 408
0 268 548
53 350 697
0 422 880
70 497 1007
61 546 1119
31 581 1200
0 605 1255
0 620 1290
0 648 1349
35 701 1410
59 74 48
55 77 87
42 81 138
0 95 192
0 124 245
0 161 320
0 212 431
0 286 564
0 372 748
60 458 915
0 524 1063
0 575 1180
0 617 1275
0 648 1346
62 680 1364
0 713 1432
0 761 1527
45 122 69
46 128 99
48 131 147
26 140 201
0 156 266
0 188 351
20 246 460
0 322 620
0 413 808
0 493 987
60 569 1119
0 627 1245
0 673 1344
0 706 1414
0 729 1461
0 776 1507
0 829 1604
26 174 105
17 182 120
56 182 167
48 191 218
34 209 287
40 237 380
45 294 512
0 381 700
0 470 892
0 551 1067
53 632 1205
0 696 1338
0 742 1433
0 772 1493
0 799 1546
0 838 1619
0 897 1680
50 237 147
50 240 160
57 242 191
91 251 242
57 279 318
48 306 422
0 360 576
0 455 779
0 550 983
0 639 1165
0 719 1327
0 783 1456
0 827 1545
0 857 1604
0 890 1665
0 931 1736
0 984 1783
74 317 192
67 327 207
74 333 235
90 344 284
98 372 362
40 413 486
0 481 664
0 572 877
0 667 1085
0 763 1285
0 847 1471
0 908 1591
0 945 1699
0 979 1763
0 1005 1811
0 1051 1847
0 1102 1925
36 448 248
43 462 266
23 479 300
0 500 353
20 526 437
39 576 577
0 651 773
0 740 997
0 832 1220
0 926 1444
0 1016 1631
0 1072 1767
0 1117 1852
0 1154 1917
0 1169 1977
0 1208 2002
0 1260 2075
0 650 336
0 665 354
35 689 394
0 716 451
0 741 537
14 790 684
0 867 892
0 960 1132
0 1054 1368
0 1147 1598
0 1234 1792
0 1293 1944
0 1335 2047
0 1371 2110
0 1397 2153
0 1425 2192
0 1457 2234
81 889 439
0 922 457
45 945 497
58 967 560
0 1005 653
0 1053 803
0 1128 1022
0 1230 1286
0 1325 1536
0 1417 1775
0 1505 1983
137 1566 2128
0 1608 2243
0 1641 2303
0 1657 2352
0 1674 2378
0 1698 2407
0 1135 522
50 1168 555
0 1194 591
0 1215 657
0 1254 759
58 1306 917
0 1388 1148
0 1491 1428
0 1592 1693
0 1688 1937
0 1774 2154
0 1835 2310
0 1880 2419
0 1909 2485
0 1916 2519
0 1925 2537
0 1947 2564
0 1343 593
0 1368 627
0 1396 667
126 1418 742
0 1452 842
0 1513 1011
0 1600 1256
0 1701 1539
0 1810 1814
0 1911 2066
0 1993 2283
0 2057 2449
0 2101 2558
0 2125 2619
0 2134 2655
124 2144 2674
134 2161 2696
0 1481 649
105 1503 685
39 1530 727
0 1559 797
0 1597 909
0 1655 1089
0 1740 1338
0 1846 1626
0 1956 1907
20 2060 2165
90 2149 2385
108 2212 2546
0 2251 2654
0 2271 2712
0 2281 2748
93 2293 2770
86 2310 2789
99 1573 686
0 1604 707
95 1621 769
0 1650 844
107 1689 974
54 1751 1163
69 1837 1419
0 1948 1709
0 2054 1989
0 2156 2246
0 2250 2467
0 2308 2620
0 2341 2715
144 2362 2773
0 2373 2808
0 2386 2835
145 2403 2848
0 1651 693
0 1668 732
66 1684 800
103 1707 895
117 1751 1030
0 1825 1237
0 1920 1507
0 2026 1796
0 2128 2069
0 2226 2317
88 2311 2524
96 2362 2668
0 2395 2765
0 2422 2824
0 2435 2853
144 2445 2870
147 2459 2887
0 1709 713
0 1720 753
0 1738 827
157 1765 947
0 1818 1098
0 1891 1332
0 1986 1609
0 2094 1893
0 2199 2158
0 2292 2394
146 2365 2587
0 2417 2726
0 2450 2813
0 2470 2864
0 2489 2901
0 2499 2919
0 2501 2927
31 1843 724
0 1862 782
0 1884 902
0 1921 1066
126 1974 1270
0 2048 1507
59 2136 1775
0 2239 2052
0 2338 2309
0 2421 2532
101 2481 2710
146 2533 2839
0 2563 2919
0 2575 2961
0 2594 2997
0 2604 3014
0 2600 3017
0 2059 708
100 2077 861
0 2106 1036
0 2154 1252
0 2218 1500
0 2292 1743
0 2372 1997
0 2460 2266
0 2545 2516
0 2614 2725
80 2665 2886
0 2708 3003
0 2735 3077
0 2745 3117
0 2757 3141
147 2764 3155
0 2767 3167
109 32 11
116 50 68
113 59 129
97 57 201
45 41 292
0 122 355
0 193 447
0 262 582
0 346 737
0 428 903
0 493 1059
0 540 1175
96 588 1224
83 613 1280
81 630 1319
17 658 1380
0 698 1465
98 79 61
116 84 85
113 92 139
99 96 209
35 90 303
0 141 369
0 208 464
0 284 604
0 367 792
0 453 960
79 532 1089
45 584 1210
0 626 1303
0 657 1373
0 680 1422
75 724 1463
0 769 1553
118 130 63
114 135 96
108 138 150
87 141 222
0 142 318
0 176 398
0 240 503
0 321 663
0 411 851
45 500 1012
0 570 1170
0 627 1298
71 682 1371
37 716 1442
0 739 1491
0 776 1563
0 837 1632
98 191 83
96 195 107
78 198 162
11 202 235
27 215 314
0 238 417
27 293 550
32 382 735
69 478 921
0 562 1100
0 635 1258
0 697 1391
0 743 1489
0 772 1551
0 808 1572
0 848 1647
0 901 1745
17 258 118
48 261 142
59 264 187
96 271 250
59 293 334
28 315 450
14 367 607
0 459 811
27 561 1015
0 646 1220
0 722 1378
0 788 1516
0 834 1610
0 862 1665
0 902 1696
0 945 1772
0 994 1857
70 341 177
72 347 197
76 355 231
60 370 287
102 392 374
20 431 508
0 494 695
0 583 914
0 680 1133
0 774 1338
0 853 1524
0 917 1651
0 964 1743
0 998 1807
0 1023 1852
0 1061 1915
0 1121 1969
45 482 238
42 492 259
0 511 297
45 530 357
41 553 447
44 603 596
0 676 802
0 759 1034
0 850 1267
0 948 1484
0 1038 1673
0 1096 1814
0 1137 1926
0 1173 1990
0 1192 2024
0 1225 2074
0 1284 2124
53 691 331
57 709 352
72 734 397
58 757 457
0 777 544
0 831 707
24 909 925
0 989 1166
68 1082 1409
0 1181 1648
0 1268 1862
0 1332 2007
0 1373 2109
0 1401 2163
0 1425 2203
0 1457 2248
0 1497 2299
64 948 434
0 979 451
0 1004 497
79 1025 566
0 1054 661
0 1109 828
33 1189 1062
0 1280 1328
0 1376 1589
0 1474 1833
0 1561 2051
105 1616 2194
0 1652 2305
0 1685 2365
0 1705 2421
0 1725 2450
0 1749 2459
33 1205 527
0 1238 545
106 1258 596
0 1286 659
0 1321 768
34 1374 940
0 1460 1189
0 1564 1482
0 1665 1752
0 1762 2003
0 1846 2224
0 1897 2380
0 1934 2484
0 1966 2556
130 1982 2588
0 1993 2619
0 2008 2639
0 1423 596
90 1442 629
64 1468 670
0 1498 739
0 1534 852
0 1591 1031
0 1679 1293
0 1788 1597
0 1896 1878
0 1992 2134
0 2074 2357
0 2133 2521
0 2172 2634
0 2194 2695
0 2205 2732
0 2218 2756
0 2239 2782
30 1564 651
0 1597 670
0 1625 716
151 1647 808
121 1685 928
0 1749 1115
0 1834 1381
0 1939 1680
0 2047 1968
0 2148 2233
74 2233 2457
156 2295 2621
0 2332 2729
0 2351 2793
74 2363 2825
0 2380 2858
0 2400 2882
0 1677 666
0 1705 709
0 1731 760
150 1748 858
76 1789 987
68 1853 1193
0 1942 1462
0 2044 1761
0 2149 2050
0 2252 2316
122 2340 2539
0 2400 2699
47 2432 2797
0 2452 2860
111 2467 2894
0 2484 2925
0 2502 2945
0 1764 694
0 1792 712
0 1802 789
30 1819 896
155 1859 1047
0 1930 1266
0 2022 1551
0 2132 1855
0 2236 2139
0 2331 2394
0 2413 2609
0 2469 2761
142 2501 2854
0 2520 2913
93 2535 2944
0 2552 2973
152 2566 2984
0 1845 686
0 1851 731
0 1866 816
0 1897 939
0 1941 1122
97 2013 1374
0 2109 1667
0 2219 1966
0 2324 2244
0 2412 2486
0 2480 2683
0 2535 2830
0 2569 2921
0 2584 2967
0 2598 3000
0 2609 3019
0 2617 3031
151 1991 677
0 2005 745
0 2025 886
193 2059 1075
156 2113 1291
98 2188 1554
97 2278 1842
0 2376 2132
0 2474 2403
0 2552 2633
0 2607 2813
78 2655 2946
0 2688 3031
0 2699 3073
0 2712 3103
0 2719 3119
0 2720 3126
0 2240 545
0 2247 771
0 2272 994
0 2314 1248
0 2371 1512
0 2440 1780
0 2520 2058
0 2601 2342
0 2683 2606
0 2750 2827
0 2796 2991
0 2836 3109
0 2860 3185
0 2869 3226
0 2881 3251
148 2888 3266
0 2887 3276
161 76 43
185 70 59
185 77 125
176 79 198
153 63 294
117 0 436
53 112 565
0 226 674
0 317 839
0 419 972
0 481 1135
60 549 1216
0 581 1306
0 602 1367
0 617 1414
0 642 1484
111 709 1507
173 99 59
191 101 75
191 109 137
184 112 210
163 105 307
125 80 451
53 99 619
0 231 742
0 354 865
0 442 1030
62 529 1164
0 581 1302
0 616 1403
0 639 1470
111 690 1462
51 725 1539
