tests/data/files/iridas_3d.cube
TITLE "A test 3D-LUT."
LUT_3D_SIZE 2
DOMAIN_MIN 0.0 1.0 0.0
DOMAIN_MAX 2.0 2.0 1.0

0.0 0.0 0.0
2.0 0.0 0.0
0.0 2.0 0.0
2.0 2.0 0.0
0.0 0.0 2.0
2.0 0.0 2.0
0.0 2.0 2.0
2.0 2.0 2.0
