tests/data/files/iridas_1d.cube
LUT_1D_SIZE 5
DOMAIN_MIN -2.0 1.0 0.0
DOMAIN_MAX 2.0 2.0 1.0

-1.0 -2.0 -3.0
 0.0  0.1  0.2
 0.4  0.5  0.6
 0.8  0.9  1.0
 1.0  2.1  3.2
