tests/data/files/lut1d_2.spi1d
Version 1
From 0.000000 1.000000
Length 8192
Components 1
{
		0.0
		0.0001220718113
		0.0002441436227
		0.0003662154195
		0.0004882872454
		0.0006103590131
		0.000732430839
		0.0008545026067
		0.0009765744908
		0.0010986462
		0.001220718026
		0.001342789852
		0.001464861678
		0.001586933504
		0.001709005213
		0.001831077039
		0.001953148982
		0.002075220691
		0.002197292401
		0.002319364343
		0.002441436052
		0.002563507995
		0.002685579704
		0.002807651414
		0.002929723356
		0.003051795065
		0.003173867008
		0.003295938717
		0.003418010427
		0.003540082369
		0.003662154078
		0.003784226021
		0.003906297963
		0.004028369673
		0.004150441382
		0.004272513092
		0.004394584801
		0.004516656976
		0.004638728686
		0.004760800395
		0.004882872105
		0.005004943814
		0.005127015989
		0.005249087699
		0.005371159408
		0.005493231118
		0.005615302827
		0.005737375002
		0.005859446712
		0.005981518421
		0.006103590131
		0.00622566184
		0.006347734015
		0.006469805725
		0.006591877434
		0.006713949144
		0.006836020853
		0.006958093029
		0.007080164738
		0.007202236447
		0.007324308157
		0.007446379866
		0.007568452042
		0.007690523751
		0.007812595926
		0.00793466717
		0.008056739345
		0.008178810589
		0.008300882764
		0.008422954939
		0.008545026183
		0.008667098358
		0.008789169602
		0.008911241777
		0.009033313952
		0.009155385196
		0.009277457371
		0.009399528615
		0.00952160079
		0.009643672965
		0.009765744209
		0.009887816384
		0.01000988763
		0.0101319598
		0.01025403198
		0.01037610322
		0.0104981754
		0.01062024664
		0.01074231882
		0.01086439099
		0.01098646224
		0.01110853441
		0.01123060565
		0.01135267783
		0.01147475
		0.01159682125
		0.01171889342
		0.01184096467
		0.01196303684
		0.01208510902
		0.01220718026
		0.01232925244
		0.01245132368
		0.01257339586
		0.01269546803
		0.01281753927
		0.01293961145
		0.01306168269
		0.01318375487
		0.01330582704
		0.01342789829
		0.01354997046
		0.01367204171
		0.01379411388
		0.01391618606
		0.0140382573
		0.01416032948
		0.01428240072
		0.01440447289
		0.01452654507
		0.01464861631
		0.01477068849
		0.01489275973
		0.01501483191
		0.01513690408
		0.01525897533
		0.0153810475
		0.01550311875
		0.01562519185
		0.01574726216
		0.01586933434
		0.01599140652
		0.01611347869
		0.01623555087
		0.01635762118
		0.01647969335
		0.01660176553
		0.0167238377
		0.01684590988
		0.01696798019
		0.01709005237
		0.01721212454
		0.01733419672
		0.01745626889
		0.0175783392
		0.01770041138
		0.01782248355
		0.01794455573
		0.0180666279
		0.01818869822
		0.01831077039
		0.01843284257
		0.01855491474
		0.01867698692
		0.01879905723
		0.01892112941
		0.01904320158
		0.01916527376
		0.01928734593
		0.01940941624
		0.01953148842
		0.01965356059
		0.01977563277
		0.01989770494
		0.02001977526
		0.02014184743
		0.02026391961
		0.02038599178
		0.02050806396
		0.02063013427
		0.02075220644
		0.02087427862
		0.0209963508
		0.02111842297
		0.02124049328
		0.02136256546
		0.02148463763
		0.02160670981
		0.02172878198
		0.0218508523
		0.02197292447
		0.02209499665
		0.02221706882
		0.022339141
		0.02246121131
		0.02258328348
		0.02270535566
		0.02282742783
		0.02294950001
		0.02307157032
		0.0231936425
		0.02331571467
		0.02343778685
		0.02355985902
		0.02368192933
		0.02380400151
		0.02392607369
		0.02404814586
		0.02417021804
		0.02429228835
		0.02441436052
		0.0245364327
		0.02465850487
		0.02478057705
		0.02490264736
		0.02502471954
		0.02514679171
		0.02526886389
		0.02539093606
		0.02551300637
		0.02563507855
		0.02575715072
		0.0258792229
		0.02600129507
		0.02612336539
		0.02624543756
		0.02636750974
		0.02648958191
		0.02661165409
		0.0267337244
		0.02685579658
		0.02697786875
		0.02709994093
		0.0272220131
		0.02734408341
		0.02746615559
		0.02758822776
		0.02771029994
		0.02783237211
		0.02795444243
		0.0280765146
		0.02819858678
		0.02832065895
		0.02844273113
		0.02856480144
		0.02868687361
		0.02880894579
		0.02893101797
		0.02905309014
		0.02917516045
		0.02929723263
		0.0294193048
		0.02954137698
		0.02966344915
		0.02978551947
		0.02990759164
		0.03002966382
		0.03015173599
		0.03027380817
		0.03039587848
		0.03051795065
		0.03064002283
		0.030762095
		0.03088416718
		0.03100623749
		0.03112830967
		0.0312503837
		0.03137245402
		0.03149452433
		0.03161659837
		0.03173866868
		0.03186074272
		0.03198281303
		0.03210488334
		0.03222695738
		0.03234902769
		0.03247110173
		0.03259317204
		0.03271524236
		0.03283731639
		0.03295938671
		0.03308146074
		0.03320353106
		0.03332560137
		0.03344767541
		0.03356974572
		0.03369181976
		0.03381389007
		0.03393596038
		0.03405803442
		0.03418010473
		0.03430217877
		0.03442424908
		0.0345463194
		0.03466839343
		0.03479046375
		0.03491253778
		0.0350346081
		0.03515667841
		0.03527875245
		0.03540082276
		0.0355228968
		0.03564496711
		0.03576703742
		0.03588911146
		0.03601118177
		0.03613325581
		0.03625532612
		0.03637739643
		0.03649947047
		0.03662154078
		0.03674361482
		0.03686568514
		0.03698775545
		0.03710982949
		0.0372318998
		0.03735397384
		0.03747604415
		0.03759811446
		0.0377201885
		0.03784225881
		0.03796433285
		0.03808640316
		0.03820847347
		0.03833054751
		0.03845261782
		0.03857469186
		0.03869676217
		0.03881883249
		0.03894090652
		0.03906297684
		0.03918505087
		0.03930712119
		0.0394291915
		0.03955126554
		0.03967333585
		0.03979540989
		0.0399174802
		0.04003955051
		0.04016162455
		0.04028369486
		0.0404057689
		0.04052783921
		0.04064990953
		0.04077198356
		0.04089405388
		0.04101612791
		0.04113819823
		0.04126026854
		0.04138234258
		0.04150441289
		0.04162648693
		0.04174855724
		0.04187062755
		0.04199270159
		0.0421147719
		0.04223684594
		0.04235891625
		0.04248098657
		0.0426030606
		0.04272513092
		0.04284720495
		0.04296927527
		0.04309134558
		0.04321341962
		0.04333548993
		0.04345756397
		0.04357963428
		0.04370170459
		0.04382377863
		0.04394584894
		0.04406792298
		0.04418999329
		0.0443120636
		0.04443413764
		0.04455620795
		0.04467828199
		0.04480035231
		0.04492242262
		0.04504449666
		0.04516656697
		0.04528864101
		0.04541071132
		0.04553278163
		0.04565485567
		0.04577692598
		0.04589900002
		0.04602107033
		0.04614314064
		0.04626521468
		0.04638728499
		0.04650935903
		0.04663142934
		0.04675349966
		0.04687557369
		0.04699764401
		0.04711971804
		0.04724178836
		0.04736385867
		0.04748593271
		0.04760800302
		0.04773007706
		0.04785214737
		0.04797421768
		0.04809629172
		0.04821836203
		0.04834043607
		0.04846250638
		0.0485845767
		0.04870665073
		0.04882872105
		0.04895079508
		0.0490728654
		0.04919493571
		0.04931700975
		0.04943908006
		0.0495611541
		0.04968322441
		0.04980529472
		0.04992736876
		0.05004943907
		0.05017151311
		0.05029358342
		0.05041565374
		0.05053772777
		0.05065979809
		0.05078187212
		0.05090394244
		0.05102601275
		0.05114808679
		0.0512701571
		0.05139223114
		0.05151430145
		0.05163637176
		0.0517584458
		0.05188051611
		0.05200259015
		0.05212466046
		0.05224673077
		0.05236880481
		0.05249087512
		0.05261294916
		0.05273501948
		0.05285708979
		0.05297916383
		0.05310123414
		0.05322330818
		0.05334537849
		0.0534674488
		0.05358952284
		0.05371159315
		0.05383366719
		0.0539557375
		0.05407780781
		0.05419988185
		0.05432195216
		0.0544440262
		0.05456609651
		0.05468816683
		0.05481024086
		0.05493231118
		0.05505438522
		0.05517645553
		0.05529852584
		0.05542059988
		0.05554267019
		0.05566474423
		0.05578681454
		0.05590888485
		0.05603095889
		0.0561530292
		0.05627510324
		0.05639717355
		0.05651924387
		0.0566413179
		0.05676338822
		0.05688546225
		0.05700753257
		0.05712960288
		0.05725167692
		0.05737374723
		0.05749582127
		0.05761789158
		0.05773996189
		0.05786203593
		0.05798410624
		0.05810618028
		0.05822825059
		0.05835032091
		0.05847239494
		0.05859446526
		0.05871653929
		0.05883860961
		0.05896067992
		0.05908275396
		0.05920482427
		0.05932689831
		0.05944896862
		0.05957103893
		0.05969311297
		0.05981518328
		0.05993725732
		0.06005932763
		0.06018139794
		0.06030347198
		0.06042554229
		0.06054761633
		0.06066968665
		0.06079175696
		0.060913831
		0.06103590131
		0.06115797535
		0.06128004566
		0.06140211597
		0.06152419001
		0.06164626032
		0.06176833436
		0.06189040467
		0.06201247498
		0.06213454902
		0.06225661933
		0.06237869337
		0.06250076741
		0.06262283772
		0.06274490803
		0.06286697835
		0.06298904866
		0.06311112642
		0.06323319674
		0.06335526705
		0.06347733736
		0.06359940767
		0.06372148544
		0.06384355575
		0.06396562606
		0.06408769637
		0.06420976669
		0.06433184445
		0.06445391476
		0.06457598507
		0.06469805539
		0.0648201257
		0.06494220346
		0.06506427377
		0.06518634409
		0.0653084144
		0.06543048471
		0.06555256248
		0.06567463279
		0.0657967031
		0.06591877341
		0.06604084373
		0.06616292149
		0.0662849918
		0.06640706211
		0.06652913243
		0.06665120274
		0.0667732805
		0.06689535081
		0.06701742113
		0.06713949144
		0.06726156175
		0.06738363951
		0.06750570983
		0.06762778014
		0.06774985045
		0.06787192076
		0.06799399853
		0.06811606884
		0.06823813915
		0.06836020947
		0.06848227978
		0.06860435754
		0.06872642785
		0.06884849817
		0.06897056848
		0.06909263879
		0.06921471655
		0.06933678687
		0.06945885718
		0.06958092749
		0.0697029978
		0.06982507557
		0.06994714588
		0.07006921619
		0.0701912865
		0.07031335682
		0.07043543458
		0.07055750489
		0.0706795752
		0.07080164552
		0.07092371583
		0.07104579359
		0.07116786391
		0.07128993422
		0.07141200453
		0.07153407484
		0.07165615261
		0.07177822292
		0.07190029323
		0.07202236354
		0.07214443386
		0.07226651162
		0.07238858193
		0.07251065224
		0.07263272256
		0.07275479287
		0.07287687063
		0.07299894094
		0.07312101126
		0.07324308157
		0.07336515188
		0.07348722965
		0.07360929996
		0.07373137027
		0.07385344058
		0.0739755109
		0.07409758866
		0.07421965897
		0.07434172928
		0.0744637996
		0.07458586991
		0.07470794767
		0.07483001798
		0.0749520883
		0.07507415861
		0.07519622892
		0.07531830668
		0.075440377
		0.07556244731
		0.07568451762
		0.07580658793
		0.0759286657
		0.07605073601
		0.07617280632
		0.07629487664
		0.07641694695
		0.07653902471
		0.07666109502
		0.07678316534
		0.07690523565
		0.07702730596
		0.07714938372
		0.07727145404
		0.07739352435
		0.07751559466
		0.07763766497
		0.07775974274
		0.07788181305
		0.07800388336
		0.07812595367
		0.07824802399
		0.07837010175
		0.07849217206
		0.07861424237
		0.07873631269
		0.078858383
		0.07898046076
		0.07910253108
		0.07922460139
		0.0793466717
		0.07946874201
		0.07959081978
		0.07971289009
		0.0798349604
		0.07995703071
		0.08007910103
		0.08020117879
		0.0803232491
		0.08044531941
		0.08056738973
		0.08068946004
		0.0808115378
		0.08093360811
		0.08105567843
		0.08117774874
		0.08129981905
		0.08142189682
		0.08154396713
		0.08166603744
		0.08178810775
		0.08191017807
		0.08203225583
		0.08215432614
		0.08227639645
		0.08239846677
		0.08252053708
		0.08264261484
		0.08276468515
		0.08288675547
		0.08300882578
		0.08313089609
		0.08325297385
		0.08337504417
		0.08349711448
		0.08361918479
		0.0837412551
		0.08386333287
		0.08398540318
		0.08410747349
		0.08422954381
		0.08435161412
		0.08447369188
		0.08459576219
		0.08471783251
		0.08483990282
		0.08496197313
		0.08508405089
		0.08520612121
		0.08532819152
		0.08545026183
		0.08557233214
		0.08569440991
		0.08581648022
		0.08593855053
		0.08606062084
		0.08618269116
		0.08630476892
		0.08642683923
		0.08654890954
		0.08667097986
		0.08679305017
		0.08691512793
		0.08703719825
		0.08715926856
		0.08728133887
		0.08740340918
		0.08752548695
		0.08764755726
		0.08776962757
		0.08789169788
		0.0880137682
		0.08813584596
		0.08825791627
		0.08837998658
		0.0885020569
		0.08862412721
		0.08874620497
		0.08886827528
		0.0889903456
		0.08911241591
		0.08923448622
		0.08935656399
		0.0894786343
		0.08960070461
		0.08972277492
		0.08984484524
		0.089966923
		0.09008899331
		0.09021106362
		0.09033313394
		0.09045520425
		0.09057728201
		0.09069935232
		0.09082142264
		0.09094349295
		0.09106556326
		0.09118764102
		0.09130971134
		0.09143178165
		0.09155385196
		0.09167592227
		0.09179800004
		0.09192007035
		0.09204214066
		0.09216421098
		0.09228628129
		0.09240835905
		0.09253042936
		0.09265249968
		0.09277456999
		0.0928966403
		0.09301871806
		0.09314078838
		0.09326285869
		0.093384929
		0.09350699931
		0.09362907708
		0.09375114739
		0.0938732177
		0.09399528801
		0.09411735833
		0.09423943609
		0.0943615064
		0.09448357671
		0.09460564703
		0.09472771734
		0.0948497951
		0.09497186542
		0.09509393573
		0.09521600604
		0.09533807635
		0.09546015412
		0.09558222443
		0.09570429474
		0.09582636505
		0.09594843537
		0.09607051313
		0.09619258344
		0.09631465375
		0.09643672407
		0.09655879438
		0.09668087214
		0.09680294245
		0.09692501277
		0.09704708308
		0.09716915339
		0.09729123116
		0.09741330147
		0.09753537178
		0.09765744209
		0.09777951241
		0.09790159017
		0.09802366048
		0.09814573079
		0.09826780111
		0.09838987142
		0.09851194918
		0.09863401949
		0.09875608981
		0.09887816012
		0.09900023043
		0.09912230819
		0.09924437851
		0.09936644882
		0.09948851913
		0.09961058944
		0.09973266721
		0.09985473752
		0.09997680783
		0.1000988781
		0.1002209485
		0.1003430262
		0.1004650965
		0.1005871668
		0.1007092372
		0.1008313075
		0.1009533852
		0.1010754555
		0.1011975259
		0.1013195962
		0.1014416665
		0.1015637442
		0.1016858146
		0.1018078849
		0.1019299552
		0.1020520255
		0.1021741033
		0.1022961736
		0.1024182439
		0.1025403142
		0.1026623845
		0.1027844623
		0.1029065326
		0.1030286029
		0.1031506732
		0.1032727435
		0.1033948213
		0.1035168916
		0.1036389619
		0.1037610322
		0.1038831025
		0.1040051803
		0.1041272506
		0.1042493209
		0.1043713912
		0.1044934615
		0.1046155393
		0.1047376096
		0.1048596799
		0.1049817502
		0.1051038206
		0.1052258983
		0.1053479686
		0.105470039
		0.1055921093
		0.1057141796
		0.1058362573
		0.1059583277
		0.106080398
		0.1062024683
		0.1063245386
		0.1064466164
		0.1065686867
		0.106690757
		0.1068128273
		0.1069348976
		0.1070569754
		0.1071790457
		0.107301116
		0.1074231863
		0.1075452566
		0.1076673344
		0.1077894047
		0.107911475
		0.1080335453
		0.1081556156
		0.1082776934
		0.1083997637
		0.108521834
		0.1086439043
		0.1087659746
		0.1088880524
		0.1090101227
		0.109132193
		0.1092542633
		0.1093763337
		0.1094984114
		0.1096204817
		0.109742552
		0.1098646224
		0.1099866927
		0.1101087704
		0.1102308407
		0.1103529111
		0.1104749814
		0.1105970517
		0.1107191294
		0.1108411998
		0.1109632701
		0.1110853404
		0.1112074107
		0.1113294885
		0.1114515588
		0.1115736291
		0.1116956994
		0.1118177697
		0.1119398475
		0.1120619178
		0.1121839881
		0.1123060584
		0.1124281287
		0.1125502065
		0.1126722768
		0.1127943471
		0.1129164174
		0.1130384877
		0.1131605655
		0.1132826358
		0.1134047061
		0.1135267764
		0.1136488467
		0.1137709245
		0.1138929948
		0.1140150651
		0.1141371354
		0.1142592058
		0.1143812835
		0.1145033538
		0.1146254241
		0.1147474945
		0.1148695648
		0.1149916425
		0.1151137128
		0.1152357832
		0.1153578535
		0.1154799238
		0.1156020015
		0.1157240719
		0.1158461422
		0.1159682125
		0.1160902828
		0.1162123606
		0.1163344309
		0.1164565012
		0.1165785715
		0.1167006418
		0.1168227196
		0.1169447899
		0.1170668602
		0.1171889305
		0.1173110008
		0.1174330786
		0.1175551489
		0.1176772192
		0.1177992895
		0.1179213598
		0.1180434376
		0.1181655079
		0.1182875782
		0.1184096485
		0.1185317189
		0.1186537966
		0.1187758669
		0.1188979372
		0.1190200076
		0.1191420779
		0.1192641556
		0.1193862259
		0.1195082963
		0.1196303666
		0.1197524369
		0.1198745146
		0.119996585
		0.1201186553
		0.1202407256
		0.1203627959
		0.1204848737
		0.120606944
		0.1207290143
		0.1208510846
		0.1209731549
		0.1210952327
		0.121217303
		0.1213393733
		0.1214614436
		0.1215835139
		0.1217055917
		0.121827662
		0.1219497323
		0.1220718026
		0.1221938729
		0.1223159507
		0.122438021
		0.1225600913
		0.1226821616
		0.1228042319
		0.1229263097
		0.12304838
		0.1231704503
		0.1232925206
		0.123414591
		0.1235366687
		0.123658739
		0.1237808093
		0.1239028797
		0.12402495
		0.1241470277
		0.124269098
		0.1243911684
		0.1245132387
		0.124635309
		0.1247573867
		0.1248794571
		0.1250015348
		0.1251236051
		0.1252456754
		0.1253677458
		0.1254898161
		0.1256118864
		0.1257339567
		0.125856027
		0.1259780973
		0.1261001676
		0.1262222528
		0.1263443232
		0.1264663935
		0.1265884638
		0.1267105341
		0.1268326044
		0.1269546747
		0.127076745
		0.1271988153
		0.1273208857
		0.1274429709
		0.1275650412
		0.1276871115
		0.1278091818
		0.1279312521
		0.1280533224
		0.1281753927
		0.1282974631
		0.1284195334
		0.1285416037
		0.1286636889
		0.1287857592
		0.1289078295
		0.1290298998
		0.1291519701
		0.1292740405
		0.1293961108
		0.1295181811
		0.1296402514
		0.1297623217
		0.1298844069
		0.1300064772
		0.1301285475
		0.1302506179
		0.1303726882
		0.1304947585
		0.1306168288
		0.1307388991
		0.1308609694
		0.1309830397
		0.131105125
		0.1312271953
		0.1313492656
		0.1314713359
		0.1315934062
		0.1317154765
		0.1318375468
		0.1319596171
		0.1320816875
		0.1322037578
		0.132325843
		0.1324479133
		0.1325699836
		0.1326920539
		0.1328141242
		0.1329361945
		0.1330582649
		0.1331803352
		0.1333024055
		0.1334244758
		0.133546561
		0.1336686313
		0.1337907016
		0.1339127719
		0.1340348423
		0.1341569126
		0.1342789829
		0.1344010532
		0.1345231235
		0.1346451938
		0.134767279
		0.1348893493
		0.1350114197
		0.13513349
		0.1352555603
		0.1353776306
		0.1354997009
		0.1356217712
		0.1357438415
		0.1358659118
		0.1359879971
		0.1361100674
		0.1362321377
		0.136354208
		0.1364762783
		0.1365983486
		0.1367204189
		0.1368424892
		0.1369645596
		0.1370866299
		0.1372087151
		0.1373307854
		0.1374528557
		0.137574926
		0.1376969963
		0.1378190666
		0.137941137
		0.1380632073
		0.1381852776
		0.1383073479
		0.1384294331
		0.1385515034
		0.1386735737
		0.138795644
		0.1389177144
		0.1390397847
		0.139161855
		0.1392839253
		0.1394059956
		0.1395280659
		0.1396501511
		0.1397722214
		0.1398942918
		0.1400163621
		0.1401384324
		0.1402605027
		0.140382573
		0.1405046433
		0.1406267136
		0.1407487839
		0.1408708692
		0.1409929395
		0.1411150098
		0.1412370801
		0.1413591504
		0.1414812207
		0.141603291
		0.1417253613
		0.1418474317
		0.141969502
		0.1420915872
		0.1422136575
		0.1423357278
		0.1424577981
		0.1425798684
		0.1427019387
		0.1428240091
		0.1429460794
		0.1430681497
		0.14319022
		0.1433123052
		0.1434343755
		0.1435564458
		0.1436785161
		0.1438005865
		0.1439226568
		0.1440447271
		0.1441667974
		0.1442888677
		0.144410938
		0.1445330232
		0.1446550936
		0.1447771639
		0.1448992342
		0.1450213045
		0.1451433748
		0.1452654451
		0.1453875154
		0.1455095857
		0.1456316561
		0.1457537413
		0.1458758116
		0.1459978819
		0.1461199522
		0.1462420225
		0.1463640928
		0.1464861631
		0.1466082335
		0.1467303038
		0.1468523741
		0.1469744593
		0.1470965296
		0.1472185999
		0.1473406702
		0.1474627405
		0.1475848109
		0.1477068812
		0.1478289515
		0.1479510218
		0.1480730921
		0.1481951773
		0.1483172476
		0.1484393179
		0.1485613883
		0.1486834586
		0.1488055289
		0.1489275992
		0.1490496695
		0.1491717398
		0.1492938101
		0.1494158953
		0.1495379657
		0.149660036
		0.1497821063
		0.1499041766
		0.1500262469
		0.1501483172
		0.1502703875
		0.1503924578
		0.1505145282
		0.1506366134
		0.1507586837
		0.150880754
		0.1510028243
		0.1511248946
		0.1512469649
		0.1513690352
		0.1514911056
		0.1516131759
		0.1517352462
		0.1518573314
		0.1519794017
		0.152101472
		0.1522235423
		0.1523456126
		0.152467683
		0.1525897533
		0.1527118236
		0.1528338939
		0.1529559642
		0.1530780494
		0.1532001197
		0.15332219
		0.1534442604
		0.1535663307
		0.153688401
		0.1538104713
		0.1539325416
		0.1540546119
		0.1541766822
		0.1542987674
		0.1544208378
		0.1545429081
		0.1546649784
		0.1547870487
		0.154909119
		0.1550311893
		0.1551532596
		0.1552753299
		0.1553974003
		0.1555194855
		0.1556415558
		0.1557636261
		0.1558856964
		0.1560077667
		0.156129837
		0.1562519073
		0.1563739777
		0.156496048
		0.1566181183
		0.1567402035
		0.1568622738
		0.1569843441
		0.1571064144
		0.1572284847
		0.1573505551
		0.1574726254
		0.1575946957
		0.157716766
		0.1578388363
		0.1579609215
		0.1580829918
		0.1582050622
		0.1583271325
		0.1584492028
		0.1585712731
		0.1586933434
		0.1588154137
		0.158937484
		0.1590595543
		0.1591816396
		0.1593037099
		0.1594257802
		0.1595478505
		0.1596699208
		0.1597919911
		0.1599140614
		0.1600361317
		0.1601582021
		0.1602802724
		0.1604023576
		0.1605244279
		0.1606464982
		0.1607685685
		0.1608906388
		0.1610127091
		0.1611347795
		0.1612568498
		0.1613789201
		0.1615009904
		0.1616230756
		0.1617451459
		0.1618672162
		0.1619892865
		0.1621113569
		0.1622334272
		0.1623554975
		0.1624775678
		0.1625996381
		0.1627217084
		0.1628437936
		0.1629658639
		0.1630879343
		0.1632100046
		0.1633320749
		0.1634541452
		0.1635762155
		0.1636982858
		0.1638203561
		0.1639424264
		0.1640645117
		0.164186582
		0.1643086523
		0.1644307226
		0.1645527929
		0.1646748632
		0.1647969335
		0.1649190038
		0.1650410742
		0.1651631445
		0.1652852297
		0.1654073
		0.1655293703
		0.1656514406
		0.1657735109
		0.1658955812
		0.1660176516
		0.1661397219
		0.1662617922
		0.1663838625
		0.1665059477
		0.166628018
		0.1667500883
		0.1668721586
		0.166994229
		0.1671162993
		0.1672383696
		0.1673604399
		0.1674825102
		0.1676045805
		0.1677266657
		0.167848736
		0.1679708064
		0.1680928767
		0.168214947
		0.1683370173
		0.1684590876
		0.1685811579
		0.1687032282
		0.1688252985
		0.1689473838
		0.1690694541
		0.1691915244
		0.1693135947
		0.169435665
		0.1695577353
		0.1696798056
		0.1698018759
		0.1699239463
		0.1700460166
		0.1701681018
		0.1702901721
		0.1704122424
		0.1705343127
		0.170656383
		0.1707784534
		0.1709005237
		0.171022594
		0.1711446643
		0.1712667346
		0.1713888198
		0.1715108901
		0.1716329604
		0.1717550308
		0.1718771011
		0.1719991714
		0.1721212417
		0.172243312
		0.1723653823
		0.1724874526
		0.1726095378
		0.1727316082
		0.1728536785
		0.1729757488
		0.1730978191
		0.1732198894
		0.1733419597
		0.17346403
		0.1735861003
		0.1737081707
		0.1738302559
		0.1739523262
		0.1740743965
		0.1741964668
		0.1743185371
		0.1744406074
		0.1745626777
		0.1746847481
		0.1748068184
		0.1749288887
		0.1750509739
		0.1751730442
		0.1752951145
		0.1754171848
		0.1755392551
		0.1756613255
		0.1757833958
		0.1759054661
		0.1760275364
		0.1761496067
		0.1762716919
		0.1763937622
		0.1765158325
		0.1766379029
		0.1767599732
		0.1768820435
		0.1770041138
		0.1771261841
		0.1772482544
		0.1773703247
		0.1774924099
		0.1776144803
		0.1777365506
		0.1778586209
		0.1779806912
		0.1781027615
		0.1782248318
		0.1783469021
		0.1784689724
		0.1785910428
		0.178713128
		0.1788351983
		0.1789572686
		0.1790793389
		0.1792014092
		0.1793234795
		0.1794455498
		0.1795676202
		0.1796896905
		0.1798117608
		0.179933846
		0.1800559163
		0.1801779866
		0.1803000569
		0.1804221272
		0.1805441976
		0.1806662679
		0.1807883382
		0.1809104085
		0.1810324788
		0.181154564
		0.1812766343
		0.1813987046
		0.181520775
		0.1816428453
		0.1817649156
		0.1818869859
		0.1820090562
		0.1821311265
		0.1822531968
		0.182375282
		0.1824973524
		0.1826194227
		0.182741493
		0.1828635633
		0.1829856336
		0.1831077039
		0.1832297742
		0.1833518445
		0.1834739149
		0.1835960001
		0.1837180704
		0.1838401407
		0.183962211
		0.1840842813
		0.1842063516
		0.184328422
		0.1844504923
		0.1845725626
		0.1846946329
		0.1848167181
		0.1849387884
		0.1850608587
		0.185182929
		0.1853049994
		0.1854270697
		0.18554914
		0.1856712103
		0.1857932806
		0.1859153509
		0.1860374361
		0.1861595064
		0.1862815768
		0.1864036471
		0.1865257174
		0.1866477877
		0.186769858
		0.1868919283
		0.1870139986
		0.1871360689
		0.1872581542
		0.1873802245
		0.1875022948
		0.1876243651
		0.1877464354
		0.1878685057
		0.187990576
		0.1881126463
		0.1882347167
		0.188356787
		0.1884788722
		0.1886009425
		0.1887230128
