tests/data/files/lut1d_3.spi1d
Version 1
From 0.0 1.0
Length 131072
Components 1
{
		0
		7.629452739e-06
		1.525890548e-05
		2.288835822e-05
		3.051781096e-05
		3.814726369e-05
		4.577671643e-05
		5.340616917e-05
		6.103562191e-05
		6.866507465e-05
		7.629452739e-05
		8.392398013e-05
		9.155343287e-05
		9.918288561e-05
		0.0001068123383
		0.0001144417911
		0.0001220712438
		0.0001297006966
		0.0001373301493
		0.000144959602
		0.0001525890548
		0.0001602185075
		0.0001678479603
		0.000175477413
		0.0001831068657
		0.0001907363185
		0.0001983657712
		0.000205995224
		0.0002136246767
		0.0002212541294
		0.0002288835822
		0.0002365130349
		0.0002441424876
		0.0002517719404
		0.0002594013931
		0.0002670308459
		0.0002746602986
		0.0002822897513
		0.0002899192041
		0.0002975486568
		0.0003051781096
		0.0003128075623
		0.000320437015
		0.0003280664678
		0.0003356959205
		0.0003433253733
		0.000350954826
		0.0003585842787
		0.0003662137315
		0.0003738431842
		0.0003814726369
		0.0003891020897
		0.0003967315424
		0.0004043609952
		0.0004119904479
		0.0004196199006
		0.0004272493534
		0.0004348788061
		0.0004425082589
		0.0004501377116
		0.0004577671643
		0.0004653966171
		0.0004730260698
		0.0004806555226
		0.0004882849753
		0.000495914428
		0.0005035438808
		0.0005111733335
		0.0005188027862
		0.000526432239
		0.0005340616917
		0.0005416911445
		0.0005493205972
		0.0005569500499
		0.0005645795027
		0.0005722089554
		0.0005798384082
		0.0005874678609
		0.0005950973136
		0.0006027267664
		0.0006103562191
		0.0006179856719
		0.0006256151246
		0.0006332445773
		0.0006408740301
		0.0006485034828
		0.0006561329355
		0.0006637623883
		0.000671391841
		0.0006790212938
		0.0006866507465
		0.0006942801992
		0.000701909652
		0.0007095391047
		0.0007171685575
		0.0007247980102
		0.0007324274629
		0.0007400569157
		0.0007476863684
		0.0007553158212
		0.0007629452739
		0.0007705747266
		0.0007782041794
		0.0007858336321
		0.0007934630848
		0.0008010925376
		0.0008087219903
		0.0008163514431
		0.0008239808958
		0.0008316103485
		0.0008392398013
		0.000846869254
		0.0008544987068
		0.0008621281595
		0.0008697576122
		0.000877387065
		0.0008850165177
		0.0008926459705
		0.0009002754232
		0.0009079048759
		0.0009155343287
		0.0009231637814
		0.0009307932341
		0.0009384226869
		0.0009460521396
		0.0009536815924
		0.0009613110451
		0.0009689404978
		0.0009765699506
		0.0009841994615
		0.0009918288561
		0.000999458367
		0.001007087762
		0.001014717272
		0.001022346667
		0.001029976178
		0.001037605572
		0.001045235083
		0.001052864478
		0.001060493989
		0.001068123383
		0.001075752894
		0.001083382289
		0.0010910118
		0.001098641194
		0.001106270705
		0.0011139001
		0.001121529611
		0.001129159005
		0.001136788516
		0.001144417911
		0.001152047422
		0.001159676816
		0.001167306327
		0.001174935722
		0.001182565233
		0.001190194627
		0.001197824138
		0.001205453533
		0.001213083044
		0.001220712438
		0.001228341949
		0.001235971344
		0.001243600855
		0.001251230249
		0.00125885976
		0.001266489155
		0.001274118666
		0.00128174806
		0.001289377571
		0.001297006966
		0.001304636477
		0.001312265871
		0.001319895382
		0.001327524777
		0.001335154288
		0.001342783682
		0.001350413193
		0.001358042588
		0.001365672098
		0.001373301493
		0.001380931004
		0.001388560398
		0.001396189909
		0.001403819304
		0.001411448815
		0.001419078209
		0.00142670772
		0.001434337115
		0.001441966626
		0.00144959602
		0.001457225531
		0.001464854926
		0.001472484437
		0.001480113831
		0.001487743342
		0.001495372737
		0.001503002248
		0.001510631642
		0.001518261153
		0.001525890548
		0.001533520059
		0.001541149453
		0.001548778964
		0.001556408359
		0.00156403787
		0.001571667264
		0.001579296775
		0.00158692617
		0.001594555681
		0.001602185075
		0.001609814586
		0.001617443981
		0.001625073492
		0.001632702886
		0.001640332397
		0.001647961792
		0.001655591303
		0.001663220697
		0.001670850208
		0.001678479603
		0.001686109114
		0.001693738508
		0.001701368019
		0.001708997414
		0.001716626924
		0.001724256319
		0.00173188583
		0.001739515224
		0.001747144735
		0.00175477413
		0.001762403641
		0.001770033035
		0.001777662546
		0.001785291941
		0.001792921452
		0.001800550846
		0.001808180357
		0.001815809752
		0.001823439263
		0.001831068657
		0.001838698168
		0.001846327563
		0.001853957074
		0.001861586468
		0.001869215979
		0.001876845374
		0.001884474885
		0.001892104279
		0.00189973379
		0.001907363185
		0.001914992696
		0.00192262209
		0.001930251601
		0.001937880996
		0.001945510507
		0.001953139901
		0.001960769296
		0.001968398923
		0.001976028318
		0.001983657712
		0.001991287107
		0.001998916734
		0.002006546129
		0.002014175523
		0.002021804918
		0.002029434545
		0.002037063939
		0.002044693334
		0.002052322729
		0.002059952356
		0.00206758175
		0.002075211145
		0.00208284054
		0.002090470167
		0.002098099561
		0.002105728956
		0.00211335835
		0.002120987978
		0.002128617372
		0.002136246767
		0.002143876161
		0.002151505789
		0.002159135183
		0.002166764578
		0.002174393972
		0.0021820236
		0.002189652994
		0.002197282389
		0.002204911783
		0.002212541411
		0.002220170805
		0.0022278002
		0.002235429594
		0.002243059222
		0.002250688616
		0.002258318011
		0.002265947405
		0.002273577033
		0.002281206427
		0.002288835822
		0.002296465216
		0.002304094844
		0.002311724238
		0.002319353633
		0.002326983027
		0.002334612655
		0.002342242049
		0.002349871444
		0.002357500838
		0.002365130465
		0.00237275986
		0.002380389255
		0.002388018649
		0.002395648276
		0.002403277671
		0.002410907065
		0.00241853646
		0.002426166087
		0.002433795482
		0.002441424876
		0.002449054271
		0.002456683898
		0.002464313293
		0.002471942687
		0.002479572082
		0.002487201709
		0.002494831104
		0.002502460498
		0.002510089893
		0.00251771952
		0.002525348915
		0.002532978309
		0.002540607704
		0.002548237331
		0.002555866726
		0.00256349612
		0.002571125515
		0.002578755142
		0.002586384537
		0.002594013931
		0.002601643326
		0.002609272953
		0.002616902348
		0.002624531742
		0.002632161137
		0.002639790764
		0.002647420159
		0.002655049553
		0.002662678948
		0.002670308575
		0.00267793797
		0.002685567364
		0.002693196759
		0.002700826386
		0.002708455781
		0.002716085175
		0.00272371457
		0.002731344197
		0.002738973591
		0.002746602986
		0.002754232381
		0.002761862008
		0.002769491402
		0.002777120797
		0.002784750191
		0.002792379819
		0.002800009213
		0.002807638608
		0.002815268002
		0.00282289763
		0.002830527024
		0.002838156419
		0.002845785813
		0.002853415441
		0.002861044835
		0.00286867423
		0.002876303624
		0.002883933252
		0.002891562646
		0.002899192041
		0.002906821435
		0.002914451063
		0.002922080457
		0.002929709852
		0.002937339246
		0.002944968874
		0.002952598268
		0.002960227663
		0.002967857057
		0.002975486685
		0.002983116079
		0.002990745474
		0.002998374868
		0.003006004496
		0.00301363389
		0.003021263285
		0.003028892679
		0.003036522307
		0.003044151701
		0.003051781096
		0.00305941049
		0.003067040117
		0.003074669512
		0.003082298907
		0.003089928301
		0.003097557928
		0.003105187323
		0.003112816717
		0.003120446112
		0.003128075739
		0.003135705134
		0.003143334528
		0.003150963923
		0.00315859355
		0.003166222945
		0.003173852339
		0.003181481734
		0.003189111361
		0.003196740756
		0.00320437015
		0.003211999545
		0.003219629172
		0.003227258567
		0.003234887961
		0.003242517356
		0.003250146983
		0.003257776378
		0.003265405772
		0.003273035167
		0.003280664794
		0.003288294189
		0.003295923583
		0.003303552978
		0.003311182605
		0.003318812
		0.003326441394
		0.003334070789
		0.003341700416
		0.003349329811
		0.003356959205
		0.0033645886
		0.003372218227
		0.003379847622
		0.003387477016
		0.003395106411
		0.003402736038
		0.003410365433
		0.003417994827
		0.003425624222
		0.003433253849
		0.003440883243
		0.003448512638
		0.003456142033
		0.00346377166
		0.003471401054
		0.003479030449
		0.003486659843
		0.003494289471
		0.003501918865
		0.00350954826
		0.003517177654
		0.003524807282
		0.003532436676
		0.003540066071
		0.003547695465
		0.003555325093
		0.003562954487
		0.003570583882
		0.003578213276
		0.003585842904
		0.003593472298
		0.003601101693
		0.003608731087
		0.003616360715
		0.003623990109
		0.003631619504
		0.003639248898
		0.003646878526
		0.00365450792
		0.003662137315
		0.003669766709
		0.003677396337
		0.003685025731
		0.003692655126
		0.00370028452
		0.003707914148
		0.003715543542
		0.003723172937
		0.003730802331
		0.003738431958
		0.003746061353
		0.003753690748
		0.003761320142
		0.003768949769
		0.003776579164
		0.003784208558
		0.003791837953
		0.00379946758
		0.003807096975
		0.003814726369
		0.003822355764
		0.003829985391
		0.003837614786
		0.00384524418
		0.003852873575
		0.003860503202
		0.003868132597
		0.003875761991
		0.003883391386
		0.003891021013
		0.003898650408
		0.003906279802
		0.003913909197
		0.003921538591
		0.003929167986
		0.003936797846
		0.003944427241
		0.003952056635
		0.00395968603
		0.003967315424
		0.003974944819
		0.003982574213
		0.003990203608
		0.003997833468
		0.004005462863
		0.004013092257
		0.004020721652
		0.004028351046
		0.004035980441
		0.004043609835
		0.00405123923
		0.00405886909
		0.004066498484
		0.004074127879
		0.004081757274
		0.004089386668
		0.004097016063
		0.004104645457
		0.004112274852
		0.004119904712
		0.004127534106
		0.004135163501
		0.004142792895
		0.00415042229
		0.004158051684
		0.004165681079
		0.004173310474
		0.004180940334
		0.004188569728
		0.004196199123
		0.004203828517
		0.004211457912
		0.004219087306
		0.004226716701
		0.004234346095
		0.004241975956
		0.00424960535
		0.004257234745
		0.004264864139
		0.004272493534
		0.004280122928
		0.004287752323
		0.004295381717
		0.004303011578
		0.004310640972
		0.004318270367
		0.004325899761
		0.004333529156
		0.00434115855
		0.004348787945
		0.004356417339
		0.004364047199
		0.004371676594
		0.004379305989
		0.004386935383
		0.004394564778
		0.004402194172
		0.004409823567
		0.004417452961
		0.004425082821
		0.004432712216
		0.00444034161
		0.004447971005
		0.0044556004
		0.004463229794
		0.004470859189
		0.004478488583
		0.004486118443
		0.004493747838
		0.004501377232
		0.004509006627
		0.004516636021
		0.004524265416
		0.00453189481
		0.004539524205
		0.004547154065
		0.00455478346
		0.004562412854
		0.004570042249
		0.004577671643
		0.004585301038
		0.004592930432
		0.004600559827
		0.004608189687
		0.004615819082
		0.004623448476
		0.004631077871
		0.004638707265
		0.00464633666
		0.004653966054
		0.004661595449
		0.004669225309
		0.004676854704
		0.004684484098
		0.004692113493
		0.004699742887
		0.004707372282
		0.004715001676
		0.004722631071
		0.004730260931
		0.004737890325
		0.00474551972
		0.004753149115
		0.004760778509
		0.004768407904
		0.004776037298
		0.004783666693
		0.004791296553
		0.004798925947
		0.004806555342
		0.004814184736
		0.004821814131
		0.004829443526
		0.00483707292
		0.004844702315
		0.004852332175
		0.004859961569
		0.004867590964
		0.004875220358
		0.004882849753
		0.004890479147
		0.004898108542
		0.004905737936
		0.004913367797
		0.004920997191
		0.004928626586
		0.00493625598
		0.004943885375
		0.004951514769
		0.004959144164
		0.004966773558
		0.004974403419
		0.004982032813
		0.004989662208
		0.004997291602
		0.005004920997
		0.005012550391
		0.005020179786
		0.00502780918
		0.005035439041
		0.005043068435
		0.00505069783
		0.005058327224
		0.005065956619
		0.005073586013
		0.005081215408
		0.005088844802
		0.005096474662
		0.005104104057
		0.005111733451
		0.005119362846
		0.005126992241
		0.005134621635
		0.00514225103
		0.005149880424
		0.005157510284
		0.005165139679
		0.005172769073
		0.005180398468
		0.005188027862
		0.005195657257
		0.005203286652
		0.005210916046
		0.005218545906
		0.005226175301
		0.005233804695
		0.00524143409
		0.005249063484
		0.005256692879
		0.005264322273
		0.005271951668
		0.005279581528
		0.005287210923
		0.005294840317
		0.005302469712
		0.005310099106
		0.005317728501
		0.005325357895
		0.00533298729
		0.00534061715
		0.005348246545
		0.005355875939
		0.005363505334
		0.005371134728
		0.005378764123
		0.005386393517
		0.005394022912
		0.005401652772
		0.005409282167
		0.005416911561
		0.005424540956
		0.00543217035
		0.005439799745
		0.005447429139
		0.005455058534
		0.005462688394
		0.005470317788
		0.005477947183
		0.005485576577
		0.005493205972
		0.005500835367
		0.005508464761
		0.005516094156
		0.005523724016
		0.00553135341
		0.005538982805
		0.005546612199
		0.005554241594
		0.005561870988
		0.005569500383
		0.005577129778
		0.005584759638
		0.005592389032
		0.005600018427
		0.005607647821
		0.005615277216
		0.00562290661
		0.005630536005
		0.005638165399
		0.00564579526
		0.005653424654
		0.005661054049
		0.005668683443
		0.005676312838
		0.005683942232
		0.005691571627
		0.005699201021
		0.005706830882
		0.005714460276
		0.005722089671
		0.005729719065
		0.00573734846
		0.005744977854
		0.005752607249
		0.005760236643
		0.005767866503
		0.005775495898
		0.005783125293
		0.005790754687
		0.005798384082
		0.005806013476
		0.005813642871
		0.005821272265
		0.005828902125
		0.00583653152
		0.005844160914
		0.005851790309
		0.005859419703
		0.005867049098
		0.005874678493
		0.005882307887
		0.005889937747
		0.005897567142
		0.005905196536
		0.005912825931
		0.005920455325
		0.00592808472
		0.005935714114
		0.005943343509
		0.005950973369
		0.005958602764
		0.005966232158
		0.005973861553
		0.005981490947
		0.005989120342
		0.005996749736
		0.006004379131
		0.006012008991
		0.006019638386
		0.00602726778
		0.006034897175
		0.006042526569
		0.006050155964
		0.006057785358
		0.006065414753
		0.006073044613
		0.006080674008
		0.006088303402
		0.006095932797
		0.006103562191
		0.006111191586
		0.00611882098
		0.006126450375
		0.006134080235
		0.006141709629
		0.006149339024
		0.006156968419
		0.006164597813
		0.006172227208
		0.006179856602
		0.006187485997
		0.006195115857
		0.006202745251
		0.006210374646
		0.00621800404
		0.006225633435
		0.006233262829
		0.006240892224
		0.006248521619
		0.006256151479
		0.006263780873
		0.006271410268
		0.006279039662
		0.006286669057
		0.006294298451
		0.006301927846
		0.00630955724
		0.006317187101
		0.006324816495
		0.00633244589
		0.006340075284
		0.006347704679
		0.006355334073
		0.006362963468
		0.006370592862
		0.006378222723
		0.006385852117
		0.006393481512
		0.006401110906
		0.006408740301
		0.006416369695
		0.00642399909
		0.006431628484
		0.006439258344
		0.006446887739
		0.006454517134
		0.006462146528
		0.006469775923
		0.006477405317
		0.006485034712
		0.006492664106
		0.006500293966
		0.006507923361
		0.006515552755
		0.00652318215
		0.006530811545
		0.006538440939
		0.006546070334
		0.006553699728
		0.006561329588
		0.006568958983
		0.006576588377
		0.006584217772
		0.006591847166
		0.006599476561
		0.006607105955
		0.00661473535
		0.00662236521
		0.006629994605
		0.006637623999
		0.006645253394
		0.006652882788
		0.006660512183
		0.006668141577
		0.006675770972
		0.006683400832
		0.006691030227
		0.006698659621
		0.006706289016
		0.00671391841
		0.006721547805
		0.006729177199
		0.006736806594
		0.006744436454
		0.006752065849
		0.006759695243
		0.006767324638
		0.006774954032
		0.006782583427
		0.006790212821
		0.006797842216
		0.006805472076
		0.00681310147
		0.006820730865
		0.00682836026
		0.006835989654
		0.006843619049
		0.006851248443
		0.006858877838
		0.006866507698
		0.006874137092
		0.006881766487
		0.006889395881
		0.006897025276
		0.006904654671
		0.006912284065
		0.00691991346
		0.00692754332
		0.006935172714
		0.006942802109
		0.006950431503
		0.006958060898
		0.006965690292
		0.006973319687
		0.006980949081
		0.006988578942
		0.006996208336
		0.007003837731
		0.007011467125
		0.00701909652
		0.007026725914
		0.007034355309
		0.007041984703
		0.007049614564
		0.007057243958
		0.007064873353
		0.007072502747
		0.007080132142
		0.007087761536
		0.007095390931
		0.007103020325
		0.007110650185
		0.00711827958
		0.007125908975
		0.007133538369
		0.007141167764
		0.007148797158
		0.007156426553
		0.007164055947
		0.007171685807
		0.007179315202
		0.007186944596
		0.007194573991
		0.007202203386
		0.00720983278
		0.007217462175
		0.007225091569
		0.007232721429
		0.007240350824
		0.007247980218
		0.007255609613
		0.007263239007
		0.007270868402
		0.007278497797
		0.007286127191
		0.007293757051
		0.007301386446
		0.00730901584
		0.007316645235
		0.007324274629
		0.007331904024
		0.007339533418
		0.007347162813
		0.007354792673
		0.007362422068
		0.007370051462
		0.007377680857
		0.007385310251
		0.007392939646
		0.00740056904
		0.007408198435
		0.007415828295
		0.00742345769
		0.007431087084
		0.007438716479
		0.007446345873
		0.007453975268
		0.007461604662
		0.007469234057
		0.007476863917
		0.007484493311
		0.007492122706
		0.007499752101
		0.007507381495
		0.00751501089
		0.007522640284
		0.007530269679
		0.007537899539
		0.007545528933
		0.007553158328
		0.007560787722
		0.007568417117
		0.007576046512
		0.007583675906
		0.007591305301
		0.007598935161
		0.007606564555
		0.00761419395
		0.007621823344
		0.007629452739
		0.007637082133
		0.007644711528
		0.007652340923
		0.007659970783
		0.007667600177
		0.007675229572
		0.007682858966
		0.007690488361
		0.007698117755
		0.00770574715
		0.007713376544
		0.007721006405
		0.007728635799
		0.007736265194
		0.007743894588
		0.007751523983
		0.007759153377
		0.007766782772
		0.007774412166
		0.007782042027
		0.007789671421
		0.007797300816
		0.00780493021
		0.007812559605
		0.007820188999
		0.007827818394
		0.007835447788
		0.007843077183
		0.007850706577
		0.007858335972
		0.007865965366
		0.007873595692
		0.007881225087
		0.007888854481
		0.007896483876
		0.00790411327
		0.007911742665
		0.007919372059
		0.007927001454
		0.007934630848
		0.007942260243
		0.007949889638
		0.007957519032
		0.007965148427
		0.007972777821
		0.007980407216
		0.00798803661
		0.007995666936
		0.008003296331
		0.008010925725
		0.00801855512
		0.008026184514
		0.008033813909
		0.008041443303
		0.008049072698
		0.008056702092
		0.008064331487
		0.008071960881
		0.008079590276
		0.00808721967
		0.008094849065
		0.008102478459
		0.008110107854
		0.00811773818
		0.008125367574
		0.008132996969
		0.008140626363
		0.008148255758
		0.008155885153
		0.008163514547
		0.008171143942
		0.008178773336
		0.008186402731
		0.008194032125
		0.00820166152
		0.008209290914
		0.008216920309
		0.008224549703
		0.008232179098
		0.008239809424
		0.008247438818
		0.008255068213
		0.008262697607
		0.008270327002
		0.008277956396
		0.008285585791
		0.008293215185
		0.00830084458
		0.008308473974
		0.008316103369
		0.008323732764
		0.008331362158
		0.008338991553
		0.008346620947
		0.008354250342
		0.008361880668
		0.008369510062
		0.008377139457
		0.008384768851
		0.008392398246
		0.00840002764
		0.008407657035
		0.008415286429
		0.008422915824
		0.008430545218
		0.008438174613
		0.008445804007
		0.008453433402
		0.008461062796
		0.008468692191
		0.008476321585
		0.008483951911
		0.008491581306
		0.0084992107
		0.008506840095
		0.008514469489
		0.008522098884
		0.008529728279
		0.008537357673
		0.008544987068
		0.008552616462
		0.008560245857
		0.008567875251
		0.008575504646
		0.00858313404
		0.008590763435
		0.008598392829
		0.008606023155
		0.00861365255
		0.008621281944
		0.008628911339
		0.008636540733
		0.008644170128
		0.008651799522
		0.008659428917
		0.008667058311
		0.008674687706
		0.0086823171
		0.008689946495
		0.00869757589
		0.008705205284
		0.008712834679
		0.008720464073
		0.008728094399
		0.008735723794
		0.008743353188
		0.008750982583
		0.008758611977
		0.008766241372
		0.008773870766
		0.008781500161
		0.008789129555
		0.00879675895
		0.008804388344
		0.008812017739
		0.008819647133
		0.008827276528
		0.008834905922
		0.008842535317
		0.008850165643
		0.008857795037
		0.008865424432
		0.008873053826
		0.008880683221
		0.008888312615
		0.00889594201
		0.008903571405
		0.008911200799
		0.008918830194
		0.008926459588
		0.008934088983
		0.008941718377
		0.008949347772
		0.008956977166
		0.008964606561
		0.008972236887
		0.008979866281
		0.008987495676
		0.00899512507
		0.009002754465
		0.009010383859
		0.009018013254
		0.009025642648
		0.009033272043
		0.009040901437
		0.009048530832
		0.009056160226
		0.009063789621
		0.009071419016
		0.00907904841
		0.009086677805
		0.00909430813
		0.009101937525
		0.00910956692
		0.009117196314
		0.009124825709
		0.009132455103
		0.009140084498
		0.009147713892
		0.009155343287
		0.009162972681
		0.009170602076
		0.00917823147
		0.009185860865
		0.009193490259
		0.009201119654
		0.009208749048
		0.009216379374
		0.009224008769
		0.009231638163
		0.009239267558
		0.009246896952
		0.009254526347
		0.009262155741
		0.009269785136
		0.009277414531
		0.009285043925
		0.00929267332
		0.009300302714
		0.009307932109
		0.009315561503
		0.009323190898
		0.009330820292
		0.009338450618
		0.009346080013
		0.009353709407
		0.009361338802
		0.009368968196
		0.009376597591
		0.009384226985
		0.00939185638
		0.009399485774
		0.009407115169
		0.009414744563
		0.009422373958
		0.009430003352
		0.009437632747
		0.009445262142
		0.009452891536
		0.009460521862
		0.009468151256
		0.009475780651
		0.009483410046
		0.00949103944
		0.009498668835
		0.009506298229
		0.009513927624
		0.009521557018
		0.009529186413
		0.009536815807
		0.009544445202
		0.009552074596
		0.009559703991
		0.009567333385
		0.00957496278
		0.009582593106
		0.0095902225
		0.009597851895
		0.009605481289
		0.009613110684
		0.009620740078
		0.009628369473
		0.009635998867
		0.009643628262
		0.009651257657
		0.009658887051
		0.009666516446
		0.00967414584
		0.009681775235
		0.009689404629
		0.009697034024
		0.00970466435
		0.009712293744
		0.009719923139
		0.009727552533
		0.009735181928
		0.009742811322
		0.009750440717
		0.009758070111
		0.009765699506
		0.0097733289
		0.009780958295
		0.009788587689
		0.009796217084
		0.009803846478
		0.009811475873
		0.009819105268
		0.009826735593
		0.009834364988
		0.009841994382
		0.009849623777
		0.009857253172
		0.009864882566
		0.009872511961
		0.009880141355
		0.00988777075
		0.009895400144
		0.009903029539
		0.009910658933
		0.009918288328
		0.009925917722
		0.009933547117
		0.009941176511
		0.009948806837
		0.009956436232
		0.009964065626
		0.009971695021
		0.009979324415
		0.00998695381
		0.009994583204
		0.0100022126
		0.01000984199
		0.01001747139
		0.01002510078
		0.01003273018
		0.01004035957
		0.01004798897
		0.01005561836
		0.01006324776
		0.01007087808
		0.01007850748
		0.01008613687
		0.01009376626
		0.01010139566
		0.01010902505
		0.01011665445
		0.01012428384
		0.01013191324
		0.01013954263
		0.01014717203
		0.01015480142
		0.01016243082
		0.01017006021
		0.0101776896
		0.010185319
		0.01019294932
		0.01020057872
		0.01020820811
		0.01021583751
		0.0102234669
		0.0102310963
		0.01023872569
		0.01024635509
		0.01025398448
		0.01026161388
		0.01026924327
		0.01027687266
		0.01028450206
		0.01029213145
		0.01029976085
		0.01030739024
		0.01031502057
		0.01032264996
		0.01033027936
		0.01033790875
		0.01034553815
		0.01035316754
		0.01036079694
		0.01036842633
		0.01037605572
		0.01038368512
		0.01039131451
		0.01039894391
		0.0104065733
		0.0104142027
		0.01042183209
		0.01042946149
		0.01043709181
		0.01044472121
		0.0104523506
		0.01045998
		0.01046760939
		0.01047523879
		0.01048286818
		0.01049049757
		0.01049812697
		0.01050575636
		0.01051338576
		0.01052101515
		0.01052864455
		0.01053627394
		0.01054390334
		0.01055153273
		0.01055916306
		0.01056679245
		0.01057442185
		0.01058205124
		0.01058968063
		0.01059731003
		0.01060493942
		0.01061256882
		0.01062019821
		0.01062782761
		0.010635457
		0.0106430864
		0.01065071579
		0.01065834519
		0.01066597458
		0.01067360397
		0.0106812343
		0.01068886369
		0.01069649309
		0.01070412248
		0.01071175188
		0.01071938127
		0.01072701067
		0.01073464006
		0.01074226946
		0.01074989885
		0.01075752825
		0.01076515764
		0.01077278703
		0.01078041643
		0.01078804582
		0.01079567522
		0.01080330554
