tests/data/files/resolve_1d3d.cube
LUT_1D_SIZE 6
LUT_1D_INPUT_RANGE -1.0 3.0
LUT_3D_SIZE 3
LUT_3D_INPUT_RANGE 0.0 4.0
3.3 3.4 3.5
3.0 3.1 3.2
2.2 2.3 2.4
2.1 2.0 2.0
1.0 1.0 1.0
0.0 0.0 0.0
1.1 1.1 1.1
0.5 1.0 1.0
0.0 1.0 1.0
1.0 0.5 1.0
0.5 0.5 1.0
0.0 0.5 1.0
1.0 0.0 1.0
0.5 0.0 1.0
0.0 0.0 1.0
1.0 1.0 0.5
0.5 1.0 0.5
0.0 1.0 0.5
1.0 0.5 0.5
0.5 0.5 0.5
0.0 0.5 0.5
1.0 0.0 0.5
0.5 0.0 0.5
0.0 0.0 0.5
1.0 1.0 0.0
0.5 1.0 0.0
0.0 1.0 0.0
1.0 0.5 0.0
0.5 0.5 0.0
0.0 0.5 0.0
1.0 0.0 0.0
0.5 0.0 0.0
0.0 0.0 0.0
