configs/testing/luts/lgf.spi1d
Version 1
From -0.2 1.615
Length 131072
Components 1
{
        8.9332045315351081e-11
        8.9410887352523833e-11
        8.9489798973537018e-11
        8.9568780239803874e-11
        8.9647831212791867e-11
        8.9726951954021794e-11
        8.9806142525069212e-11
        8.9885402987564039e-11
        8.9964733403190556e-11
        9.0044133833687507e-11
        9.0123604340848102e-11
        9.0203144986519666e-11
        9.0282755832605423e-11
        9.0362436941061924e-11
        9.0442188373900367e-11
        9.0522010193188043e-11
        9.0601902461045673e-11
        9.0681865239649256e-11
        9.0761898591229646e-11
        9.084200257807221e-11
        9.0922177262519045e-11
        9.1002422706964126e-11
        9.1082738973859239e-11
        9.116312612571078e-11
        9.1243584225079438e-11
        9.1324113334581559e-11
        9.1404713516888779e-11
        9.1485384834728025e-11
        9.1566127350881557e-11
        9.1646941128187107e-11
        9.1727826229536909e-11
        9.1808782717882342e-11
        9.1889810656224015e-11
        9.1970910107624471e-11
        9.205208113519829e-11
        9.2133323802116647e-11
        9.2214638171606502e-11
        9.2296024306950569e-11
        9.2377482271487012e-11
        9.2459012128611678e-11
        9.2540613941773196e-11
        9.2622287774478927e-11
        9.2704033690292272e-11
        9.2785851752829987e-11
        9.2867742025768188e-11
        9.294970457283737e-11
        9.3031739457824258e-11
        9.3113846744573225e-11
        9.3196026496983675e-11
        9.3278278779011806e-11
        9.3360603654670306e-11
        9.3443001188027882e-11
        9.3525471443211142e-11
        9.3608014484401973e-11
        9.3690630375839286e-11
        9.377331918181877e-11
        9.385608096669279e-11
        9.3938915794870099e-11
        9.4021823730818092e-11
        9.4104804839057412e-11
        9.4187859184170237e-11
        9.4270986830792524e-11
        9.43541878436182e-11
        9.4437462287398276e-11
        9.4520810226940907e-11
        9.4604231727111011e-11
        9.468772685283212e-11
        9.477129566908368e-11
        9.4854938240902958e-11
        9.4938654633384611e-11
        9.5022444911680279e-11
        9.5106309141000526e-11
        9.5190247386612034e-11
        9.5274259713839582e-11
        9.5358346188065583e-11
        9.544250687473018e-11
        9.5526741839330297e-11
        9.561105114742398e-11
        9.569543486462243e-11
        9.5779893056598503e-11
        9.5864425789081159e-11
        9.5949033127857817e-11
        9.6033715138773968e-11
        9.6118471887733209e-11
        9.6203303440697327e-11
        9.6288209863686269e-11
        9.6373191222777846e-11
        9.6458247584109555e-11
        9.654337901387588e-11
        9.6628585578329695e-11
        9.6713867343783782e-11
        9.6799224376608026e-11
        9.6884656743231376e-11
        9.697016451014138e-11
        9.7055747743883828e-11
        9.7141406511065112e-11
        9.7227140878347097e-11
        9.7312950912453313e-11
        9.7398836680165745e-11
        9.7484798248324324e-11
        9.757083568382847e-11
        9.7656949053636645e-11
        9.77431384247664e-11
        9.7829403864294434e-11
        9.7915745439356661e-11
        9.8002163217147253e-11
        9.8088657264923591e-11
        9.8175227649995599e-11
        9.8261874439739425e-11
        9.8348597701586781e-11
        9.8435397503029866e-11
        9.852227391162045e-11
        9.860922699496991e-11
        9.8696256820748847e-11
        9.8783363456689482e-11
        9.8870546970580445e-11
        9.8957807430273577e-11
        9.9045144903678674e-11
        9.9132559458765452e-11
        9.9220051163565096e-11
        9.930762008616734e-11
        9.9395266294722056e-11
        9.9482989857440678e-11
        9.9570790842593419e-11
        9.9658669318511216e-11
        9.9746625353585308e-11
        9.9834659016266817e-11
        9.9922770375068737e-11
        1.0001095949856306e-10
        1.0009922645538279e-10
        1.0018757131422152e-10
        1.0027599414383345e-10
        1.0036449501303296e-10
        1.0045307399069718e-10
        1.0054173114576002e-10
        1.0063046654722121e-10
        1.0071928026413791e-10
        1.0080817236562923e-10
        1.0089714292087524e-10
        1.009861919991171e-10
        1.010753196696566e-10
        1.0116452600185861e-10
        1.0125381106514585e-10
        1.0134317492900567e-10
        1.0143261766298487e-10
        1.0152213933669154e-10
        1.0161174001979675e-10
        1.0170141978203155e-10
        1.0179117869318904e-10
        1.0188101682312391e-10
        1.0197093424175247e-10
        1.020609310190518e-10
        1.0215100722506421e-10
        1.022411629298888e-10
        1.0233139820369059e-10
        1.0242171311669449e-10
        1.0251210773918788e-10
        1.026025821415202e-10
        1.0269313639410298e-10
        1.0278377056740988e-10
        1.0287448473197674e-10
        1.0296527895840119e-10
        1.0305615331734466e-10
        1.0314710787952944e-10
        1.0323814271574019e-10
        1.0332925789682562e-10
        1.0342045349369545e-10
        1.0351172957732242e-10
        1.03603086218742e-10
        1.0369452348905177e-10
        1.0378604145941364e-10
        1.0387764020105076e-10
        1.0396931978524916e-10
        1.040610802833593e-10
        1.0415292176679312e-10
        1.0424484430702602e-10
        1.0433684797559657e-10
        1.0442893284410643e-10
        1.0452109898422044e-10
        1.0461334646766674e-10
        1.0470567536623569e-10
        1.0479808575178517e-10
        1.0489057769622925e-10
        1.0498315127155271e-10
        1.0507580654979968e-10
        1.0516854360307896e-10
        1.0526136250356297e-10
        1.0535426332348782e-10
        1.0544724613515289e-10
        1.0554031101092289e-10
        1.0563345802322483e-10
        1.0572668724455022e-10
        1.0581999874745449e-10
        1.059133926045566e-10
        1.0600686888854117e-10
        1.0610042767215543e-10
        1.0619406902821078e-10
        1.0628779302958445e-10
        1.0638159974921643e-10
        1.0647548926011161e-10
        1.0656946163533933e-10
        1.0666351694803285e-10
        1.0675765527139159e-10
        1.0685187667867797e-10
        1.0694618124321963e-10
        1.0704056903840888e-10
        1.0713504013770283e-10
        1.0722959461462293e-10
        1.073242325427565e-10
        1.0741895399575583e-10
        1.0751375904733722e-10
        1.0760864777128247e-10
        1.0770362024143855e-10
        1.0779867653171758e-10
        1.0789381671609695e-10
        1.0798904086861875e-10
        1.0808434906339259e-10
        1.0817974137458977e-10
        1.0827521787645072e-10
        1.0837077864327934e-10
        1.0846642374944505e-10
        1.0856215326938452e-10
        1.0865796727759853e-10
        1.0875386584865413e-10
        1.088498490571842e-10
        1.0894591697788746e-10
        1.0904206968552751e-10
        1.0913830725493768e-10
        1.0923462976101199e-10
        1.0933103727871482e-10
        1.0942752988307461e-10
        1.095241076491865e-10
        1.0962077065221199e-10
        1.0971751896737883e-10
        1.098143526699812e-10
        1.0991127183537976e-10
        1.1000827653900107e-10
        1.1010536685633995e-10
        1.102025428629562e-10
        1.102998046344763e-10
        1.1039715224659512e-10
        1.1049458577507268e-10
        1.1059210529573645e-10
        1.1068971088448078e-10
        1.1078740261726648e-10
        1.1088518057012303e-10
        1.1098304481914538e-10
        1.1108099544049564e-10
        1.1117903251040532e-10
        1.1127715610516936e-10
        1.1137536630115393e-10
        1.1147366317479034e-10
        1.1157204680257794e-10
        1.1167051726108358e-10
        1.1176907462694169e-10
        1.1186771897685327e-10
        1.1196645038759136e-10
        1.1206526893598906e-10
        1.1216417469895504e-10
        1.1226316775346139e-10
        1.1236224817654927e-10
        1.124614160453278e-10
        1.1256067143697416e-10
        1.1266001442873314e-10
        1.1275944509791929e-10
        1.128589635219138e-10
        1.1295856977816667e-10
        1.1305826394419626e-10
        1.131580460975888e-10
        1.1325791631600067e-10
        1.1335787467715509e-10
        1.134579212588439e-10
        1.1355805613892927e-10
        1.1365827939534041e-10
        1.1375859110607529e-10
        1.1385899134920299e-10
        1.1395948020285754e-10
        1.1406005774524588e-10
        1.1416072405464172e-10
        1.1426147920938839e-10
        1.143623232878984e-10
        1.1446325636865344e-10
        1.1456427853020391e-10
        1.1466538985117067e-10
        1.1476659041024398e-10
        1.1486788028618237e-10
        1.149692595578145e-10
        1.1507072830403859e-10
        1.1517228660382246e-10
        1.1527393453620367e-10
        1.1537567218028894e-10
        1.1547749961525709e-10
        1.1557941692035284e-10
        1.1568142417489428e-10
        1.1578352145826944e-10
        1.158857088499331e-10
        1.1598798642941406e-10
        1.1609035427630908e-10
        1.1619281247028574e-10
        1.162953610910819e-10
        1.1639800021850582e-10
        1.1650072993243507e-10
        1.1660355031282165e-10
        1.1670646143968253e-10
        1.1680946339310972e-10
        1.1691255625326375e-10
        1.1701574010037643e-10
        1.1711901501475037e-10
        1.1722238107675906e-10
        1.1732583836684694e-10
        1.1742938696552938e-10
        1.1753302695339238e-10
        1.1763675841109408e-10
        1.1774058141936441e-10
        1.1784449605900113e-10
        1.1794850241087733e-10
        1.1805260055593514e-10
        1.1815679057518819e-10
        1.1826107254972385e-10
        1.1836544656069706e-10
        1.1846991268933841e-10
        1.1857447101694786e-10
        1.1867912162489716e-10
        1.1878386459463218e-10
        1.1888870000766658e-10
        1.1899362794559004e-10
        1.1909864849006194e-10
        1.1920376172281434e-10
        1.1930896772565133e-10
        1.1941426658044933e-10
        1.1951965836915575e-10
        1.196251431737939e-10
        1.1973072107645595e-10
        1.1983639215930765e-10
        1.1994215650458734e-10
        1.2004801419460589e-10
        1.2015396531174682e-10
        1.202600099384664e-10
        1.2036614815729304e-10
        1.2047238005082976e-10
        1.2057870570175075e-10
        1.2068512519280372e-10
        1.2079163860680942e-10
        1.2089824602666112e-10
        1.2100494753532696e-10
        1.2111174321584664e-10
        1.2121863315133306e-10
        1.2132561742497431e-10
        1.2143269612003003e-10
        1.2153986931983344e-10
        1.2164713710779307e-10
        1.2175449956738922e-10
        1.2186195678217656e-10
        1.2196950883578339e-10
        1.2207715581191192e-10
        1.2218489779433817e-10
        1.2229273486691213e-10
        1.2240066711355715e-10
        1.2250869461827192e-10
        1.2261681746512919e-10
        1.2272503573827478e-10
        1.2283334952192932e-10
        1.2294175890038781e-10
        1.230502639580196e-10
        1.2315886477926856e-10
        1.2326756144865244e-10
        1.2337635405076601e-10
        1.2348524267027444e-10
        1.2359422739192135e-10
        1.2370330830052446e-10
        1.2381248548097514e-10
        1.2392175901824033e-10
        1.2403112899736192e-10
        1.241405955034569e-10
        1.2425015862171733e-10
        1.2435981843741048e-10
        1.2446957503587767e-10
        1.2457942850253983e-10
        1.2468937892288709e-10
        1.2479942638248999e-10
        1.2490957096699214e-10
        1.2501981276211334e-10
        1.2513015185364905e-10
        1.2524058832747042e-10
        1.2535112226952442e-10
        1.2546175376583387e-10
        1.2557248290249687e-10
        1.256833097656888e-10
        1.2579423444166165e-10
        1.2590525701673984e-10
        1.2601637757732835e-10
        1.2612759620990589e-10
        1.262389130010275e-10
        1.2635032803732714e-10
        1.2646184140551084e-10
        1.2657345319236551e-10
        1.2668516348475217e-10
        1.2679697236960852e-10
        1.2690887993395144e-10
        1.2702088626487031e-10
        1.2713299144953568e-10
        1.2724519557519252e-10
        1.2735749872916354e-10
        1.2746990099884837e-10
        1.2758240247172388e-10
        1.2769500323534284e-10
        1.2780770337733911e-10
        1.2792050298542006e-10
        1.2803340214737175e-10
        1.2814640095105774e-10
        1.2825949948441913e-10
        1.2837269783547394e-10
        1.2848599609232052e-10
        1.2859939434313044e-10
        1.2871289267615755e-10
        1.2882649117973108e-10
        1.2894018994225821e-10
        1.2905398905222664e-10
        1.2916788859819776e-10
        1.2928188866881561e-10
        1.2939598935279981e-10
        1.2951019073894843e-10
        1.2962449291613964e-10
        1.2973889597332833e-10
        1.2985339999954776e-10
        1.2996800508391176e-10
        1.3008271131561084e-10
        1.3019751878391488e-10
        1.303124275781726e-10
        1.3042743778781149e-10
        1.3054254950233742e-10
        1.3065776281133773e-10
        1.3077307780447439e-10
        1.3088849457149233e-10
        1.3100401320221508e-10
        1.3111963378654412e-10
        1.3123535641446095e-10
        1.3135118117602643e-10
        1.31467108161381e-10
        1.3158313746074456e-10
        1.3169926916441606e-10
        1.3181550336277666e-10
        1.3193184014628284e-10
        1.3204827960547475e-10
        1.3216482183097178e-10
        1.3228146691347206e-10
        1.3239821494375439e-10
        1.3251506601267766e-10
        1.3263202021118103e-10
        1.327490776302838e-10
        1.3286623836108573e-10
        1.3298350249476555e-10
        1.3310087012258714e-10
        1.3321834133588834e-10
        1.3333591622609286e-10
        1.3345359488470245e-10
        1.3357137740330028e-10
        1.3368926387355037e-10
        1.3380725438719762e-10
        1.3392534903606789e-10
        1.3404354791206813e-10
        1.3416185110718567e-10
        1.3428025871349043e-10
        1.3439877082313422e-10
        1.3451738752834617e-10
        1.3463610892144148e-10
        1.3475493509481417e-10
        1.3487386614093983e-10
        1.349929021523776e-10
        1.3511204322176636e-10
        1.352312894418274e-10
        1.3535064090536385e-10
        1.3547009770526011e-10
        1.3558965993448513e-10
        1.3570932768608533e-10
        1.3582910105319392e-10
        1.3594898012902359e-10
        1.3606896500686999e-10
        1.3618905578011109e-10
        1.3630925254220733e-10
        1.3642955538670019e-10
        1.3654996440721785e-10
        1.3667047969746704e-10
        1.3679110135123853e-10
        1.3691182946240584e-10
        1.3703266412492545e-10
        1.3715360543283595e-10
        1.3727465348026104e-10
        1.3739580836140544e-10
        1.375170701705577e-10
        1.3763843900208957e-10
        1.377599149504554e-10
        1.3788149811019567e-10
        1.3800318857592948e-10
        1.3812498644236423e-10
        1.3824689180428819e-10
        1.3836890475657327e-10
        1.3849102539417717e-10
        1.3861325381213935e-10
        1.3873559010558315e-10
        1.3885803436971788e-10
        1.3898058669983487e-10
        1.3910324719131021e-10
        1.3922601593960423e-10
        1.393488930402614e-10
        1.3947187858890989e-10
        1.3959497268126505e-10
        1.3971817541312183e-10
        1.3984148688036388e-10
        1.3996490717895879e-10
        1.4008843640495749e-10
        1.4021207465449631e-10
        1.403358220237965e-10
        1.4045967860916417e-10
        1.4058364450699048e-10
        1.407077198137509e-10
        1.4083190462600892e-10
        1.4095619904040832e-10
        1.4108060315368236e-10
        1.4120511706264897e-10
        1.4132974086421018e-10
        1.4145447465535421e-10
        1.4157931853315482e-10
        1.4170427259477158e-10
        1.4182933693744968e-10
        1.4195451165852023e-10
        1.4207979685539877e-10
        1.4220519262559177e-10
        1.423306990666847e-10
        1.4245631627635482e-10
        1.4258204435236279e-10
        1.4270788339255618e-10
        1.4283383349486899e-10
        1.4295989475732164e-10
        1.4308606727802032e-10
        1.4321235115516069e-10
        1.4333874648702004e-10
        1.4346525337196675e-10
        1.4359187190845593e-10
        1.4371860219502538e-10
        1.4384544433030481e-10
        1.4397239841300812e-10
        1.4409946454193637e-10
        1.4422664281597996e-10
        1.4435393333411439e-10
        1.4448133619540327e-10
        1.4460885149899758e-10
        1.4473647934413513e-10
        1.4486421983014351e-10
        1.4499207305643572e-10
        1.4512003912251332e-10
        1.4524811812796562e-10
        1.4537631017246982e-10
        1.4550461535578974e-10
        1.4563303377778286e-10
        1.4576156553838489e-10
        1.4589021073762966e-10
        1.4601896947563363e-10
        1.46147841852603e-10
        1.4627682796883247e-10
        1.4640592792470518e-10
        1.4653514182069223e-10
        1.4666446975735548e-10
        1.4679391183534342e-10
        1.4692346815539408e-10
        1.4705313881833442e-10
        1.4718292392507963e-10
        1.4731282357663617e-10
        1.4744283787409743e-10
        1.4757296691864679e-10
        1.477032108115569e-10
        1.4783356965418908e-10
        1.4796404354799556e-10
        1.4809463259451886e-10
        1.4822533689538671e-10
        1.4835615655232165e-10
        1.4848709166713308e-10
        1.48618142341721e-10
        1.487493086780753e-10
        1.4888059077827596e-10
        1.4901198874449225e-10
        1.4914350267898653e-10
        1.492751326841064e-10
        1.4940687886229404e-10
        1.495387413160814e-10
        1.4967072014808943e-10
        1.4980281546103043e-10
        1.4993502735770723e-10
        1.5006735594101355e-10
        1.5019980131393377e-10
        1.5033236357954255e-10
        1.5046504284100763e-10
        1.5059783920158567e-10
        1.5073075276462441e-10
        1.5086378363356506e-10
        1.5099693191193787e-10
        1.511301977033652e-10
        1.5126358111156091e-10
        1.5139708224033035e-10
        1.515307011935705e-10
        1.5166443807527006e-10
        1.5179829298950794e-10
        1.5193226604046024e-10
        1.5206635733238747e-10
        1.5220056696964813e-10
        1.5233489505668984e-10
        1.5246934169805319e-10
        1.5260390699837101e-10
        1.5273859106236841e-10
        1.5287339399486232e-10
        1.5300831590076504e-10
        1.5314335688507628e-10
        1.5327851705289293e-10
        1.5341379650940459e-10
        1.5354919535988923e-10
        1.5368471370972301e-10
        1.53820351664372e-10
        1.5395610932939547e-10
        1.5409198681044799e-10
        1.5422798421327525e-10
        1.543641016437169e-10
        1.5450033920770606e-10
        1.546366970112686e-10
        1.5477317516052619e-10
        1.5490977376169192e-10
        1.5504649292107341e-10
        1.5518333274507201e-10
        1.5532029334018309e-10
        1.5545737481299438e-10
        1.5559457727019387e-10
        1.5573190081855296e-10
        1.5586934556494803e-10
        1.5600691161634362e-10
        1.5614459907980022e-10
        1.5628240806247286e-10
        1.5642033867161109e-10
        1.5655839101455834e-10
        1.566965651987551e-10
        1.568348613317344e-10
        1.5697327952112489e-10
        1.5711181987465027e-10
        1.572504825001285e-10
        1.5738926750547506e-10
        1.5752817499869829e-10
        1.5766720508790267e-10
        1.5780635788128811e-10
        1.5794563348714919e-10
        1.5808503201387763e-10
        1.5822455356996162e-10
        1.5836419826398044e-10
        1.5850396620461457e-10
        1.586438575006374e-10
        1.5878387226091901e-10
        1.5892401059442562e-10
        1.5906427261021959e-10
        1.5920465841745954e-10
        1.5934516812540048e-10
        1.5948580184339297e-10
        1.5962655968088571e-10
        1.5976744174742401e-10
        1.5990844815264827e-10
        1.600495790062964e-10
        1.601908344182032e-10
        1.6033221449830045e-10
        1.6047371935661689e-10
        1.6061534910327756e-10
        1.6075710384850717e-10
        1.608989837026252e-10
        1.6104098877604862e-10
        1.6118311917929417e-10
        1.613253750229737e-10
        1.6146775641779759e-10
        1.6161026347457384e-10
        1.6175289630420829e-10
        1.6189565501770465e-10
        1.6203853972616457e-10
        1.6218155054078624e-10
        1.6232468757287147e-10
        1.6246795093381242e-10
        1.6261134073510586e-10
        1.6275485708834383e-10
        1.6289850010521767e-10
        1.630422698975172e-10
        1.6318616657713103e-10
        1.6333019025604563e-10
        1.6347434104634874e-10
        1.636186190602246e-10
        1.637630244099573e-10
        1.6390755720793003e-10
        1.640522175666243e-10
        1.6419700559862255e-10
        1.6434192141660741e-10
        1.6448696513335606e-10
        1.6463213686175094e-10
        1.6477743671477079e-10
        1.6492286480549417e-10
        1.650684212471026e-10
        1.6521410615287181e-10
        1.6535991963618329e-10
        1.6550586181051521e-10
        1.656519327894468e-10
        1.6579813268665748e-10
        1.6594446161592704e-10
        1.6609091969113402e-10
        1.6623750702626242e-10
        1.6638422373539186e-10
        1.6653106993270436e-10
        1.6667804573248264e-10
        1.6682515124911031e-10
        1.6697238659707198e-10
        1.6711975189095324e-10
        1.6726724724544e-10
        1.6741487277532268e-10
        1.675626285954873e-10
        1.6771051482092693e-10
        1.6785853156673294e-10
        1.6800667894809824e-10
        1.6815495708031985e-10
        1.6830336607879414e-10
        1.6845190605902006e-10
        1.686005771365986e-10
        1.6874937942723185e-10
        1.6889831304672573e-10
        1.6904737811098921e-10
        1.6919657473602853e-10
        1.6934590303795814e-10
        1.6949536313299167e-10
        1.6964495513744616e-10
        1.6979467916774123e-10
        1.6994453534039935e-10
        1.7009452377204575e-10
        1.7024464457940863e-10
        1.7039489787931837e-10
        1.7054528378871012e-10
        1.7069580242462227e-10
        1.7084645390419477e-10
        1.7099723834467184e-10
        1.7114815586340117e-10
        1.7129920657783403e-10
        1.7145039060552528e-10
        1.716017080641328e-10
        1.7175315907142071e-10
        1.7190474374525468e-10
        1.7205646220360426e-10
        1.7220831456454577e-10
        1.7236030094625714e-10
        1.7251242146702145e-10
        1.7266467624522618e-10
        1.7281706539936335e-10
        1.7296958904802945e-10
        1.7312224730992573e-10
        1.7327504030385645e-10
        1.7342796814873675e-10
        1.7358103096357809e-10
        1.7373422886750387e-10
        1.7388756197973923e-10
        1.7404103041961532e-10
        1.7419463430656864e-10
        1.743483737601411e-10
        1.7450224889997928e-10
        1.7465625984583789e-10
        1.7481040671757479e-10
        1.7496468963515448e-10
        1.7511910871864729e-10
        1.7527366408822871e-10
        1.75428355864182e-10
        1.7558318416689747e-10
        1.7573814911686645e-10
        1.7589325083469271e-10
        1.7604848944108295e-10
        1.7620386505685047e-10
        1.763593778029186e-10
        1.7651502780031136e-10
        1.7667081517016564e-10
        1.768267400337218e-10
