configs/testing/luts/vd10.spi1d
Version 1
From 0.0 1.0
Length 2048
Components 1
{
        0.001110019965159161
        0.0014473488880519373
        0.0018745807038639121
        0.0023596338088145699
        0.0026964525925860551
        0.003013199894514523
        0.0033152421312351425
        0.0036031786104141002
        0.0038745460851298589
        0.0041236590830099409
        0.0043398750897378222
        0.0045347414296547338
        0.0047250141546326934
        0.0049107750195176263
        0.0050921640341672217
        0.0052693653221644937
        0.0054425918261146091
        0.0056120719834451974
        0.0057780393553644831
        0.0059407251594660046
        0.006100353247464922
        0.0062571369760308351
        0.0064112774643338031
        0.006562962824858516
        0.0067123680512548587
        0.0068596553313852076
        0.007004974620774305
        0.0071484643622664644
        0.0072902522746353332
        0.0074304561592302143
        0.0075691846921837275
        0.0077065381824130115
        0.0078426092842685865
        0.0079774836594362977
        0.0081112405864524964
        0.0082439535185751811
        0.0083756905922005298
        0.0085065150888322463
        0.0086364858540107746
        0.0087656576767381738
        0.0088940816328902973
        0.0090218053959597606
        0.0091488735182662494
        0.0092753276855338431
        0.0094012069474900591
        0.0095265479268983305
        0.0096513850092033952
        0.0097757505147519023
        0.0098996748553494465
        0.010023186676732477
        0.010146312988367085
        0.010269079281837347
        0.0103915096389518
        0.010513626830576302
        0.010635452407094991
        0.01075700678130494
        0.010878309304466005
        0.010999378336151062
        0.011120231308475085
        0.01124088478522171
        0.011361354516332583
        0.011481655488177655
        0.011601801969982561
        0.011721807556751326
        0.011841685208989636
        0.011961447289503697
        0.012081105597523348
        0.012200671400373956
        0.012320155462900389
        0.012439568074827651
        0.012558919076224773
        0.012678217881224179
        0.012797473500134052
        0.012916694560069582
        0.013035889324217034
        0.013155065709835162
        0.013274231305088934
        0.013393393384802546
        0.01351255892521127
        0.01363173461778471
        0.013750926882188381
        0.013870141878444629
        0.013989385518348994
        0.014108663476193642
        0.014227981198845292
        0.014347343915221286
        0.014466756645203966
        0.014586224208030353
        0.014705751230191593
        0.014825342152873433
        0.014945001238966962
        0.015064732579676781
        0.015184540100751338
        0.015304427568358581
        0.015424398594628528
        0.015544456642882244
        0.015664605032566045
        0.015784846943907638
        0.015905185422310415
        0.016025623382500319
        0.016146163612439358
        0.016266808777018076
        0.016387561421539222
        0.016508423975003565
        0.016629398753207885
        0.016750487961665037
        0.016871693698354881
        0.016993017956314253
        0.017114462626073901
        0.017236029497949563
        0.017357720264193677
        0.017479536521014367
        0.01760147977046711
        0.017723551422224856
        0.017845774985988109
        0.017968292190135442
        0.018091127472641414
        0.018214280233271936
        0.018337749810815276
        0.01846153548306969
        0.018585636466785672
        0.018710051917563173
        0.018834780929704149
        0.01895982253602076
        0.019085175707599183
        0.019210839353519155
        0.019336812320529286
        0.019463093392677662
        0.019589681290897977
        0.019716574672550245
        0.019843772130916214
        0.019971272194648629
        0.020099073327173755
        0.020227173926046553
        0.020355572322257563
        0.020484266779490643
        0.020613255493330585
        0.020742536590419379
        0.020872108127560001
        0.021001968090766449
        0.021132114394258238
        0.021262544879398371
        0.021393257313572563
        0.02152424938900822
        0.021655518721531222
        0.02178706284925817
        0.021918879231222311
        0.022050965245930417
        0.022183318189848273
        0.022315935275812052
        0.022448813631362707
        0.022581950297000289
        0.022715342224355034
        0.022848986274271753
        0.022982879214803877
        0.02311701771911303
        0.023251398363270434
        0.023386017623955251
        0.023520871876045634
        0.023655957390097029
        0.023791270329702831
        0.023926806748731537
        0.024062562588434432
        0.024198533674417332
        0.024334715713469839
        0.024471104290244412
        0.024607694863777934
        0.024744482763847265
        0.024881463187149955
        0.025018631193300923
        0.025155981700634721
        0.025293509481802975
        0.025431209159155067
        0.025569075199890368
        0.025707101910967988
        0.025845283433760781
        0.025983613738437706
        0.026122086618058683
        0.026260695682364357
        0.026399434351241678
        0.026538295847845533
        0.026677273191354128
        0.026816359189334907
        0.02695554642969546
        0.027094827272192097
        0.027234193839466514
        0.027373638007578208
        0.027513151395998209
        0.027652725357026443
        0.027792350964591529
        0.027932019002389119
        0.028071719951309724
        0.02821144397610436
        0.028351180911229529
        0.028490920245809952
        0.028630651107649577
        0.028770362246216818
        0.028910042014521159
        0.029049678349791299
        0.02918925875285595
        0.02932877026611758
        0.029468199449999913
        0.029607532357735479
        0.02974675450834725
        0.029885850857661708
        0.030024805767172893
        0.030163602970557625
        0.030302225537618389
        0.030440655835405735
        0.030578875486241847
        0.030716865322334495
        0.030854605336631778
        0.030992074629525197
        0.0311292513509588
        0.031266112637443937
        0.031402634543414062
        0.031538791966276701
        0.031680482779763507
        0.031825067458570507
        0.031969905314332477
        0.032114995118310577
        0.032260335646972817
        0.032405925682078354
        0.03255176401075914
        0.032697849425599883
        0.032844180724715726
        0.032990756711827662
        0.033137576196336359
        0.033284637993393415
        0.033431940923971018
        0.033579483814929235
        0.033727265499081602
        0.033875284815258512
        0.034023540608369089
        0.034172031729460407
        0.034320757035775612
        0.034469715390809542
        0.034618905664362848
        0.034768326732594293
        0.034917977478070919
        0.035067856789816838
        0.035217963563359961
        0.035368296700777228
        0.035518855110737893
        0.035669637708545421
        0.035820643416177286
        0.035971871162323879
        0.036123319882424752
        0.036274988518704428
        0.036426876020205855
        0.036578981342822489
        0.036731303449329254
        0.036883841309411518
        0.037036593899693056
        0.037189560203762129
        0.037342739212196822
        0.03749612992258821
        0.037649731339562842
        0.037803542474803539
        0.037957562347069269
        0.038111789982213082
        0.03826622441319967
        0.038420864680121007
        0.038575709830211226
        0.038730758917859973
        0.038886011004625187
        0.039041465159243983
        0.039197120457643231
        0.039352975982948443
        0.039509030825492189
        0.039665284082820863
        0.039821734859701044
        0.039978382268124668
        0.040135225427313036
        0.04029226346372012
        0.040449495511035202
        0.040606920710183965
        0.040764538209329529
        0.040922347163872247
        0.041080346736448378
        0.041238536096928576
        0.04139691442241545
        0.041555480897239948
        0.041714234712957585
        0.041873175068343774
        0.042032301169388109
        0.042191612229288668
        0.042351107468445004
        0.042510786114450999
        0.042670647402086787
        0.042830690573310064
        0.042990914877247377
        0.043151319570184192
        0.043311903915554451
        0.043472667183930308
        0.043633608653010476
        0.04379472760760883
        0.043956023339641902
        0.04411749514811622
        0.044279142339115646
        0.044440964225787263
        0.044602960128327734
        0.044765129373969016
        0.044927471296963291
        0.045089985238568393
        0.045252670547031817
        0.045415526577575159
        0.04557855269237826
        0.045741748260562126
        0.04590511265817266
        0.046068645268163538
        0.046232345480378717
        0.046396212691535002
        0.046560246305204021
        0.046724445731794226
        0.046888810388532536
        0.047053339699445654
        0.047218033095341332
        0.047382890013789376
        0.047547909899102452
        0.0477130922023166
        0.047878436381171723
        0.048043941900091806
        0.048209608230164964
        0.048375434849123281
        0.048541421241322935
        0.048707566897723445
        0.048873871315867227
        0.049040333999859277
        0.049206954460346029
        0.049373732214494627
        0.049540666785972236
        0.049707757704924561
        0.049875004507954811
        0.050042406738102757
        0.050209963944823056
        0.050377675683963889
        0.050545541517745804
        0.050713561014739839
        0.050881733749845955
        0.0510500593042717
        0.051218537265510282
        0.051387167227318592
        0.051555948789696208
        0.051724881558862547
        0.051893965147235911
        0.052063199173411054
        0.052232583262137623
        0.052402117044297924
        0.052571800156885388
        0.052741632242982159
        0.052911612951737637
        0.053081741938346111
        0.053252018864025051
        0.053422443395992933
        0.053593015207447484
        0.053763733977543658
        0.053934599391371553
        0.054105611139934721
        0.05427676892012797
        0.054448072434715812
        0.054619521392310265
        0.054791115507349081
        0.054962854500073904
        0.05513473809650854
        0.055306766028436968
        0.055478938033381713
        0.055651253854582354
        0.055823713240973058
        0.055996315947161847
        0.056169061733408326
        0.056341950365602182
        0.056514981615242058
        0.056688155259413252
        0.05686147108076705
        0.05703492886749878
        0.057208528413326486
        0.057382269517469775
        0.057556151984628164
        0.057730175624960287
        0.057904340254062124
        0.058078645692946525
        0.058253091768021369
        0.058427678311068952
        0.0586024051592249
        0.058777272154956935
        0.058952279146044555
        0.059127425985557439
        0.059302712531835118
        0.059478138648466336
        0.059653704204267737
        0.059829409073263923
        0.060005253134666293
        0.060181236272852948
        0.060357358377348146
        0.060533619342801381
        0.060710019068967974
        0.060886557460687635
        0.061063234427865265
        0.061240049885450176
        0.061417003753416001
        0.061594095956741007
        0.061771326425387553
        0.061948695094282462
        0.062126201903297172
        0.062303846797227787
        0.062481629725775485
        0.062659550643526407
        0.062837609509932543
        0.06301580628929182
        0.063194140950728686
        0.063372613468174632
        0.063551223820348751
        0.063729971990738585
        0.063908857967580612
        0.064087881743841224
        0.064267043317197473
        0.064446342690018227
        0.064625779869344466
        0.064805354866871459
        0.06498506769892877
        0.065164918386461962
        0.065344906955013909
        0.065525033434705962
        0.065705297860218892
        0.065885700270775227
        0.066066240710119864
        0.066246919226501944
        0.06642773587265681
        0.066608690705787149
        0.066789783787544882
        0.066971015184013147
        0.067152384965688025
        0.067333893207460513
        0.067515539988598577
        0.067697325392728894
        0.067879249507819553
        0.068061312426161535
        0.06824351424435178
        0.068425855063274699
        0.068608334988085024
        0.068790954128190321
        0.068973712597233172
        0.06915661051307373
        0.069339647997772827
        0.069522825177574285
        0.069706142182887551
        0.069889599148271225
        0.070073196212414951
        0.070256933518123149
        0.070440811212297838
        0.070624829445921578
        0.070808988374040663
        0.070993288155748541
        0.07117772895416892
        0.071362310936438994
        0.071547034273693175
        0.071731899141046357
        0.071916905717577473
        0.072102054186313116
        0.072287344734211098
        0.072472777552144513
        0.07265835283488549
        0.072844070781088274
        0.073029931593274422
        0.07321593547781588
        0.073402082644919223
        0.073588373308610233
        0.073774807686717361
        0.073961386000856652
        0.074148108476415495
        0.074334975342537538
        0.074521986832106771
        0.074709143181732371
        0.074896444631732728
        0.075083891426120819
        0.075271483812588358
        0.075459222042490809
        0.075647106370832204
        0.075835137056250265
        0.076023314361000821
        0.0762116385509434
        0.076400109895526244
        0.076588728667771055
        0.076777495144259106
        0.076966409605115471
        0.077155472333995292
        0.077344683618068857
        0.077534043748006778
        0.077723553017966629
        0.077913211725577039
        0.078103020171924886
        0.078292978661540127
        0.078483087502381893
        0.078673347005824609
        0.078863757486643676
        0.079054319263001591
        0.07924503265643433
        0.079435897991837048
        0.079626915597450498
        0.079818085804847852
        0.080009408948919974
        0.080200885367863045
        0.08039251540316418
        0.080584299399588583
        0.080776237705165885
        0.080968330671176938
        0.081160578652140533
        0.081352982005800448
        0.081545541093111976
        0.081738256278229282
        0.081931127928492414
        0.082124156414414021
        0.082317342109667124
        0.082510685391071759
        0.082704186638582894
        0.082897846235277128
        0.083091664567340795
        0.083285642024057249
        0.083479778997794227
        0.083674075883991839
        0.083868533081149818
        0.08406315099081596
        0.084257930017573465
        0.084452870569029101
        0.084647973055801129
        0.084843237891507106
        0.085038665492752546
        0.085234256279118847
        0.085430010673151147
        0.085625929100347442
        0.085822011989146255
        0.086018259770915637
        0.086214672879941459
        0.086411251753415699
        0.08660799683142599
        0.086804908556943131
        0.087001987375811107
        0.087199233736735118
        0.087396648091270832
        0.087594230893813296
        0.087791982601586216
        0.087989903674630762
        0.088187994575794945
        0.088386255770723107
        0.088584687727844849
        0.08878329091836458
        0.088982065816251357
        0.089181012898227746
        0.08938013264376006
        0.089579425535047483
        0.089778892057012463
        0.089978532697289934
        0.090178347946217499
        0.090378338296825081
        0.090578504244825775
        0.090778846288604303
        0.090979364929209383
        0.091180060670341456
        0.091380934018345156
        0.091581985482198452
        0.091783215573503052
        0.091984624806475568
        0.092186213697937378
        0.09238798276730581
        0.092589932536584249
        0.092792063530353186
        0.092994376275761265
        0.093196871302515638
        0.093399549142873198
        0.09360241033163165
        0.093805455406120661
        0.09400868490619245
        0.094212099374213668
        0.094415699355056434
        0.094619485396089276
        0.094823458047169337
        0.095027617860633351
        0.095231965391288628
        0.095436501196406204
        0.095641225835710775
        0.095846139871373554
        0.096051243868003858
        0.096256538392640395
        0.096462024014744213
        0.096667701306189707
        0.096873570841257001
        0.09707963319662466
        0.097285888951360866
        0.097492338686916494
        0.097698982987116781
        0.097905822438154405
        0.098112857628581199
        0.098320089149301376
        0.098527517593563291
        0.098735143556952801
        0.098942967637385609
        0.099150990435100228
        0.099359212552650497
        0.099567634594898743
        0.099776257169008273
        0.099985080884437416
        0.10019410635293136
        0.10040333418851603
        0.10061276500749126
        0.10082239942842378
        0.10103223807214066
        0.10124228156172287
        0.10145253052249832
        0.10166298558203586
        0.10187364737013864
        0.10208451651883771
        0.10229559366238546
        0.10250687943725012
        0.10271837448210863
        0.10293007943784163
        0.10314199494752617
        0.10335412165643092
        0.10356646021200894
        0.10377901126389326
        0.10399177546388995
        0.10420475346597276
        0.10441794592627716
        0.10463135350309548
        0.10484497685687046
        0.10505881665019015
        0.10527287354778236
        0.1054871482165094
        0.10570164132536242
        0.10591635354545649
        0.10613128555002554
        0.10634643801441622
        0.10656181161608394
        0.10677740703458734
        0.10699322495158312
        0.10720926605082173
        0.10742553101814187
        0.10764202054146538
        0.10785873531079405
        0.10807567601820305
        0.10829284335783761
        0.10851023802590769
        0.10872786072068392
        0.10894571214249277
        0.10916379299371248
        0.1093821039787682
        0.10960064580412865
        0.10981941917830054
        0.11003842481182549
        0.11025766341727578
        0.11047713570924951
        0.11069684240436715
        0.11091678422126765
        0.11113696188060455
        0.11135737610504187
        0.11157802761925002
        0.11179891714990288
        0.11202004542567376
        0.11224141317723114
        0.11246302113723634
        0.11268487004033874
        0.11290696062317296
        0.11312929362435563
        0.11335186978448132
        0.11357468984611983
        0.11379775455381311
        0.11402106465407079
        0.11424462089536896
        0.11446842402814526
        0.11469247480479695
        0.11491677397967735
        0.11514132230909339
        0.11536612055130203
        0.11559116946650858
        0.11581646981686215
        0.11604202236645476
        0.11626782788131733
        0.1164938871294179
        0.11672020088065853
        0.11694676990687246
        0.11717359498182263
        0.11740067688119893
        0.11762801638261469
        0.11785561426560601
        0.11808347131162861
        0.11831158830405525
        0.11853996602817433
        0.11876860527118757
        0.11899750682220733
        0.11922667147225557
        0.1194561000142606
        0.11968579324305668
        0.11991575195538066
        0.12014597694987102
        0.12037646902706577
        0.12060722898940095
        0.12083825764120848
        0.12106955578871485
        0.12130112424003982
        0.12153296380519375
        0.12176507529607748
        0.12199745952648028
        0.1222301173120774
        0.12246304947043098
        0.12269625682098653
        0.12292974018507299
        0.12316350038590057
        0.1233975382485608
        0.12363185460002396
        0.12386645026913912
        0.12410132608663201
        0.12433648288510557
        0.12457192149903755
        0.1248076427647799
        0.12504364752055852
        0.12527993660647196
        0.12551651086449075
        0.12575337113845653
        0.12599051827408131
        0.1262279531189473
        0.12646567652250587
        0.1267036893360772
        0.12694199241284948
        0.12718058660787865
        0.12741947277808821
        0.12765865178226832
        0.12789812448107574
        0.12813789173703349
        0.1283779544145309
        0.12861831337982291
        0.12885896950102937
        0.12909992364813724
        0.12934117669299725
        0.12958272950932612
        0.12982458297270655
        0.13006673796058549
        0.13030919535227611
        0.13055195602895675
        0.13079502087367179
        0.1310383907713315
        0.131282066608712
        0.13152604927445585
        0.13177033965907295
        0.13201493865493991
        0.13225984715630082
        0.13250506605926796
        0.13275059626182156
        0.13299643866381164
        0.13324259416695688
        0.13348906367484678
        0.13373584809294092
        0.13398294832857111
        0.13423036529094026
        0.13447809989112558
        0.13472615304207639
        0.13497452565861759
        0.13522321865744924
        0.13547223295714755
        0.13572156947816599
        0.13597122914283657
        0.1362212128753697
        0.13647152160185702
        0.1367221562502714
        0.1369731177504675
        0.13722440703418454
        0.13747602503504594
        0.13772797268856182
        0.13798025093212957
        0.13823286070503507
        0.13848580294845447
        0.1387390786054554
        0.13899268862099834
        0.13924663394193801
        0.13950091551702534
        0.13975553429690829
        0.14001049123413414
        0.14026578728315012
        0.14052142340030641
        0.14077741545003358
        0.14103379041169015
        0.14129054971826252
        0.1415476943382207
        0.14180522524165273
        0.14206314340027756
        0.14232144978746022
        0.14258014537822364
        0.14283923114926275
        0.14309870807895869
        0.14335857714739128
        0.14361883933635292
        0.14387949562936159
        0.14414054701167514
        0.14440199447030408
        0.14466383899402471
        0.14492608157339315
        0.14518872320075851
        0.14545176487027558
        0.14571520757791967
        0.14597905232149749
        0.14624330010066375
        0.14650795191693089
        0.14677300877368543
        0.14703847167619921
        0.14730434163164427
        0.14757061964910412
        0.14783730673958925
        0.14810440391604843
        0.148371912193384
        0.14863983258846283
        0.14890816612013125
        0.14917691380922821
        0.14944607667859749
        0.14971565575310203
        0.14998565205963638
        0.15025606662714064
        0.1505269004866131
        0.15079815467112445
        0.15106983021582943
        0.15134192815798206
        0.15161444953694711
        0.15188739539421475
        0.15216076677341323
        0.15243456472032152
        0.15270879028288428
        0.15298344451122362
        0.15325852845765298
        0.15353404317669053
        0.15380998972507265
        0.15408636916176705
        0.15436318254798539
        0.15464043094719854
        0.15491811542514772
        0.1551962370498596
        0.15547479689165877
        0.1557537960231819
