src/apps/iosdisplay/iosdisplay/OpenColorIOConfigs/spi-vfx/luts/gn10.spi1d
Version 1
From 0.0 1.0
Length 2048
Components 1
{
      0.0001512476135968058
      0.00015438174604792503
      0.00015758082356487064
      0.00016084619193045249
      0.00016417922481460769
      0.00016758132435227554
      0.00017105392173324385
      0.00017459847780422103
      0.00017821648368338125
      0.00018190946138764725
      0.00018567896447296836
      0.00018952657868786949
      0.00019345392264053971
      0.00019746264847974747
      0.00020155444258986198
      0.00020573102630028076
      0.00020999415660955364
      0.00021434562692451611
      0.0002187872678147349
      0.00022332094778259096
      0.00022794857404931615
      0.00023267209335732197
      0.00023749349278914998
      0.00024241480060339666
      0.00024743808708795582
      0.00025256546543094612
      0.0002577990926096815
      0.00026314117029806731
      0.00026859394579279442
      0.0002741597129587309
      0.0002798408131938991
      0.00028563963641445349
      0.0002915586220600643
      0.00029760026012013975
      0.00030376709218130819
      0.00031006171249661128
      0.00031648676907684745
      0.00032304496480453578
      0.00032973905857095723
      0.00033657186643676389
      0.00034354626281663143
      0.00035066518168846663
      0.00035793161782766525
      0.00036534862806695265
      0.00037291933258232386
      0.00038064691620563773
      0.00038853462976440344
      0.00039658579144933681
      0.00040480378821024796
      0.00041319207718086169
      0.00042175418713315499
      0.00043049371996183922
      0.00043941435219959539
      0.00044851983656371612
      0.00045781400353478847
      0.00046730076296809894
      0.00047698410573842042
      0.00048686810541889172
      0.00049695691999467701
      0.00050725479361214524
      0.00051776605836428597
      0.0005284951361131324
      0.0005394465403499376
      0.00055062487809390877
      0.00056203485183027471
      0.00057368126148852575
      0.00058556900646163426
      0.00059770308766712984
      0.00061008860965087086
      0.00062273078273442279
      0.00063563492520692295
      0.00064880646556237168
      0.00066225094478328424
      0.00067597401867166131
      0.00068998146022825947
      0.00070427916208117447
      0.00071887313896473531
      0.00073376953024978039
      0.00074897460252635164
      0.00076449475223991641
      0.00078033650838221585
      0.00079650653523786878
      0.00081301163518788958
      0.00082985875157130925
      0.00084705497160608072
      0.00086460752937052646
      0.00088252380884655123
      0.00090081134702592769
      0.00091947783708094723
      0.00093853113160077015
      0.00095797924589483756
      0.00097783036136474114
      0.00099809282894596472
      0.0010187751726209394
      0.0010398860930048979
      0.001061434471006036
      0.0010834293715615226
      0.0011058800474509198
      0.0011287959431886254
      0.0011521866989969783
      0.0011760621548616943
      0.0012004323546713335
      0.0012253075504425437
      0.0012506982066328655
      0.0012766150045429069
      0.0013030688468097323
      0.0013300708619933632
      0.0013576324092583266
      0.0013857650831522127
      0.0014144807184832485
      0.0014437913952989414
      0.0014737094439678986
      0.001504247450366951
      0.0015354182611757485
      0.0015672349892810944
      0.0015997110192932386
      0.0016328600131765084
      0.0016666959159965945
      0.0017012329617869363
      0.0017364856795366755
      0.0017724688993026919
      0.0018091977584482849
      0.0018466877080111298
      0.0018849545192032011
      0.0019240142900453863
      0.0019638834521395602
      0.0020045787775810229
      0.0020461173860141409
      0.002088516751834228
      0.002131794711538629
      0.0021759694712301676
      0.0022210596142760402
      0.0022670841091254577
      0.0023140623172892422
      0.002362014001484817
      0.0024109593339499335
      0.0024609189049287143
      0.0025119137313335173
      0.0025639652655862909
      0.0026170954046431478
      0.0026713264992059534
      0.0027266813631247645
      0.0027831832829951306
      0.0028408560279542701
      0.0028997238596802262
      0.0029598115425982187
      0.0030211443542985301
      0.0030837480961702106
      0.0031476491042551919
      0.0032128742603272802
      0.0032794510032007301
      0.0033474073402731674
      0.003416771859307706
      0.0034875737404591943
      0.0035598427685496667
      0.0036336093455981823
      0.0037089045036103143
      0.0037857599176326145
      0.0038642079190776349
      0.0039442815093250682
      0.0040260143736046928
      0.004109440895167034
      0.0041945961697476509
      0.0042815160203311543
      0.0043702370122211684
      0.0044607964684225563
      0.0045532324853424025
      0.0046475839488163547
      0.0047438905504670528
      0.0048421928044015249
      0.0049425320642546202
      0.0050449505405855705
      0.0051556809903991674
      0.0052714036063437313
      0.0053897236917333545
      0.0055106995484605703
      0.0056343907870418366
      0.00576085835599046
      0.0058901645718488008
      0.0060223731498945769
      0.0061575492355363933
      0.0062908966265749012
      0.0064176155571391714
      0.0065449498624698572
      0.0066725748763734275
      0.0068003011173184405
      0.0069288174006250994
      0.0070569271099494846
      0.0071862905565608613
      0.0073148373985241037
      0.0074450998191039567
      0.0075740942501004126
      0.007704870287195657
      0.0078346560597647458
      0.0079658455582693587
      0.0080965067588538945
      0.0082281375573521713
      0.0083597153473759286
      0.0084918045440016705
      0.0086242165878573727
      0.0087567208921107212
      0.0088899503602597133
      0.0090230117514360966
      0.0091572394959752307
      0.0092908417890213528
      0.0094259485837623579
      0.0095598843122781663
      0.0096953741801160554
      0.0098303225486257861
      0.0099664362231507084
      0.010102094906372334
      0.010238654626576764
      0.010375365081470592
      0.010512481131665799
      0.010649901234114176
      0.010787568965037192
      0.010926027122966336
      0.011064182292814471
      0.011203345743787107
      0.011342174464333131
      0.011482395324885753
      0.011621639533166073
      0.011762282773338358
      0.011902586412116795
      0.012043927089793675
      0.012184958177245478
      0.012326820163894605
      0.012468919130670251
      0.012611496587780994
      0.012754516819533339
      0.012897633984158217
      0.013041427712581969
      0.013185187037419074
      0.01332997638414931
      0.013474297666622885
      0.013619884942516328
      0.013765015049242454
      0.013911394337021836
      0.01405728878136546
      0.014204220620096176
      0.014351221381347548
      0.014498907899261124
      0.014646739662583735
      0.014795107889559575
      0.014944019924228742
      0.01509302256713833
      0.015242685015301223
      0.015392486847693791
      0.015543326709969649
      0.015693754729133279
      0.015845373200295405
      0.015996743324674503
      0.016149297537169028
      0.016301640338555367
      0.016454894826117564
      0.016608111925570011
      0.016762096068385
      0.01691646285832802
      0.0170712202159383
      0.017226418292098339
      0.017382021195929201
      0.017538461817885757
      0.017694722660240671
      0.017851892882666531
      0.018009062823209444
      0.018167409176539202
      0.018325254740802786
      0.018484227613954227
      0.01864313514861788
      0.018802906958097745
      0.018962698326618534
      0.019123212556980098
      0.019284116019639495
      0.019445414160776674
      0.019607186026097314
      0.019769323665213511
      0.019932269945341509
      0.020095172280263168
      0.020259004811176193
      0.020422579421115944
      0.020587260622283863
      0.020751802387935576
      0.020917389701196092
      0.02108283196020394
      0.021249168360977008
      0.021415750556116324
      0.02158288072280079
      0.021750209101884445
      0.021918108887743773
      0.022086665357343997
      0.022255419416550053
      0.022424894225214351
      0.022594489376270541
      0.022765045634029341
      0.02293532808899975
      0.023106682658947518
      0.023278003656193834
      0.023450321218746767
      0.023622519148907565
      0.023795575677390275
      0.02396889943856988
      0.024142889285409141
      0.024317302854720325
      0.024492085541602777
      0.024667373121283965
      0.024842995727622007
      0.025019411220482578
      0.025195815146718877
      0.025373137372581542
      0.025550489747480212
      0.025728903325170398
      0.025907103822429146
      0.026086303696893777
      0.02626561792686586
      0.026445694933251721
      0.026625906784329776
      0.026806838036938296
      0.026988308322406399
      0.02717012134921104
      0.027352438216282068
      0.027535144556224498
      0.027718672648409156
      0.027902185090403476
      0.028086610569469015
      0.028271174919027267
      0.028456792080771988
      0.028642328774123794
      0.028828782882772186
      0.029015149171671858
      0.029202381150241728
      0.029390059674713555
      0.0295782833041329
      0.029766853571324418
      0.029955993113484018
      0.030145837247644931
      0.030335816802712003
      0.030526507929006789
      0.030717454945713346
      0.030909379251319358
      0.031101226382110964
      0.03129410552460813
      0.031487068998409168
      0.031680933512231745
      0.031874776832551611
      0.032069495141152836
      0.032264732089675445
      0.032460476339134098
      0.032656553957565025
      0.032853243147577448
      0.033050682738875778
      0.03324845078615573
      0.033447027610212357
      0.03364548608900856
      0.033844842736430319
      0.034044507910903132
      0.034245190873447053
      0.034445681278308611
      0.034647156283462606
      0.034849056589408706
      0.035051678523011817
      0.035254544459683693
      0.035458088133790477
      0.035662206253328138
      0.035866678450247186
      0.036071727458511289
      0.036277346386865882
      0.036483885183457937
      0.036690284582319169
      0.036897586692873192
      0.037105221412182456
      0.037313874593015842
      0.037522480455346688
      0.037732064805580855
      0.037942111210271794
      0.038152898053911741
      0.038364009294374592
      0.038575653141249257
      0.038787727992402141
      0.039000422607132761
      0.039213901354304255
      0.039427652706109775
      0.039642213149096474
      0.039857142365553419
      0.040073085927267313
      0.04028881984737262
      0.040505593850983207
      0.040722789955593447
      0.040940831380818117
      0.041158909049765449
      0.041377911599414979
      0.041597629844392969
      0.041817817674246915
      0.042038390895953841
      0.042259708220215304
      0.042481907682567127
      0.042704185904835837
      0.042927212530226327
      0.043150793255914428
      0.043375430547122687
      0.043600133086413764
      0.043825830228811584
      0.044051457505361026
      0.044278076306126027
      0.044505287768270653
      0.044733223917279977
      0.044961528012089871
      0.045190632166582027
      0.045420509172302809
      0.045650685535588674
      0.045881466928843317
      0.046112845719761007
      0.046345184068369467
      0.046577588178089879
      0.046810978672346536
      0.04704492783731945
      0.047279870495822433
      0.047514672019442802
      0.047750489212895
      0.047986993923892947
      0.048224186124921409
      0.048461706507408421
      0.048700080075193823
      0.048939295686253853
      0.049179011816834171
      0.049419482556955233
      0.049660116219031214
      0.04990157272087388
      0.050143783568734779
      0.050387106944588297
      0.050630230673935551
      0.050874440276810047
      0.05111922807276819
      0.051364891654729003
      0.051610820889968649
      0.051857667572901549
      0.052105257872464117
      0.052353411791686275
      0.052602129237708614
      0.052851583341436997
      0.053101953725786764
      0.053352564390920988
      0.053604046799309066
      0.053856251893622233
      0.054109572207710739
      0.054362814024860442
      0.054617144592762894
      0.054872020278664883
      0.055127875010197072
      0.055384314170894594
      0.055641523498247428
      0.055899248500261095
      0.056157778733912998
      0.056417129534248669
      0.05667683316824608
      0.05693724862212779
      0.057198590134999262
      0.057461046379073823
      0.057723507360544962
      0.057987008766183866
      0.058251142408795982
      0.058516316760764825
      0.058781707056057404
      0.059048144142741628
      0.059315355120762268
      0.059583315592279466
      0.059851774891380001
      0.060121131950403396
      0.060391410480368786
      0.060662282140861348
      0.060934025933502826
      0.061206339336578243
      0.061479676219973661
      0.061753618175692346
      0.062028680203420859
      0.062303780866704225
      0.062580041765299882
      0.062857187040241541
      0.063135218466154094
      0.063413585608933426
      0.063692921270055713
      0.063973101009225888
      0.064253851015568478
      0.064535241582415831
      0.064817120647702106
      0.06509983631952436
      0.065382603346342077
      0.065666266654100719
      0.065950109576905364
      0.066235019170845594
      0.066519675521584512
      0.066805407619097132
      0.067091581202063683
      0.067378536875702777
      0.067665606079481203
      0.067953508522731437
      0.068242074594811505
      0.068531320303957491
      0.068821321255528756
      0.069111492651390632
      0.069402353016995447
      0.06969366557932076
      0.069985995015956745
      0.070278309439635867
      0.070571701391295205
      0.070865615577266186
      0.071160522142166255
      0.071455514997290762
      0.07175143314592991
      0.072047860813692327
      0.072344927945000567
      0.07264241366393992
      0.07294085477823789
      0.073240298909738516
      0.073540023048025496
      0.073840512135919148
      0.074141610317130541
      0.074443779806235039
      0.074745856981070155
      0.075049013442317611
      0.075352650104131932
      0.075657415520743648
      0.075962951418228411
      0.076269190897113454
      0.076575452527110038
      0.076882840751666709
      0.077191325654662801
      0.077500225023667643
      0.077809703943694145
      0.078119856511804697
      0.078430982663489204
      0.078742606246847924
      0.079055292723496512
      0.079368711396460276
      0.079683243434501644
      0.079997594919542572
      0.080313138604646978
      0.080629717395415482
      0.080947061772550871
      0.081264596430977637
      0.081583261432564849
      0.081903028090873048
      0.082223337649302203
      0.082544352986046884
      0.082866224214817957
      0.083189172192922142
      0.083512620159733791
      0.08383715646152444
      0.084162036423140352
      0.084488080558256795
      0.084814838101389609
      0.085142665859512454
      0.085470970937020607
      0.085800348496430007
      0.086130587415734192
      0.086461506915282163
      0.086792972128405269
      0.087125727451041288
      0.087459772922413637
      0.087793936457404353
      0.088128880715043281
      0.088465129692985617
      0.088802667251705547
      0.089140203993854264
      0.089478911375978881
      0.089818322531438441
      0.090158877372520901
      0.090500167522776648
      0.090842537024152278
      0.091185770792760093
      0.09152999095142593
      0.091875142108993307
      0.092220978835386089
      0.09256767936905598
      0.092915459348802368
      0.093264454319903878
      0.093613866732883452
      0.093964414227111839
      0.094315964922905574
      0.094668722203592154
      0.095021814546732697
      0.095376077892161487
      0.09573112639041198
      0.09608724490576788
      0.096444201800688273
      0.096802329265126497
      0.09716160838701933
      0.097521563600854122
      0.097882401405594538
      0.098244330180066397
      0.098607501490797833
      0.098971066286513018
      0.099335798401320174
      0.099701538439978088
      0.10006857867396482
      0.10043663497905103
      0.1008057039195031
      0.10117495285619821
      0.10154556165368159
      0.10191754160440911
      0.1022903323077939
      0.10266388076732866
      0.10303880538682711
      0.1034151071688289
      0.10379164845238727
      0.10416913904200238
      0.10454801845141683
      0.10492827861111476
      0.10530913887428037
      0.10569128529672892
      0.10607413343503987
      0.10645818005388107
      0.10684299884219502
      0.1072290720369846
      0.10761629569974508
      0.10800472332149409
      0.10839434684455014
      0.10878462612656405
      0.10917583630867339
      0.10956846422259127
      0.1099625080023731
      0.11035654355281736
      0.11075176886118437
      0.11114883014952365
      0.11154712318065327
      0.11194537079386187
      0.11234514409526414
      0.1127466701045866
      0.11314900766313304
      0.11355171496183916
      0.11395586087807351
      0.11436145067927503
      0.11476794942105453
      0.11517556707633866
      0.11558432035998613
      0.11599441828850657
      0.11640521038951393
      0.11681734744110053
      0.11723051891490448
      0.11764509640983881
      0.11806075831925784
      0.11847755375684778
      0.11889483025658118
      0.11931357889661323
      0.11973380648752811
      0.1201548369506681
      0.12057668351577322
      0.12100001444002552
      0.12142483357879547
      0.12185011607954915
      0.12227655837011832
      0.12270449651596342
      0.12313392367298544
      0.12356394531821571
      0.12399540714905945
      0.12442797981267086
      0.12486181889174008
      0.12529648522758799
      0.12573266529164553
      0.12617036469466933
      0.12660886483556213
      0.12704820387031879
      0.12748876574879681
      0.12793068462371904
      0.12837413533786549
      0.1288191232011052
      0.129263945899352
      0.12971010942296701
      0.13015828310445965
      0.13060779450193427
      0.13105761838201052
      0.13150899050744988
      0.13196191453145542
      0.13241601032509243
      0.13287107940841572
      0.13332745187007772
      0.13378515338779962
      0.13424378434221013
      0.13470364088076425
      0.13516467994638731
      0.13562718267144705
      0.13609036640090544
      0.13655503372637517
      0.13702127971716452
      0.13748888342543
      0.13795679600779681
      0.13842644146373698
      0.13889804898658811
      0.13937063408953398
      0.13984390574541303
      0.14031851359972403
      0.14079449465425092
      0.14127173816862695
      0.14175041633861771
      0.14222989973222447
      0.14271078169693188
      0.14319327716789773
      0.14367734266060339
      0.14416151957409534
      0.14464732559496821
      0.14513475576716636
      0.14562336431652531
      0.14611247858904319
      0.14660345377286854
      0.14709638689134052
      0.14759009882494245
      0.14808472396336753
      0.14858099422666562
      0.14907892135378281
      0.14957721410393474
      0.15007683425929338
      0.15057810411131045
      0.15108102046622238
      0.1515850817015274
      0.15209063301407405
      0.15259695609101306
      0.15310478855581225
      0.15361389627886479
      0.15412422161903228
      0.15463559964098378
      0.15514866055056012
      0.15566341241204709
      0.15617910620321876
      0.15669614365016174
      0.15721440399885023
      0.15773425829301205
      0.15825476861272506
      0.15877691504853522
      0.15930075691578249
      0.15982600895021595
      0.16035156271045534
      0.16087883506692394
      0.16140781958303654
      0.16193803668079293
      0.16246933410731862
      0.16300201863168995
      0.16353616866876869
      0.1640720690906862
      0.16460972563337237
      0.16514768094328641
      0.1656870586253483
      0.16622816402618346
      0.16677091461692065
      0.16731373817058204
      0.16785832121416733
      0.16840464559454701
      0.16895236288801771
      0.16950103357090859
      0.17005146819052239
      0.17060366777377253
      0.17115660088736259
      0.17171052537894452
      0.1722662127586233
      0.17282368535014497
      0.17338194299012602
      0.17394178337821098
      0.17450338900438594
      0.17506666381968689
      0.17562999617795441
      0.1761951317811653
      0.17676204786690239
      0.17733057350278253
      0.1779004845322171
      0.17847165018165581
      0.17904395339939258
      0.17961767772404019
      0.18019293848733389
      0.18076913411671655
      0.18134679335109458
      0.18192625433319684
      0.1825075578752535
      0.18308882416090169
      0.18367191105076158
      0.18425742859588731
      0.1848443928631045
      0.18543164715531824
      0.18602051667380221
      0.18661075867732083
      0.18720258069392198
      0.18779593844572526
      0.18839073170723741
      0.18898709553906243
      0.18958438908514816
      0.19018318691727465
      0.19078441590473244
      0.19138764880074208
      0.19199141486324256
      0.19259691066988607
      0.1932030806818695
      0.19381130112162873
      0.19442194597276463
      0.19503403843359859
      0.1956471556420038
      0.19626216811965438
      0.1968790776976436
      0.19749709364046819
      0.19811648895363626
      0.1987377757176674
      0.19936099122085801
      0.1999505707958952
      0.20053562388643445
      0.20112238883564645
      0.20171087065241022
      0.20230107436026062
      0.20289300499743143
      0.20348666761689796
      0.20408206728642089
      0.20467920908858872
      0.20527809812086184
      0.20587873949561539
      0.20648113834018375
      0.2070852997969034
      0.20769122902315748
      0.20829893119141943
      0.20890841148929745
      0.20951967511957834
      0.2101327273002726
      0.21074757326465821
      0.21136421826132581
      0.2119826675542234
      0.21260292642270121
      0.2132250001615566
      0.21384889408107974
      0.21447461350709845
      0.21510216378102404
      0.21573155025989638
      0.21636277831643047
      0.21699585333906138
      0.21763078073199088
      0.21826756591523339
      0.21890621432466223
      0.21954673141205577
      0.22018912264514473
      0.22083339350765782
      0.22147954949936943
      0.22212759613614591
      0.22277753894999347
      0.22342938348910435
      0.22408313531790508
      0.22473880001710353
      0.22539638318373678
      0.22605589043121843
      0.22671732738938741
      0.22738069970455496
      0.22804601303955374
      0.22871327307378544
      0.22938248550327009
      0.23005365604069375
      0.23072679041545799
      0.23140189437372849
      0.23207897367848418
      0.23275803410956614
      0.23343908146372772
      0.23412212155468298
      0.23480716021315717
      0.2354942032869359
      0.23618325664091577
      0.23687432615715351
      0.23756741773491696
      0.23826253729073513
      0.2389596907584487
      0.2396588840892605
      0.24036012325178702
      0.24106341423210825
      0.24176876303381989
      0.24247617567808358
      0.24318565820367941
      0.24389721666705635
      0.24461085714238476
      0.24532658572160784
      0.24604440851449388
      0.24676433164868797
      0.24748636126976511
      0.24821050354128169
      0.24893676464482892
      0.249665150780085
      0.25039566816486875
      0.25112832303519173
      0.25186312164531249
      0.25260007026778902
      0.25333917519353316
      0.25408044273186348
      0.25482387921055999
      0.25556949097591725
      0.25631728439279944
      0.2570672658446938
      0.25781944173376609
      0.25857381848091421
      0.25933040252582401
      0.26008920032702348
      0.26085021836193839
