src/apps/iosdisplay/iosdisplay/OpenColorIOConfigs/spi-vfx/luts/gn16.spi1d
Version 1
From 0.0 1.0
Length 131072
Components 1
{
      0.0001512476135968058
      0.00015129606839762994
      0.0001513445387217912
      0.00015139302457426311
      0.00015144152596002026
      0.00015149004288403885
      0.00015153857535129718
      0.0001515871233667746
      0.00015163568693545205
      0.00015168426606231269
      0.00015173286075234065
      0.00015178147101052166
      0.00015183009684184361
      0.0001518787382512955
      0.0001519273952438678
      0.00015197606782455325
      0.00015202475599834556
      0.00015207345977024007
      0.0001521221791452343
      0.00015217091412832675
      0.0001522196647245176
      0.00015226843093880911
      0.00015231721277620465
      0.00015236601024170917
      0.00015241482334032977
      0.00015246365207707458
      0.00015251249645695339
      0.00015256135648497813
      0.00015261023216616175
      0.0001526591235055188
      0.00015270803050806606
      0.00015275695317882131
      0.00015280589152280396
      0.00015285484554503553
      0.00015290381525053868
      0.00015295280064433778
      0.0001530018017314587
      0.0001530508185169294
      0.00015309985100577897
      0.00015314889920303804
      0.00015319796311373947
      0.00015324704274291713
      0.00015329613809560654
      0.00015334524917684538
      0.00015339437599167234
      0.0001534435185451278
      0.00015349267684225425
      0.00015354185088809527
      0.00015359104068769604
      0.00015364024624610396
      0.00015368946756836739
      0.00015373870465953642
      0.00015378795752466325
      0.00015383722616880115
      0.00015388651059700502
      0.00015393581081433192
      0.00015398512682584002
      0.00015403445863658902
      0.0001540838062516409
      0.00015413316967605861
      0.00015418254891490682
      0.0001542319439732523
      0.00015428135485616291
      0.00015433078156870816
      0.00015438022411595973
      0.0001544296825029903
      0.0001544791567348743
      0.00015452864681668823
      0.00015457815275350973
      0.00015462767455041803
      0.00015467721221249455
      0.00015472676574482179
      0.00015477633515248389
      0.00015482592044056714
      0.00015487552161415894
      0.0001549251386783483
      0.0001549747716382264
      0.00015502442049888555
      0.00015507408526541962
      0.00015512376594292474
      0.00015517346253649805
      0.00015522317505123836
      0.00015527290349224668
      0.00015532264786462507
      0.00015537240817347723
      0.00015542218442390906
      0.00015547197662102753
      0.00015552178476994127
      0.00015557160887576108
      0.00015562144894359884
      0.00015567130497856808
      0.00015572117698578453
      0.00015577106497036497
      0.00015582096893742786
      0.00015587088889209381
      0.00015592082483948457
      0.00015597077678472347
      0.00015602074473293609
      0.00015607072868924909
      0.00015612072865879071
      0.00015617074464669152
      0.000156220776658083
      0.00015627082469809843
      0.0001563208887718732
      0.00015637096888454383
      0.00015642106504124866
      0.0001564711772471275
      0.00015652130550732231
      0.00015657144982697622
      0.00015662161021123399
      0.00015667178666524251
      0.00015672197919414986
      0.0001567721878031057
      0.00015682241249726197
      0.0001568726532817716
      0.00015692291016178927
      0.00015697318314247181
      0.00015702347222897717
      0.00015707377742646492
      0.0001571240987400969
      0.000157174436175036
      0.00015722478973644678
      0.00015727515942949596
      0.00015732554525935147
      0.0001573759472311828
      0.0001574263653501617
      0.00015747679962146096
      0.0001575272500502551
      0.00015757771664172085
      0.00015762819940103598
      0.00015767869833337996
      0.00015772921344393452
      0.00015777974473788237
      0.000157830292220408
      0.00015788085589669808
      0.00015793143577194036
      0.00015798203185132424
      0.00015803264414004144
      0.00015808327264328468
      0.00015813391736624837
      0.00015818457831412913
      0.00015823525549212478
      0.00015828594890543468
      0.00015833665855926045
      0.00015838738445880489
      0.00015843812660927239
      0.00015848888501586957
      0.00015853965968380421
      0.0001585904506182857
      0.00015864125782452567
      0.0001586920813077369
      0.00015874292107313383
      0.00015879377712593306
      0.00015884464947135243
      0.00015889553811461129
      0.00015894644306093137
      0.00015899736431553547
      0.00015904830188364798
      0.00015909925577049563
      0.0001591502259813062
      0.00015920121252130921
      0.00015925221539573632
      0.00015930323460982041
      0.00015935427016879595
      0.00015940532207789969
      0.00015945639034236952
      0.00015950747496744496
      0.00015955857595836777
      0.00015960969332038085
      0.00015966082705872882
      0.00015971197717865845
      0.0001597631436854177
      0.00015981432658425634
      0.00015986552588042571
      0.00015991674157917935
      0.00015996797368577194
      0.00016001922220545978
      0.00016007048714350149
      0.0001601217685051568
      0.00016017306629568709
      0.00016022438052035605
      0.00016027571118442841
      0.00016032705829317062
      0.00016037842185185147
      0.00016042980186574071
      0.0001604811983401099
      0.00016053261128023283
      0.00016058404069138439
      0.00016063548657884114
      0.000160686948947882
      0.00016073842780378687
      0.00016078992315183747
      0.00016084143499731768
      0.00016089296334551256
      0.00016094450820170887
      0.00016099606957119559
      0.0001610476474592629
      0.00016109924187120256
      0.00016115085281230869
      0.00016120248028787649
      0.0001612541243032029
      0.00016130578486358709
      0.00016135746197432936
      0.00016140915564073169
      0.0001614608658680984
      0.00016151259266173487
      0.00016156433602694821
      0.00016161609596904779
      0.00016166787249334409
      0.00016171966560514934
      0.00016177147530977801
      0.00016182330161254572
      0.00016187514451876977
      0.00016192700403376976
      0.00016197888016286638
      0.00016203077291138208
      0.00016208268228464154
      0.00016213460828797062
      0.00016218655092669685
      0.00016223851020615005
      0.00016229048613166118
      0.00016234247870856289
      0.00016239448794219013
      0.00016244651383787899
      0.00016249855640096723
      0.00016255061563679498
      0.00016260269155070339
      0.00016265478414803541
      0.00016270689343413625
      0.00016275901941435224
      0.00016281116209403146
      0.00016286332147852424
      0.00016291549757318209
      0.00016296769038335815
      0.00016301989991440797
      0.0001630721261716882
      0.00016312436916055708
      0.00016317662888637536
      0.00016322890535450479
      0.00016328119857030881
      0.0001633335085391533
      0.00016338583526640514
      0.00016343817875743319
      0.00016349053901760781
      0.0001635429160523017
      0.00016359530986688865
      0.00016364772046674423
      0.00016370014785724627
      0.00016375259204377371
      0.0001638050530317073
      0.00016385753082643004
      0.00016391002543332609
      0.00016396253685778132
      0.00016401506510518388
      0.00016406761018092318
      0.00016412017209039019
      0.00016417275083897831
      0.0001642253464320821
      0.0001642779588750977
      0.00016433058817342375
      0.00016438323433245989
      0.00016443589735760757
      0.00016448857725427055
      0.00016454127402785369
      0.00016459398768376359
      0.00016464671822740925
      0.00016469946566420072
      0.00016475222999954978
      0.00016480501123887064
      0.00016485780938757852
      0.00016491062445109049
      0.00016496345643482587
      0.00016501630534420514
      0.00016506917118465055
      0.00016512205396158666
      0.00016517495368043915
      0.00016522787034663544
      0.00016528080396560537
      0.00016533375454277978
      0.00016538672208359138
      0.00016543970659347516
      0.00016549270807786722
      0.00016554572654220548
      0.00016559876199193015
      0.00016565181443248259
      0.0001657048838693059
      0.00016575797030784554
      0.00016581107375354808
      0.00016586419421186189
      0.00016591733168823766
      0.0001659704861881272
      0.0001660236577169841
      0.00016607684628026429
      0.00016613005188342484
      0.00016618327453192454
      0.0001662365142312246
      0.00016628977098678735
      0.00016634304480407682
      0.00016639633568855947
      0.00016644964364570281
      0.00016650296868097624
      0.00016655631079985137
      0.0001666096700078011
      0.00016666304631029994
      0.00016671643971282487
      0.00016676985022085397
      0.00016682327783986705
      0.00016687672257534639
      0.00016693018443277529
      0.00016698366341763904
      0.00016703715953542459
      0.00016709067279162111
      0.000167144203191719
      0.00016719775074121039
      0.00016725131544558983
      0.00016730489731035296
      0.00016735849634099721
      0.00016741211254302238
      0.00016746574592192939
      0.00016751939648322096
      0.00016757306423240221
      0.00016762674917497933
      0.00016768045131646033
      0.00016773417066235559
      0.00016778790721817664
      0.00016784166098943678
      0.00016789543198165167
      0.00016794922020033813
      0.0001680030256510148
      0.0001680568483392026
      0.00016811068827042372
      0.00016816454545020198
      0.00016821841988406375
      0.00016827231157753644
      0.00016832622053614924
      0.00016838014676543375
      0.00016843409027092276
      0.00016848805105815077
      0.00016854202913265469
      0.0001685960244999726
      0.00016865003716564435
      0.0001687040671352122
      0.00016875811441421953
      0.00016881217900821148
      0.00016886626092273569
      0.00016892036016334083
      0.00016897447673557743
      0.00016902861064499837
      0.00016908276189715773
      0.00016913693049761138
      0.00016919111645191749
      0.00016924531976563552
      0.00016929954044432661
      0.00016935377849355439
      0.00016940803391888359
      0.00016946230672588072
      0.00016951659692011472
      0.00016957090450715572
      0.00016962522949257554
      0.00016967957188194851
      0.00016973393168085007
      0.00016978830889485748
      0.00016984270352955034
      0.00016989711559050951
      0.00016995154508331754
      0.0001700059920135595
      0.00017006045638682152
      0.00017011493820869158
      0.00017016943748476005
      0.00017022395422061851
      0.00017027848842186027
      0.0001703330400940811
      0.00017038760924287792
      0.00017044219587384945
      0.00017049679999259681
      0.00017055142160472231
      0.00017060606071583005
      0.00017066071733152659
      0.00017071539145741956
      0.00017077008309911867
      0.00017082479226223523
      0.00017087951895238291
      0.00017093426317517664
      0.00017098902493623304
      0.00017104380424117128
      0.00017109860109561158
      0.00017115341550517603
      0.00017120824747548919
      0.00017126309701217667
      0.000171317964120866
      0.00017137284880718709
      0.00017142775107677102
      0.00017148267093525067
      0.00017153760838826138
      0.00017159256344143967
      0.00017164753610042382
      0.00017170252637085462
      0.00017175753425837395
      0.00017181255976862555
      0.00017186760290725561
      0.00017192266367991145
      0.00017197774209224223
      0.00017203283814989958
      0.00017208795185853621
      0.00017214308322380679
      0.00017219823225136829
      0.00017225339894687893
      0.00017230858331599875
      0.00017236378536439022
      0.000172419005097717
      0.00017247424252164452
      0.00017252949764184073
      0.0001725847704639747
      0.00017264006099371735
      0.00017269536923674204
      0.00017275069519872332
      0.00017280603888533753
      0.00017286140030226354
      0.00017291677945518134
      0.0001729721763497727
      0.00017302759099172195
      0.00017308302338671453
      0.00017313847354043775
      0.00017319394145858129
      0.00017324942714683615
      0.00017330493061089503
      0.00017336045185645317
      0.00017341599088920696
      0.00017347154771485464
      0.00017352712233909687
      0.00017358271476763555
      0.00017363832500617436
      0.0001736939530604195
      0.00017374959893607831
      0.00017380526263885998
      0.00017386094417447614
      0.00017391664354863968
      0.00017397236076706525
      0.00017402809583546999
      0.00017408384875957226
      0.0001741396195450922
      0.00017419540819775249
      0.00017425121472327692
      0.0001743070391273912
      0.00017436288141582345
      0.000174418741594303
      0.00017447461966856105
      0.00017453051564433124
      0.00017458642952734843
      0.00017464236132334949
      0.00017469831103807297
      0.00017475427867725984
      0.00017481026424665233
      0.00017486626775199446
      0.00017492228919903274
      0.00017497832859351492
      0.00017503438594119056
      0.00017509046124781171
      0.00017514655451913156
      0.00017520266576090526
      0.00017525879497889036
      0.00017531494217884567
      0.00017537110736653175
      0.00017542729054771176
      0.00017548349172814999
      0.00017553971091361262
      0.00017559594810986827
      0.00017565220332268686
      0.00017570847655784002
      0.00017576476782110197
      0.00017582107711824814
      0.00017587740445505577
      0.0001759337498373046
      0.0001759901132707756
      0.00017604649476125154
      0.00017610289431451779
      0.00017615931193636081
      0.00017621574763256896
      0.00017627220140893315
      0.00017632867327124546
      0.00017638516322529977
      0.00017644167127689255
      0.00017649819743182146
      0.00017655474169588596
      0.00017661130407488809
      0.00017666788457463105
      0.00017672448320091996
      0.00017678109995956234
      0.00017683773485636706
      0.00017689438789714469
      0.0001769510590877085
      0.00017700774843387279
      0.00017706445594145386
      0.00017712118161627044
      0.00017717792546414251
      0.00017723468749089192
      0.00017729146770234299
      0.00017734826610432135
      0.00017740508270265435
      0.000177461917503172
      0.00017751877051170548
      0.00017757564173408779
      0.00017763253117615449
      0.00017768943884374238
      0.00017774636474269007
      0.00017780330887883874
      0.00017786027125803083
      0.0001779172518861105
      0.00017797425076892463
      0.00017803126791232117
      0.00017808830332215
      0.00017814535700426352
      0.00017820242896451538
      0.00017825951920876108
      0.00017831662774285862
      0.0001783737545726673
      0.0001784308997040482
      0.00017848806314286502
      0.00017854524489498264
      0.00017860244496626781
      0.00017865966336258983
      0.00017871690008981926
      0.00017877415515382867
      0.00017883142856049241
      0.00017888872031568726
      0.00017894603042529128
      0.00017900335889518444
      0.00017906070573124917
      0.00017911807093936918
      0.00017917545452543005
      0.00017923285649531996
      0.00017929027685492822
      0.00017934771561014612
      0.0001794051727668674
      0.00017946264833098712
      0.00017952014230840219
      0.00017957765470501204
      0.00017963518552671737
      0.00017969273477942078
      0.0001797503024690274
      0.00017980788860144355
      0.00017986549318257754
      0.00017992311621834012
      0.00017998075771464338
      0.00018003841767740125
      0.00018009609611253018
      0.00018015379302594795
      0.00018021150842357413
      0.0001802692423113309
      0.00018032699469514173
      0.00018038476558093189
      0.00018044255497462925
      0.00018050036288216293
      0.00018055818930946393
      0.00018061603426246581
      0.00018067389774710342
      0.00018073177976931344
      0.00018078968033503515
      0.00018084759945020905
      0.0001809055371207776
      0.00018096349335268574
      0.00018102146815187972
      0.00018107946152430765
      0.00018113747347592028
      0.00018119550401266951
      0.00018125355314050921
      0.00018131162086539577
      0.00018136970719328689
      0.00018142781213014212
      0.00018148593568192365
      0.00018154407785459482
      0.00018160223865412096
      0.00018166041808646995
      0.00018171861615761092
      0.00018177683287351492
      0.00018183506824015553
      0.00018189332226350763
      0.00018195159494954804
      0.00018200988630425605
      0.00018206819633361231
      0.00018212652504359937
      0.00018218487244020228
      0.00018224323852940747
      0.00018230162331720314
      0.00018236002680958023
      0.0001824184490125308
      0.00018247688993204911
      0.00018253534957413114
      0.00018259382794477542
      0.00018265232504998178
      0.00018271084089575189
      0.00018276937548809008
      0.0001828279288330019
      0.00018288650093649489
      0.00018294509180457908
      0.00018300370144326585
      0.00018306232985856844
      0.0001831209770565027
      0.0001831796430430858
      0.00018323832782433672
      0.00018329703140627717
      0.00018335575379492999
      0.00018341449499632007
      0.00018347325501647484
      0.00018353203386142295
      0.00018359083153719505
      0.00018364964804982436
      0.00018370848340534541
      0.00018376733760979458
      0.00018382621066921092
      0.00018388510258963471
      0.00018394401337710819
      0.00018400294303767617
      0.00018406189157738479
      0.00018412085900228206
      0.00018417984531841864
      0.00018423885053184643
      0.00018429787464861928
      0.00018435691767479368
      0.00018441597961642734
      0.00018447506047957992
      0.00018453416027031371
      0.00018459327899469227
      0.00018465241665878112
      0.00018471157326864835
      0.00018477074883036337
      0.00018482994334999747
      0.0001848891568336246
      0.00018494838928732004
      0.00018500764071716089
      0.00018506691112922695
      0.0001851262005295993
      0.00018518550892436094
      0.00018524483631959752
      0.00018530418272139592
      0.000185363548135845
      0.00018542293256903626
      0.00018548233602706245
      0.00018554175851601828
      0.00018560120004200111
      0.00018566066061110952
      0.00018572014022944408
      0.00018577963890310803
      0.00018583915663820583
      0.00018589869344084393
      0.00018595824931713138
      0.00018601782427317854
      0.00018607741831509769
      0.00018613703144900381
      0.0001861966636810131
      0.00018625631501724375
      0.00018631598546381658
      0.00018637567502685371
      0.0001864353837124792
      0.00018649511152681972
      0.0001865548584760033
      0.00018661462456616011
      0.00018667440980342208
      0.00018673421419392372
      0.00018679403774380095
      0.00018685388045919151
      0.00018691374234623592
      0.00018697362341107588
      0.00018703352365985511
      0.00018709344309872001
      0.00018715338173381818
      0.00018721333957129929
      0.00018727331661731557
      0.00018733331287802059
      0.00018739332835956989
      0.00018745336306812165
      0.00018751341700983535
      0.00018757349019087245
      0.00018763358261739705
      0.00018769369429557454
      0.00018775382523157229
      0.00018781397543156034
      0.00018787414490171005
      0.00018793433364819466
      0.00018799454167719019
      0.00018805476899487385
      0.00018811501560742492
      0.00018817528152102528
      0.00018823556674185814
      0.00018829587127610869
      0.00018835619512996474
      0.00018841653830961545
      0.00018847690082125193
      0.00018853728267106802
      0.00018859768386525878
      0.00018865810441002131
      0.00018871854431155532
      0.00018877900357606189
      0.00018883948220974406
      0.00018889998021880751
      0.00018896049760945926
      0.00018902103438790834
      0.00018908159056036638
      0.00018914216613304642
      0.00018920276111216336
      0.00018926337550393489
      0.00018932400931457994
      0.0001893846625503195
      0.00018944533521737713
      0.00018950602732197781
      0.00018956673887034843
      0.00018962746986871861
      0.0001896882203233193
      0.00018974899024038334
      0.00018980977962614642
      0.00018987058848684538
      0.00018993141682871912
      0.00018999226465800926
      0.00019005313198095872
      0.00019011401880381236
      0.0001901749251328178
      0.00019023585097422392
      0.00019029679633428167
      0.00019035776121924459
      0.00019041874563536766
      0.00019047974958890797
      0.00019054077308612447
      0.00019060181613327876
      0.00019066287873663378
      0.00019072396090245449
      0.00019078506263700846
      0.00019084618394656474
      0.00019090732483739421
      0.00019096848531577058
      0.00019102966538796879
      0.00019109086506026589
      0.0001911520843389415
      0.00019121332323027669
      0.00019127458174055448
      0.00019133585987606057
      0.00019139715764308202
      0.00019145847504790792
      0.00019151981209683002
      0.00019158116879614142
      0.00019164254515213725
      0.00019170394117111532
      0.00019176535685937475
      0.00019182679222321677
      0.0001918882472689452
      0.00019194972200286528
      0.00019201121643128418
      0.00019207273056051191
      0.00019213426439685969
      0.0001921958179466408
      0.00019225739121617126
      0.0001923189842117684
      0.00019238059693975159
      0.00019244222940644287
      0.00019250388161816569
      0.00019256555358124547
      0.00019262724530201035
      0.00019268895678678982
      0.00019275068804191538
      0.00019281243907372131
      0.00019287420988854312
      0.00019293600049271847
      0.00019299781089258768
      0.00019305964109449236
      0.00019312149110477624
      0.00019318336092978577
      0.00019324525057586866
      0.00019330716004937475
      0.0001933690893566565
      0.00019343103850406784
      0.00019349300749796464
      0.00019355499634470552
      0.00019361700505065045
      0.00019367903362216147
      0.0001937410820656033
      0.000193803150387342
      0.00019386523859374574
      0.00019392734669118538
      0.00019398947468603312
      0.0001940516225846632
      0.00019411379039345258
      0.00019417597811877965
      0.00019423818576702476
      0.00019430041334457101
      0.0001943626608578029
      0.00019442492831310692
      0.00019448721571687231
      0.00019454952307548971
      0.00019461185039535174
      0.00019467419768285382
      0.00019473656494439269
      0.00019479895218636712
      0.00019486135941517869
      0.00019492378663723029
      0.00019498623385892685
      0.00019504870108667609
      0.00019511118832688708
      0.00019517369558597113
      0.0001952362228703414
      0.0001952987701864138
      0.00019536133754060564
      0.00019542392493933621
      0.00019548653238902762
      0.00019554915989610327
      0.00019561180746698869
      0.00019567447510811212
      0.00019573716282590321
      0.00019579987062679359
      0.00019586259851721774
      0.0001959253465036114
      0.00019598811459241248
      0.00019605090279006159
      0.00019611371110300071
      0.0001961765395376739
      0.00019623938810052797
      0.00019630225679801108
      0.00019636514563657349
      0.00019642805462266822
      0.00019649098376274963
      0.00019655393306327416
      0.00019661690253070107
      0.00019667989217149091
      0.00019674290199210633
      0.00019680593199901278
      0.00019686898219867702
      0.00019693205259756793
      0.00019699514320215718
      0.00019705825401891775
      0.00019712138505432474
      0.00019718453631485601
