src/apps/iosdisplay/iosdisplay/OpenColorIOConfigs/spi-vfx/luts/gn8.spi1d
Version 1
From 0.0 1.0
Length 512
Components 1
{
      0.0001512476135968058
      0.00016419899506623839
      0.00017825940746831048
      0.00019352381747607186
      0.00021009532378912343
      0.0002280858534816485
      0.00024761691797894864
      0.00026882043376849158
      0.00029183961338870876
      0.00031682993271344801
      0.00034396018106530157
      0.00037341360125047737
      0.00040538912721521669
      0.00044010272768312838
      0.00047778886484861675
      0.0005187020779786935
      0.00056311870261911896
      0.00061133873701671427
      0.00066368786836401247
      0.00072051967255188645
      0.00078221800228769661
      0.00084919957970875954
      0.00092191681100213486
      0.0010008608420412045
      0.0010865648756773895
      0.0011796077730926082
      0.001280617963536718
      0.0013902776888569872
      0.0015093276114880193
      0.0016385718170253006
      0.0017788832451707307
      0.0019312095857317488
      0.0020965796794967522
      0.0022761104672195187
      0.0024710145336473872
      0.0026826082975469801
      0.0029123209030444451
      0.0031617038723340059
      0.0034324415849510074
      0.0037263626543885212
      0.004045452278897162
      0.004391865649887956
      0.0047679425085009374
      0.0051846527857352812
      0.0056667910759103657
      0.0061937650263426854
      0.0067074659077218822
      0.007221943101034408
      0.0077412248480880248
      0.0082657750679991562
      0.0087956209697137785
      0.0093310901265976666
      0.0098718931336718285
      0.010418274390997085
      0.010970131975530859
      0.011527187124600002
      0.012090112435341627
      0.012659177151084455
      0.013234311638560373
      0.013815644935769821
      0.014403363992062886
      0.014997712204026743
      0.015598069257095991
      0.016205476888298972
      0.016819930999256424
      0.017441554343663356
      0.018070268894836938
      0.018706014565648414
      0.019348728941954496
      0.019998335592725909
      0.02065472202396363
      0.021318446705547153
      0.021989200284518281
      0.022667427887828329
      0.023352827981101814
      0.024045615941849695
      0.024745829778437967
      0.025453214012139028
      0.026168263835725646
      0.026890851089372045
      0.027621189874643674
      0.028359328647737606
      0.02910529670519436
      0.029859120309432101
      0.030620633789098812
      0.031390250179800905
      0.032167920675959576
      0.032953940216070149
      0.033748333461474683
      0.034550904943091251
      0.035362207548298163
      0.036181549745111577
      0.037009605883406356
      0.037846603141922723
      0.038692544788034362
      0.03954717585911325
      0.040410893947837666
      0.041283616810321035
      0.042165701459305864
      0.043057064115966256
      0.043958151972455735
      0.044868457690235057
      0.045788743586635552
      0.046718579183975678
      0.047658607167820832
      0.048608636713865915
      0.049569224588528457
      0.050539697306286976
      0.051520686994182815
      0.052512435648112532
      0.053514834572483017
      0.054528479943479265
      0.055553534935479446
      0.056589446848685478
      0.057636622155434906
      0.058695362433101222
      0.059766009983385188
      0.060848809165608454
      0.061944060724086231
      0.063051537032856847
      0.064170935466451237
      0.065300675537182107
      0.066438778103917989
      0.067585710932071552
      0.068742315168625626
      0.069908073520855818
      0.071083818914403935
      0.072269441233787438
      0.073465531721700714
      0.074672467739831508
      0.075890492079000532
      0.077119980662847157
      0.078360856181259056
      0.079614271271429393
      0.080879490051807779
      0.082156903889463437
      0.08344735710920792
      0.08475079407486813
      0.086067802594397905
      0.087398228260314834
      0.088742463712279743
      0.090100233378294065
      0.091472704244503933
      0.092859577965345844
      0.09426153162855247
      0.095678237192491439
      0.097110201273316391
      0.098557672751019731
      0.10002040879758035
      0.10149906893656886
      0.10299397640320619
      0.10450494498432375
      0.10603286017785959
      0.10757682751140661
      0.10913826209906341
      0.11071613295076151
      0.11231142149076376
      0.11392417293827173
      0.11555468273470128
      0.11720298274885813
      0.11886947420485197
      0.12055353032959268
      0.12225566056522034
      0.12397681747183109
      0.12571642006553851
      0.12747495343341264
      0.12925261562566279
      0.13104880072156208
      0.13286483503256882
      0.13470003511088283
      0.13655412286476404
      0.13842828416085012
      0.1403231631442369
      0.14223741571721477
      0.14417196008895541
      0.14612590207585824
      0.14810120766298981
      0.15009642276446308
      0.1521133863584675
      0.15415019997201906
      0.15620840312161022
      0.15828741627144408
      0.16038762271653514
      0.16250891306690193
      0.16465294069309463
      0.1668175854318994
      0.16900275345432675
      0.17121072197374021
      0.17343992477611797
      0.17569184133688975
      0.1779664042278033
      0.1802628605048586
      0.18258146504030992
      0.18492243279909815
      0.18728491146610604
      0.18967098656512482
      0.19208255121820086
      0.19451771997766992
      0.19697946313382717
      0.19946528101071567
      0.20181354145274971
      0.20418944744330059
      0.20659332444726972
      0.20902550176118403
      0.21148631255830583
      0.2139760939342718
      0.216495186953271
      0.21904393669476513
      0.22162269230075995
      0.22423180702363238
      0.22687163827452117
      0.22954254767228685
      0.23224490109304874
      0.23497906872030414
      0.23774542509563865
      0.24054434917003253
      0.24337622435577205
      0.24624143857897082
      0.2491403843327108
      0.25207345873080717
      0.25504106356220863
      0.25804360534603532
      0.26108149538726705
      0.26415514983308541
      0.26726498972988066
      0.27041144108092846
      0.27359493490474657
      0.27681590729413774
      0.28007479947592884
      0.28337205787141162
      0.28670813415749702
      0.29008348532858752
      0.29349857375917954
      0.29695386726720135
      0.30044983917809809
      0.30398696838966999
      0.3075657394376749
      0.31118664256220219
      0.31485017377482938
      0.3185568349265675
      0.32230713377660858
      0.32610158406188061
      0.32994070556742222
      0.33382502419758586
      0.33775507204807936
      0.34173138747885462
      0.34575451518785622
      0.34982500628563606
      0.35394341837084864
      0.3581103156066332
      0.36232626879789659
      0.36659185546950468
      0.37090765994539565
      0.37527427342862318
      0.37969229408234356
      0.38416232711175485
      0.38868498484700154
      0.39326088682705496
      0.39789065988458022
      0.40257493823180596
      0.40731436354739875
      0.41210958506436673
      0.41696125965899272
      0.42187005194082006
      0.42683663434369057
      0.43186168721786172
      0.43694589892320213
      0.44208996592349004
      0.44729459288181522
      0.45256049275711074
      0.45788838690181538
      0.46327900516069209
      0.46873308597080188
      0.47425137646266274
      0.47983463256259296
      0.48548361909626525
      0.49119910989347321
      0.49698188789413811
      0.50283274525555721
      0.5087524834609225
      0.51474191342910647
      0.52080185562575165
      0.52693314017565807
      0.53313660697650367
      0.53941310581389224
      0.54576349647776634
      0.55218864888018349
      0.55868944317448443
      0.56526676987585722
      0.57192152998332968
      0.57865463510318849
      0.58546700757386161
      0.5923595805922599
      0.59933329834161597
      0.60638911612081958
      0.61352800047528555
      0.62075092932934972
      0.62805889212023591
      0.63545288993359139
      0.64293393564062429
      0.65050305403684772
      0.65745321798303924
      0.66445214045499312
      0.67152557000125901
      0.67867429978737581
      0.68589913142253323
      0.69320087504945493
      0.70058034943524672
      0.70803838206320235
      0.71557580922559605
      0.7231934761174551
      0.73089223693133865
      0.73867295495311525
      0.74653650265877103
      0.75448376181223842
      0.76251562356427682
      0.77063298855239359
      0.77883676700184068
      0.78712787882767665
      0.79550725373792486
      0.80397583133781825
      0.81253456123516554
      0.82118440314682939
      0.82992632700634772
      0.83876131307268864
      0.84769035204017618
      0.8567144451495744
      0.8658346043003663
      0.87505185216421311
      0.88436722229963727
      0.8937817592679117
      0.90329651875019734
      0.91291256766591178
      0.922630984292373
      0.93245285838570413
      0.9423792913030381
      0.95241139612600867
      0.96255029778556978
      0.97279713318813232
      0.98315305134305597
      0.99361921349148241
      1.004196793236557
      1.0148869766750213
      1.025690962530222
      1.0366099622865184
      1.0476452003251377
      1.0587979140614623
      1.070069354083792
      1.0814607842935682
      1.0929734820471066
      1.1046087382988246
      1.116367857746007
      1.1282521589750985
      1.1402629746095667
      1.152401651459328
      1.1646695506717775
      1.1770680478844078
      1.1895985333790737
      1.2022624122378809
      1.2150611045007502
      1.2279960453246421
      1.2410686851444928
      1.2542804898358497
      1.2676329408792528
      1.2811275355263478
      1.2947657869677858
      1.3085492245028951
      1.3224793937111754
      1.3365578566255973
      1.3507861919077677
      1.3651659950249411
      1.3796988784289355
      1.3943864717369288
      1.4092304219142033
      1.424232393458817
      1.4393940685882585
      1.4547171474280671
      1.4702033482024843
      1.4858544074271145
      1.5016720801036558
      1.5176581399166826
      1.5338143794325438
      1.5501426103003608
      1.566644663455184
      1.5833223893232875
      1.600177658029676
      1.6172123596077757
      1.6344284042113837
      1.6518277223288447
      1.6694122649995344
      1.6871840040326256
      1.7051449322282053
      1.7232970636007205
      1.7416424336048255
      1.7601830993636172
      1.7789211398993143
      1.797858656366375
      1.8169977722871147
      1.8363406337898145
      1.8558894098493859
      1.8756462925305684
      1.8956134972337466
      1.9157932629433587
      1.9361878524789744
      1.9567995527490145
      1.9776306750072059
      1.9986835551117341
      2.0199605537871874
      2.0414640568892546
      2.0631964756722718
      2.0851602470595942
      2.1073578339168666
      2.1297917253281793
      2.1524644368751886
      2.1753785109191854
      2.1985365168861928
      2.2219410515550666
      2.2455947393486952
      2.2695002326282712
      2.2936602119907241
      2.3180773865692856
      2.3427544943372918
      2.3676943024151815
      2.3928996073808042
      2.4183732355829863
      2.4441180434584755
      2.4701369178522286
      2.4964327763411385
      2.5230085675611731
      2.5498672715380293
      2.5770119000212799
      2.604445496822108
      2.6321711381545967
      2.6601919329806947
      2.6885110233588168
      2.7171315847961921
      2.7460568266049217
      2.7752899922618663
      2.8048343597723338
      2.8346932420376687
      2.8648699872267174
      2.8953679791512874
      2.9261906376455689
      2.9573414189496301
      2.9888238160969531
      3.0206413593061399
      3.0527976163767474
      3.0852961930893796
      3.1181407336099878
      3.1513349208985244
      3.1848824771219069
      3.2187871640714181
      3.2530527835844976
      3.2876831779710867
      3.3226822304444448
      3.358053865556621
      3.3938020496384933
      3.4299307912445514
      3.4664441416023668
      3.5033461950668952
      3.5406410895795593
      3.578333007132275
      3.616426174236369
      3.6549248623965367
      3.6938333885897894
      3.7331561157495559
      3.7728974532548891
      3.8130618574249309
      3.8536538320185851
      3.8946779287395534
      3.9361387477467273
      3.9780409381700261
      4.0203891986317002
      4.0631882777732278
      4.1064429747877602
      4.1501581399583181
      4.194338675201613
      4.2389895346177653
      4.2841157250457806
      4.329722306625019
      4.3758143933625764
      4.4223971537067461
      4.469475811126566
      4.5170556446975683
      4.5651419896936867
      4.6137402381855752
      4.6628558396451867
      4.712494301556891
      4.7626611900349891
      4.8133621304479126
      4.8646028080489669
      4.9163889686138766
      4.9687264190850495
      5.0216210282227376
      5.0750787272631124
      5.1291055105833792
      5.1837074363738944
      5.2388906273175468
      5.2946612712762597
      5.3510256219849035
      5.4079899997525089
      5.4655607921710034
      5.5237444548314603
      5.5825475120479977
      5.6419765575893557
      5.7020382554182811
      5.7627393404387766
      5.8240866192513288
      5.886086970916101
      5.9487473477243684
      6.0120747759780384
      6.0760763567775848
}
