src/apps/iosdisplay/iosdisplay/OpenColorIOConfigs/spi-vfx/luts/gnf.spi1d
Version 1
From -0.25 3.055
Length 131072
Components 1
{
      6.7058853787067256e-10
      6.714227620056232e-10
      6.7225802393031837e-10
      6.7309432493578859e-10
      6.7393166631466725e-10
      6.7477004936119597e-10
      6.756094753712295e-10
      6.7644994564223475e-10
      6.772914614732877e-10
      6.7813402416508541e-10
      6.789776350199432e-10
      6.7982229534179281e-10
      6.806680064361883e-10
      6.8151476961031129e-10
      6.823625861729677e-10
      6.8321145743459337e-10
      6.8406138470725094e-10
      6.8491236930463556e-10
      6.8576441254207959e-10
      6.866175157365502e-10
      6.8747168020665478e-10
      6.8832690727263552e-10
      6.8918319825638431e-10
      6.9004055448143046e-10
      6.9089897727295651e-10
      6.9175846795778682e-10
      6.9261902786440324e-10
      6.934806583229334e-10
      6.9434336066516476e-10
      6.9520713622454141e-10
      6.9607198633616129e-10
      6.9693791233679006e-10
      6.9780491556484936e-10
      6.9867299736043301e-10
      6.9954215906529475e-10
      7.004124020228645e-10
      7.0128372757823649e-10
      7.0215613707818358e-10
      7.0302963187115379e-10
      7.039042133072676e-10
      7.0477988273833034e-10
      7.0565664151782891e-10
      7.065344910009304e-10
      7.0741343254448803e-10
      7.0829346750704616e-10
      7.0917459724883757e-10
      7.1005682313178906e-10
      7.1094014651951802e-10
      7.1182456877733825e-10
      7.1271009127226561e-10
      7.1359671537301466e-10
      7.1448444245000467e-10
      7.1537327387535582e-10
      7.1626321102289568e-10
      7.1715425526816397e-10
      7.1804640798841209e-10
      7.1893967056259891e-10
      7.1983404437140634e-10
      7.2072953079722657e-10
      7.2162613122417679e-10
      7.2252384703809597e-10
      7.2342267962654389e-10
      7.2432263037880619e-10
      7.2522370068590038e-10
      7.2612589194057455e-10
      7.2702920553730385e-10
      7.2793364287230555e-10
      7.2883920534352657e-10
      7.2974589435066012e-10
      7.3065371129513327e-10
      7.3156265758012217e-10
      7.3247273461054666e-10
      7.3338394379307597e-10
      7.3429628653612582e-10
      7.3520976424986389e-10
      7.3612437834621595e-10
      7.3704013023886229e-10
      7.3795702134324357e-10
      7.3887505307655789e-10
      7.3979422685776596e-10
      7.4071454410759795e-10
      7.4163600624855078e-10
      7.4255861470488605e-10
      7.4348237090264421e-10
      7.4440727626963236e-10
      7.4533333223544144e-10
      7.4626054023143303e-10
      7.4718890169075525e-10
      7.4811841804833909e-10
      7.4904909074089471e-10
      7.4998092120692733e-10
      7.5091391088672417e-10
      7.5184806122237151e-10
      7.5278337365774229e-10
      7.5371984963851133e-10
      7.5465749061215165e-10
      7.5559629802793154e-10
      7.565362733369296e-10
      7.5747741799202221e-10
      7.5841973344790044e-10
      7.5936322116105772e-10
      7.6030788258980499e-10
      7.6125371919426545e-10
      7.6220073243638239e-10
      7.631489237799066e-10
      7.6409829469042107e-10
      7.650488466353282e-10
      7.660005810838579e-10
      7.6695349950706188e-10
      7.6790760337782972e-10
      7.6886289417087556e-10
      7.6981937336275381e-10
      7.7077704243185584e-10
      7.7173590285840636e-10
      7.7269595612447925e-10
      7.7365720371398422e-10
      7.7461964711268487e-10
      7.7558328780818541e-10
      7.7654812728994829e-10
      7.7751416704928122e-10
      7.7848140857935303e-10
      7.7944985337518971e-10
      7.8041950293367362e-10
      7.8139035875354902e-10
      7.8236242233542866e-10
      7.8333569518179192e-10
      7.8431017879698174e-10
      7.852858746872179e-10
      7.8626278436059438e-10
      7.8724090932707511e-10
      7.8822025109851051e-10
      7.892008111886235e-10
      7.9018259111302664e-10
      7.9116559238921718e-10
      7.9214981653657691e-10
      7.9313526507637732e-10
      7.9412193953178662e-10
      7.951098414278656e-10
      7.9609897229157447e-10
      7.9708933365176686e-10
      7.9808092703920657e-10
      7.990737539865534e-10
      8.0006781602838195e-10
      8.0106311470116792e-10
      8.0205965154330635e-10
      8.0305742809509791e-10
      8.0405644589876565e-10
      8.0505670649845124e-10
      8.0605821144021098e-10
      8.0706096227203274e-10
      8.08064960543822e-10
      8.0907020780741849e-10
      8.1007670561659218e-10
      8.1108445552704231e-10
      8.1209345909640324e-10
      8.1310371788425091e-10
      8.1411523345210183e-10
      8.1512800736340852e-10
      8.1614204118357502e-10
      8.1715733647995228e-10
      8.1817389482183735e-10
      8.1919171778047936e-10
      8.2021080692908639e-10
      8.2123116384282115e-10
      8.2225279009880822e-10
      8.2327568727612806e-10
      8.2429985695583362e-10
      8.2532530072093654e-10
      8.2635202015642383e-10
      8.2738001684925444e-10
      8.2840929238835713e-10
      8.294398483646376e-10
      8.3047168637098454e-10
      8.3150480800226845e-10
      8.3253921485533761e-10
      8.3357490852903495e-10
      8.3461189062418431e-10
      8.3565016274360692e-10
      8.3668972649211828e-10
      8.3773058347652592e-10
      8.3877273530563638e-10
      8.3981618359026169e-10
      8.4086092994321781e-10
      8.4190697597932085e-10
      8.4295432331540388e-10
      8.4400297357030341e-10
      8.450529283648756e-10
      8.461041893219934e-10
      8.4715675806654208e-10
      8.4821063622543483e-10
      8.4926582542760845e-10
      8.5032232730402219e-10
      8.5138014348766427e-10
      8.5243927561355841e-10
      8.5349972531876244e-10
      8.5456149424236422e-10
      8.5562458402549743e-10
      8.566889963113368e-10
      8.5775473274509527e-10
      8.5882179497404077e-10
      8.598901846474819e-10
      8.6095990341678766e-10
      8.6203095293537279e-10
      8.6310333485871746e-10
      8.6417705084435288e-10
      8.6525210255188045e-10
      8.6632849164295796e-10
      8.6740621978131653e-10
      8.684852886327551e-10
      8.6956569986514661e-10
      8.70647455148435e-10
      8.717305561546414e-10
      8.7281500455787142e-10
      8.7390080203431309e-10
      8.7498795026223348e-10
      8.7607645092199355e-10
      8.7716630569604505e-10
      8.7825751626892796e-10
      8.7935008432727845e-10
      8.8044401155983453e-10
      8.8153929965743351e-10
      8.8263595031301788e-10
      8.8373396522163197e-10
      8.8483334608042872e-10
      8.859340945886769e-10
      8.87036212447759e-10
      8.8813970136116768e-10
      8.8924456303452321e-10
      8.903507991755593e-10
      8.9145841149414047e-10
      8.9256740170225834e-10
      8.9367777151402792e-10
      8.9478952264570503e-10
      8.9590265681567201e-10
      8.9701717574445769e-10
      8.9813308115472227e-10
      8.9925037477127814e-10
      9.0036905832107411e-10
      9.0148913353321431e-10
      9.0261060213895375e-10
      9.0373346587169458e-10
      9.0485772646700421e-10
      9.059833856626002e-10
      9.0711044519836856e-10
      9.0823890681635963e-10
      9.0936877226078443e-10
      9.1050004327803041e-10
      9.1163272161665751e-10
      9.1276680902739628e-10
      9.1390230726315566e-10
      9.1503921807902928e-10
      9.1617754323229441e-10
      9.1731728448240744e-10
      9.1845844359102278e-10
      9.1960102232197725e-10
      9.207450224413087e-10
      9.2189044571725185e-10
      9.2303729392023461e-10
      9.2418556882289604e-10
      9.2533527220007177e-10
      9.2648640582881397e-10
      9.2763897148837666e-10
      9.2879297096023639e-10
      9.2994840602807684e-10
      9.3110527847780721e-10
      9.3226359009755862e-10
      9.3342334267767966e-10
      9.3458453801075559e-10
      9.3574717789159215e-10
      9.3691126411723489e-10
      9.3807679848696501e-10
      9.3924378280229502e-10
      9.4041221886698758e-10
      9.4158210848704061e-10
      9.4275345347070731e-10
      9.4392625562848152e-10
      9.4510051677311613e-10
      9.4627623871961702e-10
      9.4745342328525017e-10
      9.4863207228953748e-10
      9.4981218755426463e-10
      9.5099377090348811e-10
      9.521768241635336e-10
      9.5336134916299178e-10
      9.545473477327374e-10
      9.5573482170591395e-10
      9.5692377291795373e-10
      9.5811420320656421e-10
      9.5930611441174764e-10
      9.6049950837578582e-10
      9.6169438694325964e-10
      9.6289075196104506e-10
      9.6408860527830762e-10
      9.6528794874652364e-10
      9.6648878421946276e-10
      9.6769111355320765e-10
      9.6889493860615045e-10
      9.7010026123899011e-10
      9.7130708331474065e-10
      9.7251540669873799e-10
      9.7372523325863889e-10
      9.7493656486441625e-10
      9.7614940338837684e-10
      9.7736375070515553e-10
      9.7857960869171343e-10
      9.7979697922735526e-10
      9.8101586419371425e-10
      9.8223626547477181e-10
      9.8345818495685293e-10
      9.8468162452862457e-10
      9.8590658608110288e-10
      9.8713307150766168e-10
      9.8836108270402979e-10
      9.8959062156828746e-10
      9.908216900008832e-10
      9.9205428990462978e-10
      9.9328842318469993e-10
      9.9452409174864618e-10
      9.957612975063841e-10
      9.9700004237021526e-10
      9.9824032825481008e-10
      9.9948215707723098e-10
      1.0007255307569154e-09
      1.0019704512156982e-09
      1.0032169203777952e-09
      1.0044649401698236e-09
      1.0057145125207951e-09
      1.0069656393621227e-09
      1.008218322627618e-09
      1.0094725642534982e-09
      1.0107283661783936e-09
      1.0119857303433469e-09
      1.0132446586918074e-09
      1.0145051531696502e-09
      1.0157672157251704e-09
      1.0170308483090824e-09
      1.0182960528745269e-09
      1.0195628313770799e-09
      1.020831185774747e-09
      1.0221011180279725e-09
      1.0233726300996346e-09
      1.0246457239550528e-09
      1.0259204015619972e-09
      1.0271966648906855e-09
      1.0284745159137788e-09
      1.0297539566064024e-09
      1.0310349889461285e-09
      1.0323176149129999e-09
      1.0336018364895118e-09
      1.0348876556606366e-09
      1.0361750744138053e-09
      1.037464094738929e-09
      1.0387547186283922e-09
      1.0400469480770596e-09
      1.0413407850822736e-09
      1.0426362316438606e-09
      1.0439332897641399e-09
      1.0452319614479219e-09
      1.0465322487025033e-09
      1.0478341535376885e-09
      1.0491376779657713e-09
      1.050442824001557e-09
      1.0517495936623569e-09
      1.0530579889679847e-09
      1.0543680119407739e-09
      1.0556796646055743e-09
      1.0569929489897494e-09
      1.0583078671231846e-09
      1.0596244210382959e-09
      1.0609426127700274e-09
      1.0622624443558472e-09
      1.0635839178357682e-09
      1.064907035252331e-09
      1.0662317986506245e-09
      1.0675582100782824e-09
      1.0688862715854771e-09
      1.0702159852249425e-09
      1.0715473530519555e-09
      1.0728803771243603e-09
      1.0742150595025501e-09
      1.0755514022494928e-09
      1.0768894074307111e-09
      1.0782290771143057e-09
      1.0795704133709475e-09
      1.0809134182738886e-09
      1.0822580938989439e-09
      1.0836044423245268e-09
      1.0849524656316316e-09
      1.086302165903843e-09
      1.0876535452273306e-09
      1.0890066056908695e-09
      1.0903613493858225e-09
      1.0917177784061651e-09
      1.0930758948484666e-09
      1.0944357008119132e-09
      1.0957971983982992e-09
      1.0971603897120363e-09
      1.0985252768601492e-09
      1.0998918619522834e-09
      1.1012601471007144e-09
      1.1026301344203451e-09
      1.1040018260287017e-09
      1.1053752240459554e-09
      1.1067503305949039e-09
      1.1081271478009963e-09
      1.1095056777923156e-09
      1.1108859226996025e-09
      1.1122678846562379e-09
      1.1136515657982645e-09
      1.1150369682643822e-09
      1.1164240941959439e-09
      1.1178129457369766e-09
      1.1192035250341639e-09
      1.1205958342368684e-09
      1.1219898754971258e-09
      1.1233856509696443e-09
      1.1247831628118118e-09
      1.1261824131837064e-09
      1.12758340424809e-09
      1.1289861381704179e-09
      1.1303906171188312e-09
      1.1317968432641789e-09
      1.1332048187799997e-09
      1.1346145458425473e-09
      1.1360260266307719e-09
      1.137439263326342e-09
      1.1388542581136407e-09
      1.1402710131797598e-09
      1.1416895307145236e-09
      1.1431098129104687e-09
      1.1445318619628708e-09
      1.1459556800697256e-09
      1.1473812694317711e-09
      1.1488086322524831e-09
      1.1502377707380705e-09
      1.1516686870974974e-09
      1.1531013835424657e-09
      1.1545358622874387e-09
      1.1559721255496242e-09
      1.1574101755489961e-09
      1.1588500145082905e-09
      1.1602916446530024e-09
      1.161735068211396e-09
      1.1631802874145125e-09
      1.1646273044961662e-09
      1.166076121692953e-09
      1.1675267412442457e-09
      1.1689791653922022e-09
      1.1704333963817762e-09
      1.1718894364607139e-09
      1.173347287879549e-09
      1.1748069528916237e-09
      1.176268433753083e-09
      1.1777317327228706e-09
      1.1791968520627513e-09
      1.1806637940372924e-09
      1.1821325609138869e-09
      1.1836031549627484e-09
      1.1850755784569092e-09
      1.1865498336722287e-09
      1.1880259228874041e-09
      1.1895038483839667e-09
      1.1909836124462776e-09
      1.1924652173615514e-09
      1.1939486654198361e-09
      1.1954339589140404e-09
      1.1969211001399141e-09
      1.1984100913960739e-09
      1.1999009349839848e-09
      1.2013936332079836e-09
      1.2028881883752708e-09
      1.20438460279592e-09
      1.2058828787828728e-09
      1.2073830186519477e-09
      1.2088850247218508e-09
      1.2103888993141689e-09
      1.2118946447533804e-09
      1.2134022633668494e-09
      1.214911757484835e-09
      1.2164231294405016e-09
      1.2179363815699158e-09
      1.2194515162120413e-09
      1.2209685357087606e-09
      1.2224874424048696e-09
      1.2240082386480748e-09
      1.2255309267890042e-09
      1.2270555091812146e-09
      1.2285819881811923e-09
      1.2301103661483445e-09
      1.231640645445024e-09
      1.2331728284365213e-09
      1.234706917491061e-09
      1.2362429149798256e-09
      1.2377808232769353e-09
      1.2393206447594758e-09
      1.2408623818074784e-09
      1.2424060368039464e-09
      1.2439516121348361e-09
      1.2454991101890838e-09
      1.2470485333585859e-09
      1.2485998840382233e-09
      1.2501531646258526e-09
      1.2517083775223205e-09
      1.2532655251314412e-09
      1.2548246098600382e-09
      1.2563856341179227e-09
      1.2579486003179066e-09
      1.2595135108757949e-09
      1.2610803682104094e-09
      1.2626491747435694e-09
      1.2642199329001154e-09
      1.2657926451079052e-09
      1.2673673137978072e-09
      1.2689439414037232e-09
      1.2705225303625828e-09
      1.2721030831143413e-09
      1.273685602101989e-09
      1.2752700897715613e-09
      1.2768565485721374e-09
      1.2784449809558327e-09
      1.2800353893778266e-09
      1.2816277762963394e-09
      1.283222144172663e-09
      1.2848184954711376e-09
      1.2864168326591821e-09
      1.2880171582072728e-09
      1.2896194745889677e-09
      1.2912237842809032e-09
      1.2928300897627892e-09
      1.2944383935174211e-09
      1.2960486980306894e-09
      1.2976610057915733e-09
      1.2992753192921486e-09
      1.3008916410275979e-09
      1.3025099734961886e-09
      1.3041303191993149e-09
      1.3057526806414766e-09
      1.3073770603302924e-09
      1.309003460776491e-09
      1.3106318844939335e-09
      1.3122623339996089e-09
      1.3138948118136312e-09
      1.3155293204592484e-09
      1.3171658624628549e-09
      1.3188044403539874e-09
      1.3204450566653203e-09
      1.3220877139326909e-09
      1.3237324146950787e-09
      1.3253791614946345e-09
      1.3270279568766588e-09
      1.3286788033896278e-09
      1.3303317035851886e-09
      1.3319866600181524e-09
      1.3336436752465218e-09
      1.3353027518314686e-09
      1.3369638923373639e-09
      1.3386270993317558e-09
      1.3402923753853959e-09
      1.3419597230722344e-09
      1.3436291449694169e-09
      1.3453006436572946e-09
      1.3469742217194357e-09
      1.3486498817426189e-09
      1.3503276263168443e-09
      1.3520074580353243e-09
      1.35368937949451e-09
      1.3553733932940696e-09
      1.3570595020369154e-09
      1.3587477083291975e-09
      1.3604380147802986e-09
      1.3621304240028601e-09
      1.3638249386127609e-09
      1.3655215612291469e-09
      1.3672202944744094e-09
      1.3689211409742117e-09
      1.370624103357484e-09
      1.3723291842564159e-09
      1.3740363863064857e-09
      1.3757457121464368e-09
      1.3774571644183082e-09
      1.3791707457674129e-09
      1.3808864588423675e-09
      1.3826043062950704e-09
      1.3843242907807325e-09
      1.3860464149578542e-09
      1.3877706814882567e-09
      1.3894970930370592e-09
      1.3912256522727063e-09
      1.3929563618669585e-09
      1.3946892244949041e-09
      1.3964242428349522e-09
      1.3981614195688437e-09
      1.3999007573816623e-09
      1.4016422589618291e-09
      1.4033859270011128e-09
      1.4051317641946203e-09
      1.4068797732408254e-09
      1.4086299568415446e-09
      1.4103823177019693e-09
      1.412136858530643e-09
      1.4138935820394884e-09
      1.4156524909438024e-09
      1.4174135879622489e-09
      1.4191768758168879e-09
      1.420942357233152e-09
      1.4227100349398778e-09
      1.4244799116692834e-09
      1.4262519901569992e-09
      1.4280262731420445e-09
      1.4298027633668609e-09
      1.4315814635772869e-09
      1.4333623765225877e-09
      1.4351455049554486e-09
      1.4369308516319686e-09
      1.438718419311686e-09
      1.4405082107575724e-09
      1.4423002287360286e-09
      1.4440944760168979e-09
      1.4458909553734756e-09
      1.4476896695825037e-09
      1.4494906214241827e-09
      1.4512938136821636e-09
      1.4530992491435608e-09
      1.4549069305989634e-09
      1.4567168608424278e-09
      1.4585290426714902e-09
      1.4603434788871562e-09
      1.4621601722939304e-09
      1.4639791256997914e-09
      1.465800341916226e-09
      1.4676238237582035e-09
      1.4694495740442067e-09
      1.4712775955962236e-09
      1.4731078912397463e-09
      1.4749404638037818e-09
      1.4767753161208637e-09
      1.4786124510270488e-09
      1.4804518713619118e-09
      1.482293579968574e-09
      1.4841375796936793e-09
      1.4859838733874272e-09
      1.4878324639035485e-09
      1.4896833540993384e-09
      1.4915365468356325e-09
      1.4933920449768357e-09
      1.495249851390917e-09
      1.4971099689494052e-09
      1.4989724005274019e-09
      1.500837149003592e-09
      1.5027042172602386e-09
      1.5045736081831901e-09
      1.5064453246618883e-09
      1.5083193695893628e-09
      1.5101957458622417e-09
      1.512074456380764e-09
      1.513955504048777e-09
      1.5158388917737286e-09
      1.5177246224666992e-09
      1.5196126990423756e-09
      1.5215031244190813e-09
      1.5233959015187707e-09
      1.5252910332670216e-09
      1.5271885225930669e-09
      1.5290883724297673e-09
      1.5309905857136483e-09
      1.5328951653848727e-09
      1.5348021143872764e-09
      1.5367114356683421e-09
      1.5386231321792308e-09
      1.5405372068747745e-09
      1.5424536627134698e-09
      1.5443725026575093e-09
      1.5462937296727546e-09
      1.5482173467287731e-09
      1.5501433567988105e-09
      1.5520717628598225e-09
      1.5540025678924651e-09
      1.5559357748811095e-09
      1.5578713868138164e-09
      1.5598094066823873e-09
      1.5617498374823371e-09
      1.5636926822129116e-09
      1.5656379438770796e-09
      1.5675856254815463e-09
      1.569535730036764e-09
      1.5714882605569273e-09
      1.5734432200599836e-09
      1.5754006115676233e-09
      1.5773604381053113e-09
      1.579322702702261e-09
      1.5812874083914694e-09
      1.583254558209691e-09
      1.58522415519747e-09
      1.587196202399133e-09
      1.5891707028627822e-09
      1.5911476596403269e-09
      1.5931270757874581e-09
      1.5951089543636831e-09
      1.5970932984323001e-09
      1.5990801110604332e-09
      1.6010693953190072e-09
      1.6030611542827783e-09
      1.6050553910303279e-09
      1.6070521086440595e-09
      1.609051310210211e-09
      1.6110529988188676e-09
      1.6130571775639546e-09
      1.6150638495432503e-09
      1.6170730178583786e-09
      1.6190846856148221e-09
      1.6210988559219344e-09
      1.6231155318929334e-09
      1.6251347166449133e-09
      1.6271564132988351e-09
      1.6291806249795576e-09
      1.631207354815811e-09
      1.6332366059402338e-09
      1.6352683814893456e-09
      1.6373026846035799e-09
      1.6393395184272771e-09
      1.6413788861086767e-09
      1.6434207907999512e-09
      1.6454652356571783e-09
      1.6475122238403777e-09
      1.6495617585134845e-09
      1.6516138428443858e-09
      1.6536684800048932e-09
      1.6557256731707808e-09
      1.6577854255217565e-09
      1.6598477402414967e-09
      1.661912620517638e-09
      1.6639800695417702e-09
      1.6660500905094701e-09
      1.668122686620273e-09
      1.6701978610777114e-09
      1.6722756170892863e-09
      1.6743559578665014e-09
      1.6764388866248515e-09
      1.6785244065838354e-09
      1.6806125209669488e-09
      1.6827032330016979e-09
      1.6847965459196117e-09
      1.6868924629562353e-09
      1.6889909873511433e-09
      1.6910921223479277e-09
      1.6931958711942322e-09
      1.6953022371417239e-09
      1.6974112234461321e-09
      1.6995228333672191e-09
      1.7016370701688194e-09
      1.703753937118811e-09
      1.7058734374891498e-09
      1.7079955745558616e-09
      1.7101203515990361e-09
      1.7122477719028593e-09
      1.7143778387555861e-09
      1.7165105554495795e-09
      1.7186459252812805e-09
      1.720783951551249e-09
      1.7229246375641327e-09
      1.725067986628708e-09
      1.7272140020578503e-09
      1.7293626871685691e-09
      1.7315140452819961e-09
      1.7336680797233987e-09
      1.7358247938221724e-09
      1.7379841909118546e-09
      1.7401462743301387e-09
      1.7423110474188649e-09
      1.7444785135240361e-09
      1.7466486759958082e-09
      1.7488215381885055e-09
      1.7509971034606335e-09
      1.7531753751748754e-09
      1.755356356698085e-09
      1.7575400514013218e-09
      1.7597264626598218e-09
      1.7619155938530326e-09
      1.7641074483646056e-09
      1.7663020295823893e-09
      1.7684993408984637e-09
      1.7706993857091109e-09
      1.772902167414856e-09
      1.7751076894204367e-09
      1.7773159551348434e-09
      1.7795269679712906e-09
      1.7817407313472516e-09
      1.783957248684451e-09
      1.7861765234088569e-09
      1.7883985589507176e-09
      1.7906233587445301e-09
      1.7928509262290824e-09
      1.7950812648474221e-09
      1.797314378046894e-09
      1.7995502692791264e-09
      1.8017889420000508e-09
      1.8040303996698709e-09
      1.806274645753122e-09
      1.8085216837186404e-09
      1.8107715170395817e-09
      1.8130241491934092e-09
      1.8152795836619256e-09
      1.8175378239312651e-09
      1.819798873491885e-09
      1.822062735838603e-09
      1.8243294144705662e-09
      1.8265989128912882e-09
      1.8288712346086413e-09
      1.8311463831348526e-09
      1.8334243619865181e-09
      1.8357051746846181e-09
      1.8379888247545127e-09
      1.840275315725934e-09
      1.8425646511330233e-09
      1.8448568345143005e-09
      1.8471518694127057e-09
      1.8494497593755678e-09
      1.8517505079546472e-09
      1.8540541187061046e-09
      1.856360595190538e-09
      1.8586699409729754e-09
      1.8609821596228654e-09
      1.8632972547141159e-09
      1.8656152298250617e-09
      1.867936088538504e-09
      1.8702598344416956e-09
      1.8725864711263568e-09
      1.8749160021886669e-09
