src/apps/iosdisplay/iosdisplay/OpenColorIOConfigs/spi-vfx/luts/lg16.spi1d
Version 1
From 0.0 1.0
Length 131072
Components 1
{
        3.0517578125e-05
        3.0529887067860856e-05
        3.0542200911988171e-05
        3.0554519659300853e-05
        3.0566843311718619e-05
        3.0579171871162037e-05
        3.0591505339552226e-05
        3.060384371881115e-05
        3.0616187010861467e-05
        3.0628535217626626e-05
        3.0640888341030718e-05
        3.0653246382998618e-05
        3.0665609345456016e-05
        3.0677977230329147e-05
        3.0690350039545282e-05
        3.0702727775032145e-05
        3.0715110438718215e-05
        3.0727498032532951e-05
        3.0739890558406362e-05
        3.0752288018269221e-05
        3.0764690414053055e-05
        3.0777097747690164e-05
        3.0789510021113436e-05
        3.0801927236256721e-05
        3.0814349395054399e-05
        3.0826776499441873e-05
        3.083920855135489e-05
        3.0851645552730385e-05
        3.086408750550565e-05
        3.0876534411618847e-05
        3.0888986273009009e-05
        3.0901443091615747e-05
        3.0913904869379519e-05
        3.0926371608241528e-05
        3.0938843310143519e-05
        3.095131997702822e-05
        3.0963801610839076e-05
        3.0976288213520171e-05
        3.0988779787016326e-05
        3.1001276333273277e-05
        3.1013777854237323e-05
        3.1026284351855502e-05
        3.1038795828075806e-05
        3.105131228484679e-05
        3.1063833724117715e-05
        3.1076360147838823e-05
        3.1088891557960818e-05
        3.1101427956435337e-05
        3.1113969345214765e-05
        3.1126515726252075e-05
        3.1139067101501189e-05
        3.1151623472916578e-05
        3.1164184842453662e-05
        3.1176751212068449e-05
        3.118932258371781e-05
        3.1201898959359333e-05
        3.121448034095112e-05
        3.1227066730452562e-05
        3.1239658129823273e-05
        3.125225454102387e-05
        3.1264855966015607e-05
        3.1277462406760694e-05
        3.1290073865221862e-05
        3.1302690343362532e-05
        3.1315311843147321e-05
        3.1327938366541093e-05
        3.1340569915509697e-05
        3.1353206492019734e-05
        3.136584809803855e-05
        3.1378494735534221e-05
        3.1391146406475557e-05
        3.1403803112832141e-05
        3.1416464856574226e-05
        3.1429131639673121e-05
        3.1441803464100508e-05
        3.1454480331829061e-05
        3.1467162244832053e-05
        3.1479849205083702e-05
        3.1492541214558795e-05
        3.1505238275232977e-05
        3.1517940389082661e-05
        3.1530647558084972e-05
        3.154335978421769e-05
        3.1556077069459566e-05
        3.1568799415790048e-05
        3.1581526825189242e-05
        3.1594259299637991e-05
        3.1606996841118089e-05
        3.1619739451611891e-05
        3.1632487133102625e-05
        3.16452398875742e-05
        3.1657997717011417e-05
        3.1670760623399612e-05
        3.1683528608725187e-05
        3.1696301674974927e-05
        3.170907982413678e-05
        3.1721863058199069e-05
        3.1734651379151177e-05
        3.1747444788983137e-05
        3.176024328968564e-05
        3.1773046883250309e-05
        3.178585557166955e-05
        3.1798669356936248e-05
        3.1811488241044366e-05
        3.1824312225988477e-05
        3.1837141313763914e-05
        3.1849975506366813e-05
        3.1862814805794065e-05
        3.1875659214043388e-05
        3.1888508733113121e-05
        3.1901363365002351e-05
        3.1914223111711296e-05
        3.1927087975240422e-05
        3.193995795759125e-05
        3.1952833060766198e-05
        3.1965713286767965e-05
        3.1978598637600582e-05
        3.1991489115268448e-05
        3.2004384721776958e-05
        3.2017285459132137e-05
        3.2030191329340829e-05
        3.2043102334410502e-05
        3.2056018476349837e-05
        3.2068939757167631e-05
        3.2081866178874136e-05
        3.2094797743479735e-05
        3.2107734452995982e-05
        3.2120676309435149e-05
        3.2133623314810132e-05
        3.2146575471134741e-05
        3.21595327804235e-05
        3.2172495244691681e-05
        3.2185462865955299e-05
        3.2198435646231375e-05
        3.2211413587537272e-05
        3.2224396691891435e-05
        3.2237384961313122e-05
        3.2250378397822195e-05
        3.2263377003439317e-05
        3.2276380780185941e-05
        3.2289389730084327e-05
        3.2302403855157612e-05
        3.2315423157429335e-05
        3.2328447638924198e-05
        3.2341477301667585e-05
        3.2354512147685469e-05
        3.2367552179004767e-05
        3.2380597397653256e-05
        3.2393647805659246e-05
        3.2406703405051858e-05
        3.2419764197861231e-05
        3.243283018611813e-05
        3.2445901371854006e-05
        3.2458977757101168e-05
        3.2472059343892752e-05
        3.2485146134262533e-05
        3.2498238130245245e-05
        3.2511335333876234e-05
        3.2524437747191769e-05
        3.2537545372228847e-05
        3.255065821102505e-05
        3.2563776265619045e-05
        3.2576899538050114e-05
        3.2590028030358313e-05
        3.2603161744584597e-05
        3.2616300682770506e-05
        3.2629444846958608e-05
        3.2642594239191915e-05
        3.2655748861514559e-05
        3.2668908715971279e-05
        3.2682073804607719e-05
        3.2695244129469994e-05
        3.2708419692605396e-05
        3.2721600496061791e-05
        3.2734786541887761e-05
        3.2747977832132956e-05
        3.2761174368847473e-05
        3.2774376154082317e-05
        3.2787583189889443e-05
        3.2800795478321395e-05
        3.2814013021431455e-05
        3.2827235821273881e-05
        3.2840463879903616e-05
        3.2853697199376342e-05
        3.2866935781748761e-05
        3.2880179629077878e-05
        3.2893428743422016e-05
        3.2906683126840041e-05
        3.291994278139149e-05
        3.2933207709136835e-05
        3.2946477912137469e-05
        3.2959753392455329e-05
        3.2973034152153135e-05
        3.2986320193294648e-05
        3.2999611517944159e-05
        3.3012908128166804e-05
        3.3026210026028672e-05
        3.3039517213596462e-05
        3.3052829692937687e-05
        3.3066147466120829e-05
        3.3079470535214775e-05
        3.3092798902289674e-05
        3.3106132569416034e-05
        3.3119471538665515e-05
        3.3132815812110277e-05
        3.3146165391823484e-05
        3.3159520279879054e-05
        3.3172880478351524e-05
        3.3186245989316485e-05
        3.3199616814849975e-05
        3.3212992957029242e-05
        3.3226374417932141e-05
        3.3239761199637087e-05
        3.325315330422364e-05
        3.32665507337721e-05
        3.3279953490363329e-05
        3.3293361576079131e-05
        3.3306774993002291e-05
        3.3320193743215962e-05
        3.3333617828804516e-05
        3.3347047251852907e-05
        3.3360482014446849e-05
        3.3373922118672978e-05
        3.3387367566618598e-05
        3.3400818360372027e-05
        3.3414274502022088e-05
        3.3427735993658641e-05
        3.3441202837372231e-05
        3.3454675035254204e-05
        3.3468152589396737e-05
        3.3481635501892822e-05
        3.349512377483623e-05
        3.3508617410321421e-05
        3.3522116410443814e-05
        3.3535620777299604e-05
        3.3549130512985768e-05
        3.3562645619599972e-05
        3.3576166099240751e-05
        3.3589691954007669e-05
        3.3603223186000792e-05
        3.361675979732091e-05
        3.3630301790070142e-05
        3.3643849166350805e-05
        3.3657401928266223e-05
        3.3670960077920798e-05
        3.3684523617419387e-05
        3.3698092548867755e-05
        3.3711666874372533e-05
        3.3725246596041052e-05
        3.3738831715981637e-05
        3.3752422236303191e-05
        3.3766018159115516e-05
        3.3779619486529216e-05
        3.3793226220655747e-05
        3.3806838363607331e-05
        3.3820455917497038e-05
        3.3834078884438615e-05
        3.3847707266546703e-05
        3.3861341065936791e-05
        3.3874980284725221e-05
        3.3888624925028898e-05
        3.3902274988965729e-05
        3.391593047865449e-05
        3.3929591396214674e-05
        3.3943257743766492e-05
        3.3956929523431023e-05
        3.3970606737330315e-05
        3.3984289387586972e-05
        3.3997977476324579e-05
        3.4011671005667422e-05
        3.4025369977740827e-05
        3.4039074394670685e-05
        3.4052784258583624e-05
        3.4066499571607507e-05
        3.4080220335870445e-05
        3.4093946553501921e-05
        3.4107678226631822e-05
        3.4121415357390952e-05
        3.4135157947911062e-05
        3.4148906000324601e-05
        3.4162659516764832e-05
        3.4176418499365777e-05
        3.4190182950262527e-05
        3.4203952871590589e-05
        3.4217728265486681e-05
        3.4231509134088098e-05
        3.4245295479533034e-05
        3.4259087303960412e-05
        3.4272884609509931e-05
        3.4286687398322491e-05
        3.4300495672539384e-05
        3.4314309434302844e-05
        3.4328128685755839e-05
        3.4341953429042499e-05
        3.4355783666307301e-05
        3.436961939969585e-05
        3.4383460631354585e-05
        3.4397307363430507e-05
        3.4411159598071744e-05
        3.4425017337427043e-05
        3.4438880583645889e-05
        3.4452749338878885e-05
        3.4466623605277245e-05
        3.4480503384992986e-05
        3.4494388680179065e-05
        3.4508279492989308e-05
        3.4522175825577973e-05
        3.453607768010071e-05
        3.4549985058713625e-05
        3.4563897963573691e-05
        3.4577816396838686e-05
        3.4591740360667312e-05
        3.4605669857219096e-05
        3.4619604888654344e-05
        3.4633545457134049e-05
        3.4647491564820264e-05
        3.4661443213875851e-05
        3.467540040646424e-05
        3.4689363144749995e-05
        3.4703331430898198e-05
        3.4717305267075032e-05
        3.4731284655447403e-05
        3.4745269598183093e-05
        3.4759260097450587e-05
        3.4773256155419224e-05
        3.4787257774259245e-05
        3.480126495614169e-05
        3.4815277703238482e-05
        3.4829296017722292e-05
        3.4843319901766533e-05
        3.4857349357545736e-05
        3.4871384387234931e-05
        3.4885424993010242e-05
        3.4899471177048386e-05
        3.4913522941526971e-05
        3.4927580288624782e-05
        3.494164322052095e-05
        3.4955711739395624e-05
        3.4969785847429817e-05
        3.4983865546805466e-05
        3.4997950839705031e-05
        3.5012041728312167e-05
        3.502613821481109e-05
        3.5040240301387028e-05
        3.5054347990225943e-05
        3.506846128351457e-05
        3.5082580183440713e-05
        3.5096704692192773e-05
        3.5110834811959972e-05
        3.5124970544932668e-05
        3.5139111893301716e-05
        3.5153258859258946e-05
        3.5167411444997095e-05
        3.5181569652709607e-05
        3.5195733484590818e-05
        3.5209902942835859e-05
        3.5224078029640848e-05
        3.5238258747202555e-05
        3.5252445097718659e-05
        3.5266637083387629e-05
        3.5280834706409007e-05
        3.5295037968982816e-05
        3.5309246873310047e-05
        3.5323461421592755e-05
        3.5337681616033524e-05
        3.5351907458835961e-05
        3.5366138952204411e-05
        3.5380376098344122e-05
        3.5394618899461181e-05
        3.5408867357762501e-05
        3.542312147545585e-05
        3.5437381254749796e-05
        3.5451646697853698e-05
        3.5465917806978069e-05
        3.5480194584333746e-05
        3.5494477032132867e-05
        3.5508765152588275e-05
        3.552305894791345e-05
        3.5537358420323046e-05
        3.5551663572032282e-05
        3.5565974405257459e-05
        3.5580290922215431e-05
        3.5594613125124285e-05
        3.5608941016202577e-05
        3.5623274597669989e-05
        3.5637613871746768e-05
        3.5651958840654242e-05
        3.5666309506614633e-05
        3.5680665871850731e-05
        3.5695027938586323e-05
        3.5709395709046246e-05
        3.5723769185455682e-05
        3.5738148370041346e-05
        3.5752533265030054e-05
        3.5766923872650016e-05
        3.5781320195130137e-05
        3.5795722234700111e-05
        3.5810129993590502e-05
        3.582454347403278e-05
        3.5838962678259183e-05
        3.5853387608502786e-05
        3.5867818266997753e-05
        3.5882254655978779e-05
        3.589669677768163e-05
        3.5911144634342713e-05
        3.5925598228199555e-05
        3.5940057561490349e-05
        3.5954522636454142e-05
        3.5968993455330809e-05
        3.5983470020361408e-05
        3.5997952333787379e-05
        3.6012440397851318e-05
        3.6026934214796475e-05
        3.6041433786867201e-05
        3.605593911630861e-05
        3.6070450205366387e-05
        3.6084967056287536e-05
        3.609948967131958e-05
        3.611401805271106e-05
        3.6128552202711261e-05
        3.6143092123570534e-05
        3.6157637817539777e-05
        3.6172189286870973e-05
        3.6186746533816965e-05
        3.6201309560631321e-05
        3.6215878369568464e-05
        3.6230452962883907e-05
        3.624503334283378e-05
        3.6259619511675107e-05
        3.6274211471665915e-05
        3.6288809225064855e-05
        3.630341277413173e-05
        3.631802212112704e-05
        3.6332637268312045e-05
        3.6347258217949142e-05
        3.636188497230123e-05
        3.6376517533632308e-05
        3.6391155904207307e-05
        3.6405800086291891e-05
        3.6420450082152477e-05
        3.6435105894056577e-05
        3.644976752427246e-05
        3.6464434975069169e-05
        3.6479108248716815e-05
        3.6493787347486224e-05
        3.6508472273649113e-05
        3.6523163029478063e-05
        3.6537859617246538e-05
        3.6552562039228815e-05
        3.6567270297700249e-05
        3.6581984394936639e-05
        3.6596704333215124e-05
        3.661143011481336e-05
        3.6626161742010096e-05
        3.6640899217084686e-05
        3.6655642542317788e-05
        3.6670391719990395e-05
        3.6685146752384874e-05
        3.6699907641783999e-05
        3.6714674390471785e-05
        3.6729447000732924e-05
        3.6744225474852946e-05
        3.6759009815118382e-05
        3.6773800023816591e-05
        3.6788596103235892e-05
        3.6803398055665164e-05
        3.6818205883394465e-05
        3.68330195887146e-05
        3.6847839173917287e-05
        3.6862664641295119e-05
        3.6877495993141523e-05
        3.6892333231750745e-05
        3.6907176359418135e-05
        3.6922025378439554e-05
        3.693688029111216e-05
        3.6951741099733596e-05
        3.6966607806602579e-05
        3.6981480414018846e-05
        3.6996358924282591e-05
        3.7011243339695238e-05
        3.7026133662558975e-05
        3.704102989517693e-05
        3.7055932039852873e-05
        3.7070840098891727e-05
        3.708575407459928e-05
        3.7100673969281914e-05
        3.7115599785247252e-05
        3.7130531524803533e-05
        3.714546919025985e-05
        3.7160412783926577e-05
        3.7175362308114393e-05
        3.7190317765135366e-05
        3.7205279157302045e-05
        3.7220246486928117e-05
        3.7235219756328117e-05
        3.7250198967817222e-05
        3.7265184123711926e-05
        3.7280175226329203e-05
        3.7295172277987131e-05
        3.7310175281004501e-05
        3.7325184237701104e-05
        3.7340199150397777e-05
        3.7355220021415804e-05
        3.7370246853077743e-05
        3.7385279647706923e-05
        3.7400318407627448e-05
        3.7415363135164456e-05
        3.7430413832643818e-05
        3.7445470502392538e-05
        3.7460533146738174e-05
        3.7475601768009361e-05
        3.7490676368535705e-05
        3.7505756950647576e-05
        3.7520843516676158e-05
        3.7535936068953604e-05
        3.755103460981311e-05
        3.7566139141588367e-05
        3.7581249666614488e-05
        3.7596366187226935e-05
        3.7611488705762337e-05
        3.7626617224558351e-05
        3.7641751745953241e-05
        3.7656892272286161e-05
        3.7672038805897529e-05
        3.76871913491282e-05
        3.770234990432009e-05
        3.7717514473816066e-05
        3.7732685059959922e-05
        3.774786166509617e-05
        3.7763044291570348e-05
        3.7778232941728796e-05
        3.7793427617918928e-05
        3.7808628322488739e-05
        3.7823835057787472e-05
        3.7839047826165006e-05
        3.7854266629972198e-05
        3.7869491471560788e-05
        3.7884722353283483e-05
        3.7899959277493673e-05
        3.7915202246545946e-05
        3.7930451262795588e-05
        3.7945706328598878e-05
        3.7960967446312801e-05
        3.7976234618295485e-05
        3.79915078469058e-05
        3.8006787134503568e-05
        3.8022072483449469e-05
        3.8037363896105166e-05
        3.8052661374833135e-05
        3.8067964921996783e-05
        3.8083274539960394e-05
        3.8098590231089129e-05
        3.8113911997749258e-05
        3.8129239842307548e-05
        3.8144573767132072e-05
        3.8159913774591467e-05
        3.8175259867055588e-05
        3.8190612046895016e-05
        3.820597031648118e-05
        3.8221334678186469e-05
        3.823670513438427e-05
        3.8252081687448756e-05
        3.8267464339755128e-05
        3.8282853093679137e-05
        3.8298247951598027e-05
        3.8313648915889309e-05
        3.8329055988931934e-05
        3.8344469173105386e-05
        3.8359888470790316e-05
        3.8375313884368066e-05
        3.8390745416221062e-05
        3.8406183068732501e-05
        3.8421626844286571e-05
        3.843707674526824e-05
        3.8452532774063524e-05
        3.846799493305933e-05
        3.8483463224643353e-05
        3.8498937651204418e-05
        3.8514418215132072e-05
        3.8529904918816736e-05
        3.8545397764649869e-05
        3.8560896755023852e-05
        3.8576401892331769e-05
        3.8591913178967912e-05
        3.8607430617327344e-05
        3.8622954209805846e-05
        3.8638483958800442e-05
        3.865401986670887e-05
        3.8669561935929705e-05
        3.8685110168862795e-05
        3.8700664567908495e-05
        3.8716225135468231e-05
        3.8731791873944427e-05
        3.8747364785740202e-05
        3.8762943873259939e-05
        3.8778529138908451e-05
        3.8794120585091908e-05
        3.8809718214217185e-05
        3.8825322028692085e-05
        3.8840932030925326e-05
        3.8856548223326682e-05
        3.8872170608306565e-05
        3.8887799188276486e-05
        3.8903433965648922e-05
        3.8919074942837138e-05
        3.8934722122255388e-05
        3.8950375506318773e-05
        3.8966035097443397e-05
        3.8981700898046326e-05
        3.8997372910545372e-05
        3.9013051137359335e-05
        3.9028735580908013e-05
        3.9044426243612049e-05
        3.9060123127892988e-05
        3.9075826236173406e-05
        3.9091535570876739e-05
        3.9107251134427175e-05
        3.9122972929250073e-05
        3.9138700957771723e-05
        3.9154435222419036e-05
        3.9170175725620232e-05
        3.918592246980408e-05
        3.9201675457400556e-05
        3.9217434690840412e-05
        3.9233200172555372e-05
        3.9248971904978102e-05
        3.926474989054212e-05
        3.9280534131681982e-05
        3.9296324630833118e-05
        3.9312121390431783e-05
        3.9327924412915266e-05
        3.934373370072182e-05
        3.9359549256290529e-05
        3.9375371082061321e-05
        3.9391199180475325e-05
        3.9407033553974416e-05
        3.94228742050013e-05
        3.9438721135999891e-05
        3.9454574349414713e-05
        3.9470433847691489e-05
        3.9486299633276742e-05
        3.9502171708617826e-05
        3.9518050076163258e-05
        3.9533934738362405e-05
        3.9549825697665308e-05
        3.956572295652338e-05
        3.9581626517388641e-05
        3.9597536382714111e-05
        3.9613452554953867e-05
        3.9629375036562667e-05
        3.9645303829996444e-05
        3.9661238937712008e-05
        3.9677180362167021e-05
        3.9693128105820122e-05
        3.9709082171130789e-05
        3.9725042560559809e-05
        3.9741009276568254e-05
        3.9756982321618827e-05
        3.9772961698174713e-05
        3.9788947408700054e-05
        3.9804939455660238e-05
        3.9820937841521295e-05
        3.9836942568750192e-05
        3.9852953639815021e-05
        3.9868971057184625e-05
        3.988499482332898e-05
        3.990102494071871e-05
        3.991706141182577e-05
        3.9933104239122798e-05
        3.994915342508328e-05
        3.9965208972181899e-05
        3.9981270882893972e-05
        3.9997339159696201e-05
        4.0013413805065786e-05
        4.0029494821481064e-05
        4.004558221142132e-05
        4.0061675977366782e-05
        4.0077776121798519e-05
        4.0093882647198627e-05
        4.0109995556050127e-05
        4.0126114850837006e-05
        4.0142240534044108e-05
        4.015837260815742e-05
        4.0174511075663674e-05
        4.0190655939050492e-05
        4.0206807200806692e-05
        4.0222964863421895e-05
        4.0239128929386568e-05
        4.0255299401192369e-05
        4.0271476281331595e-05
        4.0287659572297857e-05
        4.0303849276585259e-05
        4.0320045396689344e-05
        4.0336247935106163e-05
        4.0352456894333053e-05
        4.0368672276868171e-05
        4.0384894085210502e-05
        4.040112232186004e-05
        4.0417356989317986e-05
        4.0433598090086019e-05
        4.0449845626667246e-05
        4.0466099601565312e-05
        4.0482360017285152e-05
        4.0498626876332423e-05
        4.0514900181213877e-05
        4.0531179934437062e-05
        4.0547466138510634e-05
        4.0563758795944045e-05
        4.0580057909247873e-05
        4.0596363480933566e-05
        4.0612675513513511e-05
        4.0628994009501016e-05
        4.0645318971410416e-05
        4.0661650401756997e-05
        4.0677988303056848e-05
        4.0694332677827262e-05
        4.0710683528586293e-05
        4.0727040857853103e-05
        4.074340466814765e-05
        4.0759774961990908e-05
        4.0776151741904907e-05
        4.079253501041249e-05
        4.0808924770037497e-05
        4.0825321023304683e-05
        4.0841723772740021e-05
        4.0858133020870077e-05
        4.0874548770222578e-05
        4.0890971023326182e-05
        4.0907399782710483e-05
        4.0923835050906042e-05
        4.0940276830444443e-05
        4.0956725123858072e-05
        4.0973179933680425e-05
        4.0989641262446013e-05
        4.1006109112690007e-05
        4.1022583486948849e-05
        4.1039064387759933e-05
        4.1055551817661226e-05
        4.10720457791922e-05
        4.1088546274893e-05
        4.1105053307304636e-05
        4.1121566878969379e-05
        4.1138086992430151e-05
        4.115461365023112e-05
        4.1171146854917152e-05
        4.1187686609034376e-05
        4.1204232915129594e-05
        4.1220785775750675e-05
        4.1237345193446606e-05
        4.1253911170767139e-05
        4.1270483710262996e-05
        4.128706281448617e-05
        4.1303648485989118e-05
        4.1320240727325773e-05
        4.1336839541050522e-05
        4.1353444929719297e-05
        4.137005689588862e-05
        4.1386675442115867e-05
        4.1403300570959855e-05
        4.1419932284979946e-05
        4.1436570586736606e-05
        4.1453215478791376e-05
        4.146986696370658e-05
        4.1486525044045657e-05
        4.1503189722373078e-05
        4.1519861001254011e-05
        4.1536538883254836e-05
        4.1553223370942877e-05
        4.1569914466886398e-05
        4.158661217365458e-05
        4.1603316493817537e-05
        4.1620027429946645e-05
        4.163674498461403e-05
        4.1653469160392721e-05
        4.167019995985673e-05
