src/apps/iosdisplay/iosdisplay/OpenColorIOConfigs/spi-vfx/luts/vd10.spi1d
Version 1
From 0.0 1.0
Length 2048
Components 1
{
        0.001110019965159161
        0.0014473488880519373
        0.0018745807038639121
        0.0023604521727696587
        0.0027182684626632773
        0.0030746673442723312
        0.0034268552749824412
        0.0037684809936569192
        0.0040879384808174268
        0.0043639297268466852
        0.0046141807740884069
        0.0048598726936002704
        0.0051005253239588978
        0.0053359644075665928
        0.0055662335567372104
        0.0057915172623561372
        0.0060120821015418047
        0.006228235502721848
        0.0064402985833980162
        0.0066485892307687391
        0.0068534122072210629
        0.0070550538761368657
        0.007253779863619708
        0.0074498345226515243
        0.0076434414577978256
        0.0078348046354249461
        0.0080241097814569042
        0.008211525884073834
        0.0083972066928902737
        0.0085812921531938091
        0.0087639097432707196
        0.0089451757009615749
        0.0091251961364664756
        0.0093040680347070415
        0.0094818801539582245
        0.009658713829085638
        0.0098346436882638111
        0.010009738291954031
        0.010184060702467693
        0.010357668991809257
        0.010530616694786808
        0.010702953213665971
        0.01087472417995684
        0.011045971778286713
        0.011216735036731207
        0.011387050087453403
        0.011556950401037325
        0.011726466997490709
        0.011895628636531062
        0.012064461989451573
        0.012232991794586727
        0.012401240998153923
        0.012569230882036167
        0.012736981179885545
        0.01290451018276525
        0.013071834835406684
        0.01323897082403452
        0.013405932656604154
        0.013572733736200939
        0.01373938642826778
        0.013905902122253835
        0.014072291288213393
        0.01423856352882652
        0.014404727627263884
        0.014570791591273441
        0.014736762693827546
        0.014902647510635093
        0.015068451954791898
        0.015234181308815469
        0.015399840254286304
        0.015565432899296206
        0.01573096280388438
        0.015896433003625497
        0.01606184603151822
        0.016227203938308774
        0.016392508311372195
        0.016557760292262341
        0.016722960593031969
        0.01688810951141553
        0.017053206944958363
        0.017218252404169899
        0.017383245024770587
        0.017548183579097255
        0.017713066486725951
        0.017877944494985618
        0.018043068248944204
        0.018208463257506576
        0.018374120790093089
        0.018540031897289096
        0.018706187412599912
        0.018872577954048054
        0.019039193925620191
        0.019206025518570077
        0.019373062712583551
        0.019540295276810827
        0.019707712770771296
        0.019875304545134895
        0.020043059742384555
        0.020210967297363002
        0.020379015937707655
        0.02054719418417637
        0.020715490350866804
        0.020883892545331968
        0.021052388668594137
        0.021220966415058967
        0.021389613272331711
        0.0215583165209371
        0.021727063233944174
        0.021895840276497266
        0.022064634305254224
        0.022233431767732719
        0.022402218901565379
        0.02257098173366439
        0.022739706079296106
        0.022908377541065651
        0.023076981507812452
        0.023245503153416249
        0.023413927435513741
        0.023582239094126267
        0.023750422650197708
        0.023918462404042752
        0.024086342433705468
        0.024254046593226993
        0.024421558510822627
        0.024588861586967589
        0.024755938992390234
        0.024922773665972849
        0.025089348312558542
        0.025255645400663752
        0.025421647160095061
        0.025587335579469576
        0.02575269240363753
        0.025917699131005896
        0.026082337010761701
        0.026246587039993718
        0.026410429960710836
        0.026573846256755643
        0.026736816150611534
        0.026899319600101248
        0.027061336294975199
        0.027222845653387485
        0.02738382681825724
        0.027544258653513072
        0.027704119740218257
        0.027863388372573898
        0.028022042553797605
        0.028180059991874215
        0.028337418095176366
        0.028494093967950527
        0.028650064405666368
        0.028805305890224484
        0.028959794585019783
        0.029113506329855671
        0.029266416635705197
        0.029418500679314324
        0.029569733297642786
        0.029720088982137394
        0.02986954187283207
        0.03001806575226958
        0.03016563403923847
        0.030312219782318926
        0.030457795653231232
        0.030602333939979246
        0.030745806539781654
        0.030888184951783089
        0.031029440269536693
        0.031169543173249176
        0.03130846392177912
        0.031446172344378319
        0.031582689382244879
        0.031727338853734452
        0.031872713735393458
        0.032018817460124756
        0.032165653452888333
        0.032313225129546513
        0.032461535895665854
        0.032610589145273913
        0.032760388259570047
        0.032910936605588491
        0.033062237534813257
        0.033214294381742712
        0.033367110462403406
        0.033520689072811305
        0.033675033487379463
        0.033830146957270789
        0.033986032708694686
        0.034142693941146163
        0.034300133825586152
        0.034458355502562495
        0.0346173620802687
        0.034777156632541446
        0.034937742196793624
        0.035099121771882978
        0.035261298315914909
        0.035424274743977975
        0.035588053925811179
        0.035752638683402609
        0.035918031788517164
        0.036084235960153678
        0.036251253861929816
        0.036419088099394127
        0.036587741217264436
        0.036757215696592078
        0.036927513951851079
        0.037098638327952259
        0.037270591097181199
        0.037443374456060302
        0.037616990522134672
        0.037791441330681609
        0.037966728831343888
        0.03814285488468723
        0.038319821258682087
        0.038497629625110358
        0.038676281555897959
        0.0388557785193741
        0.039036121876458087
        0.039217312876775628
        0.039399352654705476
        0.039582242225358701
        0.039765982480492582
        0.039950574184361168
        0.040136017969505465
        0.040322314332485516
        0.040509463629558477
        0.04069746607230515
        0.040886321723209364
        0.041076030491194258
        0.041266592127119854
        0.041458006219246668
        0.041650272188670789
        0.041843389284735723
        0.042037356580427107
        0.042232172967757102
        0.042427837153143848
        0.042624347652795082
        0.042821702788101663
        0.043019900681050556
        0.043218939249664502
        0.043418816203477734
        0.043619529039057352
        0.043821075035579242
        0.044023451250469602
        0.04422665451512145
        0.044430681430698303
        0.044635528364035178
        0.044841191443649599
        0.045047666555873736
        0.045254949341120822
        0.045463035190298033
        0.045671919241379012
        0.045881596376149435
        0.046092061217138554
        0.046303308124751301
        0.046515331194613589
        0.046728124255146088
        0.046941680865379254
        0.047155994313024516
        0.047371057612814821
        0.04758686350512964
        0.047803404454916716
        0.048020672650925217
        0.048238660005263195
        0.048457358153292163
        0.048676758453871496
        0.048896851989964782
        0.049117629569619542
        0.049339081727331029
        0.049561198725800643
        0.049783970558098273
        0.050007386950236987
        0.050231437364167963
        0.050456111001202203
        0.050681396805864629
        0.050907283470185492
        0.051133759438431396
        0.051360812912279369
        0.051588431856433255
        0.051816604004683152
        0.052045316866404893
        0.052274557733496541
        0.052504313687747065
        0.052734571608629786
        0.052965318181514405
        0.05319653990628595
        0.053428223106361097
        0.053660353938088587
        0.053892918400519511
        0.054125902345532217
        0.054359291488294208
        0.054593071418042802
        0.054827227609164655
        0.05506174543255235
        0.055296610167216612
        0.055531807012129335
        0.055767321098273218
        0.056003137500872748
        0.056239241251779204
        0.056475617351982317
        0.056712250784221256
        0.056949126525666152
        0.057186229560640428
        0.057423544893356056
        0.057661057560630988
        0.057898752644560687
        0.05813661528511304
        0.058374630692619361
        0.058612784160130715
        0.05885106107561372
        0.059089446933956569
        0.059327927348758989
        0.059566488063881227
        0.059805114964725077
        0.060043794089226159
        0.060282511638531218
        0.06052125398734258
        0.060760007693907339
        0.060998759509633703
        0.061237496388316937
        0.061476205494960412
        0.061714874214176277
        0.06195349015815408
        0.062192041174186891
        0.062430515351745611
        0.062668901029093199
        0.062907186799434064
        0.063145361516594001
        0.063383414300227953
        0.06362133454055395
        0.063859111902615576
        0.064096736330071874
        0.06433419804852103
        0.064571487568360647
        0.064808595687190912
        0.065045513491768209
        0.065282232359517758
        0.065518743959613546
        0.065755040253637168
        0.065991113495826106
        0.066226956232924114
        0.066462561303646139
        0.066697921837771401
        0.066933031254879316
        0.067167883262741868
        0.06740247185538828
        0.067636791310857008
        0.067870836188650738
        0.068104601326910069
        0.068338081839322537
        0.068571273111781308
        0.068804170798811848
        0.06903677081978038
        0.069269069354901056
        0.069501062841057171
        0.069732747967451908
        0.069964121671103496
        0.070195181132199372
        0.070425923769325147
        0.070656347234580252
        0.070886449408595897
        0.071116228395467551
        0.071345682517615
        0.071574810310582535
        0.071803610517790467
        0.072032082085250124
        0.072260224156252037
        0.072488036066039568
        0.072715517336475258
        0.072942667670711087
        0.073169486947870926
        0.073395975217753207
        0.073622132695561407
        0.073847959756670356
        0.074073456931434731
        0.07429862490004531
        0.074523464487440572
        0.07474797665827726
        0.074972162511965604
        0.075196023277774054
        0.075419560310007155
        0.075642775083259908
        0.075865669187753046
        0.0760882443247511
        0.076310502302066568
        0.076532445029652077
        0.076754074515282406
        0.076975392860328534
        0.077196402255624824
        0.077417104977429971
        0.077637503383483422
        0.077857599909156971
        0.078077397063702828
        0.078296897426597817
        0.078516103643983107
        0.078735018425200698
        0.078953644539424994
        0.079171984812389365
        0.079390042123207522
        0.079607819401287763
        0.079825319623340302
        0.08004254581047586
        0.080259501025395238
        0.08047618836966676
        0.08069261098109333
        0.080908772031164561
        0.081124674722594131
        0.081340322286941547
        0.081555717982314965
        0.081770865091153888
        0.081985766918092562
        0.082200426787897685
        0.082414848043483993
        0.082629034044001778
        0.082842988162997025
        0.083056713786641728
        0.083270214312032256
        0.083483493145555157
        0.083696553701317261
        0.08390939939963929
        0.084122033665611523
        0.084334459927708022
        0.084546681616460589
        0.084758702163188412
        0.08497052499878216
        0.085182153552542231
        0.085393591251067949
        0.085604841517197411
        0.085815907768994698
        0.086026793418785399
        0.086237501872236749
        0.086448036527481883
        0.08665840077428677
        0.086868597993258245
        0.087078631555091809
        0.087288504819857698
        0.087498221136323953
        0.087707783841315848
        0.08791719625910939
        0.088126461700857486
        0.088335583464050002
        0.088544564832003236
        0.088753409073379294
        0.088962119441735113
        0.089170699175098608
        0.089379151495570963
        0.0895874796089558
        0.089795686704411001
        0.090003775954126522
        0.09021175051302302
        0.090419613518473496
        0.090627368090045332
        0.090835017329262524
        0.091042564319387953
        0.091250012125222504
        0.091457363792924559
        0.091664622349843641
        0.091871790804372563
        0.092078872145814158
        0.092285869344263249
        0.092492785350503079
        0.092699623095914771
        0.092906385492400878
        0.09311307543232103
        0.093319695788438753
        0.093526249413881157
        0.093732739142108362
        0.09393916778689386
        0.094145538142314161
        0.094351852982749229
        0.094558115062890233
        0.094764327117757077
        0.094970491862723036
        0.095176611993548488
        0.095382690186420954
        0.095588729098001562
        0.09579473136548039
        0.096000699606635376
        0.096206636419899072
        0.096412544384430005
        0.096618426060190138
        0.096824283988026449
        0.097030120689758179
        0.097235938668267657
        0.097441740407595984
        0.097647528373042761
        0.097853305011268654
        0.098059072750402432
        0.098264834000150833
        0.098470591151911313
        0.098676346578888435
        0.098882102636211264
        0.099087861661055654
        0.099293625972766308
        0.099499397872982925
        0.099705179645767361
        0.09991097355773236
        0.10011678185817277
        0.10032260677919792
        0.10052845053586469
        0.10073431532631302
        0.10094020333190153
        0.10114611671734514
        0.10135205763085209
        0.10155802820426343
        0.10176403055319197
        0.10197006677716225
        0.10217613895975099
        0.10238224916872761
        0.10258839945619631
        0.10279459185873596
        0.10300082839754231
        0.10320711107857006
        0.10341344189267306
        0.10361982281574691
        0.10382625580886984
        0.10403274281844362
        0.10423928577633483
        0.10444588660001546
        0.10465254719270271
        0.10485926944349906
        0.1050660552275319
        0.10527290640609191
        0.1054798248267718
        0.10568681232360368
        0.10589387071719683
        0.10610100181487363
        0.1063082074108056
        0.10651548928614875
        0.10672284920917761
        0.10693028893541945
        0.10713781020778633
        0.1073454147567079
        0.10755310430026227
        0.10776088054430633
        0.10796874518260552
        0.1081766998969621
        0.10838474635734324
        0.10859288622200731
        0.1088011211376307
        0.10900945273943133
        0.10921788265129394
        0.10942641248589215
        0.10963504384481139
        0.10984377831866889
        0.1100526174872347
        0.11026156291955019
        0.11047061617404609
        0.11067977879866001
        0.1108890523309518
        0.11109843829821944
        0.11130793821761209
        0.11151755359624364
        0.11172728593130475
        0.11193713671017365
        0.11214710741052562
        0.11235719950044257
        0.11256741443852081
        0.11277775367397744
        0.11298821864675673
        0.11319881078763429
        0.11340953151832174
        0.11362038225156883
        0.1138313643912653
        0.11404247933254215
        0.11425372846187086
        0.11446511315716211
        0.11467663478786443
        0.11488829471505994
        0.11510009429156096
        0.1153120348620043
        0.11552411776294529
        0.11573634432295116
        0.11594871586269215
        0.11616123369503328
        0.11637390720456557
        0.11658677515673097
        0.11679984334829736
        0.11701311283517114
        0.11722658466855655
        0.11744025989504384
        0.11765413955669321
        0.11786822469111895
        0.11808251633157169
        0.11829701550701835
        0.11851172324222285
        0.11872664055782271
        0.11894176847040717
        0.11915710799259205
        0.11937266013309389
        0.11958842589680341
        0.1198044062848571
        0.12002060229470821
        0.12023701492019602
        0.12045364515161412
        0.1206704939757782
        0.12088756237609227
        0.12110485133261378
        0.12132236182211757
        0.12154009481815915
        0.12175805129113763
        0.12197623220835603
        0.12219463853408169
        0.12241327122960656
        0.12263213125330449
        0.12285121956068953
        0.12307053710447269
        0.12329008483461729
        0.12350986369839446
        0.12372987464043689
        0.1239501186027928
        0.12417059652497854
        0.12439130934402962
        0.12461225799455317
        0.12483344340877657
        0.125054866516599
        0.12527652824563881
        0.12549842952128257
        0.12572057126673256
        0.12594295440305345
        0.12616557984921853
        0.12638844852215525
        0.12661156133679036
        0.12683491920609455
        0.12705852304112517
        0.12728237375107021
        0.1275064722432909
        0.12773081942336292
        0.12795541619511872
        0.12818026346068767
        0.12840536212053671
        0.12863071307351046
        0.1288563172168696
        0.12908217544633058
        0.12930828865610314
        0.12953465773892883
        0.12976128358611747
        0.12998816708758465
        0.13021530913188792
        0.1304427106062622
        0.13067037239665599
        0.13089829538776598
        0.1311264804630714
        0.13135492850486874
        0.1315836403943049
        0.13181261701141142
        0.13204185923513628
        0.13227136794337721
        0.13250114401301369
        0.13273118831993849
        0.13296150173908997
        0.13319208514448139
        0.13342293940923378
        0.13365406540560434
        0.13388546400501777
        0.1341171360780955
        0.13434908249468436
        0.13458130412388694
        0.13481380183408889
        0.13504657649298835
        0.13527962896762361
        0.13551296012440042
        0.13574657082912034
        0.13598046194700711
        0.1362146343427339
        0.13644908888045013
        0.13668382642380725
        0.1369188478359851
        0.13715415397971756
        0.13738974571731871
        0.13762562391070687
        0.13786178942143068
        0.13809824311069344
        0.1383349858393777
        0.13857201846806896
        0.13880934185708121
        0.13904695686647894
        0.13928486435610229
        0.13952306518558902
        0.13976156021439864
        0.140000350301835
        0.14023943630706909
        0.14047881908916132
        0.14071849950708418
        0.14095847841974404
        0.14119875668600315
        0.14143933516470139
        0.14168021471467784
        0.14192139619479188
        0.14216288046394501
        0.14240466838110055
        0.14264676080530606
        0.14288915859571233
        0.14313186261159536
        0.14337487371237553
        0.14361819275763821
        0.14386182060715363
        0.14410575812089665
        0.14435000615906637
        0.14459456558210584
        0.14483943725072149
        0.14508462202590142
        0.14533012076893581
        0.14557593434143509
        0.14582206360534808
        0.14606850942298244
        0.14631527265702102
        0.14656235417054206
        0.1468097548270359
        0.14705747549042483
        0.1473055170250788
        0.14755388029583547
        0.14780256616801726
        0.14805157550744755
        0.14830090918047079
        0.14855056805396774
        0.1488005529953734
        0.14905086487269509
        0.14930150455452804
        0.14955247291007312
        0.14980377080915397
        0.15005539912223323
        0.15030735872042941
        0.15055965047553374
        0.15081227526002541
        0.15106523394709023
        0.15131852741063442
        0.1515721565253024
        0.15182612216649236
        0.15208042521037246
        0.15233506653389636
        0.15259004701481954
        0.1528453675317151
        0.15310102896398872
        0.15335703219189503
        0.15361337809655282
        0.15387006755996072
        0.15412710146501243
        0.15438448069551131
        0.15464220613618757
        0.15490027867271083
        0.15515869919170802
        0.15541746858077549
        0.15567658772849707
        0.15593605752445588
        0.15619587885925151
        0.15645605262451392
        0.15671657971291847
        0.15697746101819957
        0.15723869743516711
        0.15750028985971884
        0.15776223918885718
        0.15802454632070151
        0.15828721215450445
        0.15855023759066486
        0.15881362353074249
        0.15907737087747295
        0.15934148053478067
        0.15960595340779438
        0.15987079040286012
        0.16013599242755611
        0.16040156039070619
        0.16066749520239423
        0.16093379777397782
        0.16120046901810273
        0.16146750984871563
        0.16173492118107946
        0.16200270393178623
        0.1622708590187705
        0.16253938736132426
        0.16280828988010992
        0.16307756749717389
        0.16334722113596062
        0.16361725172132599
        0.16388766017955092
        0.16415844743835453
        0.16442961442690951
        0.16470116207585228
        0.16497309131730026
        0.16524540308486205
        0.16551809831365361
        0.16579117794030948
        0.16606464290299719
        0.16633849414143137
        0.16661273259688575
        0.1668873592122066
        0.16716237493182776
        0.16743778070178147
        0.16771357746971385
        0.16798976618489689
        0.1682663477982419
        0.16854332326231333
        0.16882069353134191
        0.16909845956123679
        0.16937662230960029
        0.16965518273574018
        0.16993414180068359
        0.17021350046718894
        0.17049325969976051
        0.17077342046466129
        0.17105398372992556
        0.17133495046537275
        0.17161632164262003
        0.17189809823509605
        0.17218028121805354
        0.17246287156858303
        0.17274587026562582
        0.17302927828998693
        0.17331309662434885
        0.17359732625328356
        0.17388196816326693
        0.1741670233426913
        0.17445249278187866
        0.17473837747309415
        0.17502467841055885
        0.17531139659046335
        0.17559853301098036
        0.17588608867227865
        0.17617406457653567
        0.17646246172795158
        0.17675128113276098
        0.17704052379924798
        0.17733019073775783
        0.17762028296071136
        0.17791080148261745
        0.17820174732008776
        0.17849312149184754
        0.17878492501875085
        0.17907715892379344
        0.17936982423212619
        0.17966292197106826
        0.17995645317012035
        0.18025041286079438
        0.18054478821298456
        0.18083957971076761
        0.18113478829890156
        0.1814304149241176
        0.18172646053513195
        0.18202292608265877
        0.18231981251942203
        0.18261712080016893
