src/apps/iosdisplay/iosdisplay/OpenColorIOConfigs/spi-vfx/luts/vd16.spi1d
Version 1
From 0.0 1.0
Length 131072
Components 1
{
        0.001110019965159161
        0.0011146779890748651
        0.0011193541329788908
        0.0011240484559175408
        0.0011287610170218141
        0.0011334918755062336
        0.0011382410906676105
        0.001143008721883816
        0.001147794828612524
        0.001152599470389918
        0.0011574227068294055
        0.0011622645976202587
        0.0011671252025263067
        0.0011720045813845294
        0.0011769027941036813
        0.0011818199006628565
        0.0011867559611100531
        0.0011917110355607052
        0.0011966851841961838
        0.001201678467262281
        0.0012066909450676639
        0.0012117226779823091
        0.0012167737264359049
        0.0012218441509162159
        0.0012269340119674549
        0.0012320433701885876
        0.0012371722862316399
        0.0012423208207999544
        0.001247489034646442
        0.0012526769885717777
        0.0012578847434225927
        0.0012631123600896211
        0.0012683598995058172
        0.001273627422644457
        0.0012789149905171873
        0.0012842226641720576
        0.001289550504691526
        0.0012948985731904064
        0.0013002669308138216
        0.0013056556387350822
        0.0013110647581535666
        0.0013164943502925494
        0.0013219444763970026
        0.0013274151977313471
        0.0013329065755771875
        0.0013384186712310083
        0.0013439515460018166
        0.0013495052612087762
        0.0013550798781787709
        0.0013606754582439619
        0.0013662920627392863
        0.001371929752999919
        0.0013775885903587128
        0.0013832686361435534
        0.0013889699516747504
        0.0013946925982622979
        0.001400436637203166
        0.0014062021297784999
        0.001411989137250814
        0.001417797720861116
        0.001423627941825997
        0.0014294798613346715
        0.0014353535405459809
        0.0014412490405853499
        0.0014471664225416852
        0.0014531057474642328
        0.0014590670763593926
        0.00146505047018747
        0.0014710559898594023
        0.0014770836962334109
        0.0014831336501116075
        0.001489205912236556
        0.0014953005432877819
        0.0015014176038782125
        0.0015075571545505998
        0.0015137192557738311
        0.0015199039679392394
        0.0015261113513568264
        0.0015323414662514359
        0.0015385943727588794
        0.0015448701309219708
        0.0015511688006865454
        0.0015574904418973817
        0.0015638351142940837
        0.0015702028775068835
        0.0015765937910523925
        0.0015830079143292946
        0.0015894453066139463
        0.0015959060270559341
        0.0016023901346735639
        0.0016088976883492736
        0.0016154287468249789
        0.0016219833686973333
        0.0016285616124129629
        0.0016351635362635674
        0.0016417891983809762
        0.0016484386567321549
        0.0016551119691140996
        0.0016618091931486407
        0.0016685303862772291
        0.0016752756057555841
        0.0016820449086482761
        0.0016888383518232561
        0.0016956559919462525
        0.0017024978854751262
        0.0017093640886541126
        0.0017162546575079846
        0.0017231696478361414
        0.0017301091152065692
        0.0017370731149497496
        0.0017440617021524558
        0.0017510749316514609
        0.001758112858027134
        0.0017651755355969597
        0.0017722630184089443
        0.0017793753602349288
        0.0017865126145637947
        0.0017936748345945715
        0.0018008620732294215
        0.0018080743830665355
        0.0018153118163929227
        0.0018225744251770598
        0.0018298622610614483
        0.001837175375355077
        0.0018445138190257254
        0.001851877642692163
        0.0018592668966162468
        0.00186668163069488
        0.0018741218944518399
        0.0018815877370294898
        0.0018890792071803602
        0.0018965963532586044
        0.0019041392232112897
        0.0019117078645696018
        0.0019193023244398727
        0.001926922649494482
        0.0019345688859626171
        0.001942241079620873
        0.0019499392757837393
        0.0019576635192938884
        0.0019654138545123459
        0.0019731903253085146
        0.0019809929750499739
        0.0019888218465922078
        0.001996676982268103
        0.0020045584238773092
        0.0020124662126754268
        0.0020204003893629975
        0.0020283609940743596
        0.0020363480663662913
        0.0020443616452064908
        0.0020524017689618453
        0.002060468475386548
        0.0020685618016099885
        0.0020766817841244649
        0.0020848284587727021
        0.0020930018607351187
        0.0021012020245169795
        0.002109428983935231
        0.0021176827721052041
        0.0021259634214270458
        0.0021342709635719655
        0.0021426054294682207
        0.0021509668492868885
        0.0021593552524274066
        0.0021677706675028541
        0.0021762131223250097
        0.0021846826438891389
        0.0021931792583585455
        0.0022017029910488374
        0.0022102538664119657
        0.0022188319080199506
        0.0022274371385483703
        0.0022360695797595483
        0.0022447292524854453
        0.0022534161766102944
        0.0022621303710528931
        0.0022708718537486337
        0.0022796406416311899
        0.0022871205725399492
        0.0022927249780794884
        0.0022983287870794356
        0.0023039320144266442
        0.0023095346746422147
        0.0023151367818862113
        0.0023207383499623756
        0.0023263393923225843
        0.0023319399220712903
        0.0023375399519699244
        0.0023431394944410399
        0.002348738561572528
        0.0023543371651216028
        0.0023599353165188
        0.0023655330268717778
        0.0023711303069691822
        0.0023767271672842445
        0.0023823236179784791
        0.0023879196689051275
        0.0023935153296126672
        0.0023991106093481577
        0.0024047055170604912
        0.0024103000614037061
        0.0024158942507400524
        0.0024214880931431085
        0.0024270815964007593
        0.0024326747680181644
        0.0024382676152205781
        0.0024438601449562371
        0.0024494523638990229
        0.0024550442784511974
        0.0024606358947459718
        0.0024662272186501298
        0.0024718182557664559
        0.0024774090114362333
        0.0024829994907416167
        0.0024885896985079449
        0.0024941796393060517
        0.0024997693174544657
        0.0025053587370215931
        0.0025109479018278293
        0.0025165368154476558
        0.0025221254812116439
        0.0025277139022084486
        0.0025333020812866982
        0.0025388900210569546
        0.0025444777238934598
        0.0025500651919359851
        0.0025556524270915633
        0.0025612394310362248
        0.0025668262052166197
        0.0025724127508516782
        0.0025779990689341419
        0.0025835851602321806
        0.0025891710252908479
        0.0025947566644335504
        0.0026003420777635034
        0.0026059272651650965
        0.0026115122263052591
        0.0026170969606347512
        0.0026226814673895112
        0.0026282657455918563
        0.0026338497940517043
        0.0026394336113677317
        0.0026450171959286179
        0.0026506005459140157
        0.0026561836592957399
        0.0026617665338388142
        0.0026673491671024559
        0.0026729315564410568
        0.002678513699005184
        0.0026840955917425001
        0.0026896772313986322
        0.0026952586145180947
        0.0027008397374450894
        0.0027064205963243425
        0.0027120011871018782
        0.0027175815055257954
        0.0027231615471470052
        0.0027287413073199076
        0.0027343207812030989
        0.0027398999637600163
        0.0027454788497595774
        0.0027510574337767406
        0.0027566357101931485
        0.0027622136731976356
        0.0027677913167867725
        0.0027733686347653666
        0.0027789456207469405
        0.0027845222681541857
        0.0027900985702194103
        0.002795674519984929
        0.0028012501103034768
        0.0028068253338385499
        0.0028124001830647513
        0.0028179746502681024
        0.0028235487275463699
        0.0028291224068092953
        0.0028346956797789015
        0.0028402685379896706
        0.0028458409727888062
        0.0028514129753363605
        0.0028569845366054588
        0.0028625556473824165
        0.0028681262982668781
        0.0028736964796718966
        0.002879266181824072
        0.0028848353947635349
        0.0028904041083440751
        0.0028959723122330919
        0.0029015399959116542
        0.0029071071486744576
        0.0029126737596297599
        0.0029182398176994177
        0.0029238053116187003
        0.0029293702299362373
        0.0029349345610139364
        0.0029404982930268061
        0.00294606141396282
        0.0029516239116227395
        0.0029571857736199179
        0.0029627469873800762
        0.002968307540141134
        0.0029738674189528627
        0.0029794266106766896
        0.0029849851019853753
        0.0029905428793627299
        0.0029960999291032682
        0.0030016562373118526
        0.0030072117899033616
        0.0030127665726022738
        0.0030183205709423096
        0.0030238737702659342
        0.0030294261557240066
        0.003034977712275243
        0.0030405284246857742
        0.0030460782775286557
        0.0030516272551833336
        0.0030571753418350946
        0.0030627225214745653
        0.00306826877789705
        0.0030738140947020034
        0.0030793584552924321
        0.0030849018428741925
        0.0030904442404553604
        0.0030959856308456447
        0.0031015259966555245
        0.0031070653202957179
        0.0031126035839763033
        0.0031181407697060937
        0.0031236768592917781
        0.0031292118343371664
        0.0031347456762423481
        0.0031402783662028986
        0.0031458098852090162
        0.0031513402140446291
        0.0031568693332865477
        0.0031623972233034742
        0.0031679238642551596
        0.0031734492360913562
        0.0031789733185509221
        0.0031844960911607783
        0.0031900175332348936
        0.0031955376238732274
        0.0032010563419607339
        0.0032065736661661586
        0.0032120895749410778
        0.0032176040465186268
        0.0032231170589124515
        0.0032286285899154775
        0.0032341386170987411
        0.0032396471178101223
        0.003245154069173159
        0.0032506594480857598
        0.0032561632312188816
        0.0032616653950152592
        0.0032671659156880304
        0.0032726647692193746
        0.0032781619313591416
        0.003283657377623437
        0.0032891510832931568
        0.003294643023412547
        0.0033001331727876906
        0.0033056215059850454
        0.003311107997329778
        0.0033165926209043559
        0.0033220753505468193
        0.0033275561598492143
        0.0033330350221559371
        0.003338511910562037
        0.0033439867979115257
        0.0033494596567956295
        0.0033549304595510104
        0.0033603991782580125
        0.0033658657847387826
        0.003371330250555471
        0.0033767925470082516
        0.003382252645133553
        0.0033877105157019524
        0.0033931661292163043
        0.0033986194559096918
        0.0034040704657433635
        0.0034095191284047011
        0.0034149654133050111
        0.0034204092895775248
        0.0034258507260751061
        0.0034312896913680831
        0.0034367261537419451
        0.003442160081195164
        0.0034475914414367512
        0.0034530202018839481
        0.0034584463296598667
        0.0034638697915909851
        0.0034692905542047037
        0.0034747085837268737
        0.0034801238460791537
        0.0034855363068764696
        0.003490945931424409
        0.0034963526847164722
        0.0035017565314314162
        0.0035071574359304375
        0.0035125553622544054
        0.0035179502741210103
        0.0035233421349218541
        0.0035287309077194767
        0.0035341165552444601
        0.0035394990398922707
        0.0035448783237202906
        0.0035502543684445887
        0.0035556271354368137
        0.0035609965857209018
        0.0035663626799698374
        0.0035717253785022686
        0.0035770846412791785
        0.0035824404279003598
        0.0035877926976009725
        0.0035931414092479951
        0.0035984865213365747
        0.003603827991986352
        0.0036091657789377807
        0.0036144998395482588
        0.003619830130788362
        0.0036251566092378638
        0.0036304792310817902
        0.0036357979521063786
        0.0036411127276949288
        0.0036464235128236986
        0.0036517302620575815
        0.0036570329295458545
        0.0036623314690177439
        0.0036676258337780474
        0.0036729159767024963
        0.0036782018502332543
        0.0036834834063741422
        0.0036887605966859707
        0.0036940333722816441
        0.00369930168382125
        0.0037045654815070742
        0.0037098247150785012
        0.003715079333806862
        0.0037203292864901273
        0.0037255745214476634
        0.0037308149865146771
        0.0037360506290367566
        0.0037412813958642177
        0.0037465072333464221
        0.0037517280873258919
        0.0037569439031324646
        0.0037621546255772191
        0.003767360198946375
        0.003772560566995055
        0.0037777556729409341
        0.0037829454594578123
        0.0037881298686690025
        0.0037933088421407209
        0.0037984823208751981
        0.0038036502453038805
        0.0038088125552802245
        0.0038139691900727093
        0.0038191200883573519
        0.0038242651882104796
        0.0038294044271009798
        0.0038345377418827222
        0.0038396650687866755
        0.0038447863434129307
        0.0038499015007225413
        0.0038550104750293083
        0.0038601131999912923
        0.0038652096086022416
        0.003870299633182854
        0.0038753832053718619
        0.0038804602561169485
        0.0038855307156654578
        0.0038905945135550694
        0.0038956515786041069
        0.0039007018389017553
        0.0039057452217981532
        0.0039107816538941241
        0.0039158110610309346
        0.0039208333682796154
        0.0039258484999302769
        0.0039308563794810654
        0.0039358569296270235
        0.0039408500722486152
        0.0039458357284001509
        0.0039508138182978436
        0.0039557842613077493
        0.0039607469759333587
        0.0039657018798030866
        0.0039706488896572821
        0.0039755879213352104
        0.0039805188897616252
        0.0039854417089330886
        0.0039903562919040691
        0.0039952625507726353
        0.0040001603966659969
        0.0040050497397256185
        0.0040099304890921028
        0.0040148025528896738
        0.0040196658382104416
        0.0040245202510982231
        0.0040293656965320595
        0.004034202078409395
        0.0040390292995288977
        0.0040438472615728352
        0.0040486558650891478
        0.0040534550094730882
        0.0040582445929484455
        0.0040630245125484049
        0.0040677946640958959
        0.0040725549421835707
        0.0040773052401533397
        0.0040820454500753245
        0.0040867754627265229
        0.0040914951675687814
        0.004096204452726424
        0.0041009032049632733
        0.0041055913096591555
        0.0041102686507858742
        0.0041149351108825862
        0.0041195905710306405
        0.0041242349108277197
        0.0041288680083615466
        0.0041334897401827568
        0.0041380999812772037
        0.0041426986050376617
        0.0041472854832346733
        0.0041518604859868101
        0.0041564234817301733
        0.0041609743371870955
        0.004165512917334053
        0.0041700390853688495
        0.0041745527026768731
        0.0041790536287965654
        0.0041835417213839403
        0.0041880168361762568
        0.0041924788269546605
        0.0041969275455059785
        0.0042013628415833752
        0.0042057845628660105
        0.0042101925549176957
        0.0042145866611443443
        0.0042189667227503615
        0.0042233325786937385
        0.0042276840656400678
        0.0042320210179151623
        0.0042363432674564373
        0.0042406506437629608
        0.0042449429738440052
        0.004249220082166264
        0.0042534817905994808
        0.0042577279183606187
        0.0042619582819563113
        0.0042661726951237332
        0.0042703709687697223
        0.0042745529109081129
        0.0042787183265952091
        0.0042828670178633645
        0.0042869987836525632
        0.0042911134197398601
        0.0042952107186668628
        0.0042992904696647948
        0.0043033524585773305
        0.0043073964677810984
        0.0043114222761035962
        0.0043154296587385194
        0.0043194183871585598
        0.0043233882290252008
        0.0043273403233918262
        0.0043312880917079025
        0.0043352349845364241
        0.004339180997605485
        0.0043431261266682758
        0.0043470703675030468
        0.0043510137159131464
        0.0043549561677270632
        0.004358897718798411
        0.0043628383650059794
        0.0043667781022537194
        0.00437071692647079
        0.0043746548336115517
        0.0043785918196555997
        0.0043825278806077202
        0.004386463012497975
        0.0043903972113816421
        0.0043943304733392551
        0.0043982627944766095
        0.0044021941709247257
        0.0044061245988398917
        0.0044100540744036664
        0.0044139825938228133
        0.0044179101533293689
        0.0044218367491805893
        0.0044257623776589768
        0.0044296870350722505
        0.004433610717753317
        0.0044375334220603082
        0.0044414551443765111
        0.0044453758811104048
        0.0044492956286956205
        0.0044532143835908991
        0.0044571321422801269
        0.0044610489012722621
        0.0044649646571013404
        0.0044688794063264684
        0.0044727931455317577
        0.0044767058713263237
        0.0044806175803442606
        0.0044845282692446012
        0.0044884379347112915
        0.0044923465734531881
        0.004496254182203961
        0.0045001607577221329
        0.0045040662967909912
        0.0045079707962186006
        0.0045118742528377056
        0.0045157766635057503
        0.0045196780251048358
        0.0045235783345416022
        0.0045274775887473029
        0.0045313757846776924
        0.0045352729193129859
        0.0045391689896578172
        0.004543063992741252
        0.0045469579256166362
        0.0045508507853616468
        0.0045547425690781818
        0.004558633273892344
        0.0045625228969543782
        0.0045664114354386012
        0.0045702988865434068
        0.0045741852474911445
        0.0045780705155281255
        0.0045819546879245299
        0.0045858377619743497
        0.0045897197349953605
        0.0045936006043290544
        0.0045974803673405678
        0.0046013590214186353
        0.0046052365639755281
        0.0046091129924469895
        0.004612988304292188
        0.0046168624969936409
        0.0046207355680571533
        0.0046246075150117591
        0.0046284783354096663
        0.0046323480268261521
        0.0046362165868595899
        0.0046400840131312487
        0.0046439503032853421
        0.0046478154549889125
        0.004651679465931792
        0.0046555423338264399
        0.0046594040564080291
        0.0046632646314342446
        0.0046671240566852606
        0.0046709823299636976
        0.004674839449094503
        0.0046786954119248988
        0.0046825502163243271
        0.0046864038601843495
        0.0046902563414185725
        0.0046941076579626031
        0.0046979578077739588
        0.0047018067888319704
        0.0047056545991377543
        0.004709501236714075
        0.0047133466996053435
        0.0047171909858774556
        0.0047210340936177887
        0.0047248760209350942
        0.0047287167659594035
        0.004732556326841969
        0.0047363947017552074
        0.0047402318888925526
        0.0047440678864684536
        0.0047479026927182517
        0.0047517363058980893
        0.0047555687242848664
        0.0047593999461761393
        0.0047632299698900493
        0.0047670587937652048
        0.0047708864161606773
        0.0047747128354558195
        0.0047785380500502536
        0.0047823620583637757
        0.0047861848588362744
        0.0047900064499276137
        0.0047938268301175807
        0.0047976459979058115
        0.0048014639518116848
        0.004805280690374252
        0.0048090962121521263
        0.0048129105157234337
        0.0048167235996857197
        0.0048205354626558502
        0.0048243461032699223
        0.0048281555201831992
        0.0048319637120700374
        0.0048357706776237467
        0.0048395764155565587
        0.0048433809245995198
        0.0048471842035024042
        0.0048509862510336225
        0.0048547870659801581
        0.0048585866471474509
        0.0048623849933593366
        0.004866182103457942
        0.0048699779763036258
        0.0048737726107748484
        0.0048775660057681185
        0.0048813581601978981
        0.0048851490729965152
        0.004888938743114097
        0.0048927271695184292
        0.0048965143511949189
        0.0049003002871464973
        0.0049040849763935341
        0.0049078684179737183
        0.0049116506109420158
        0.004915431554370569
        0.0049192112473485892
        0.0049229896889822966
        0.0049267668783948195
        0.0049305428147261186
        0.0049343174971328676
        0.0049380909247884082
        0.0049418630968826706
        0.0049456340126219946
        0.0049494036712291788
        0.0049531720719433025
        0.0049569392140196376
        0.0049607050967296184
        0.0049644697193607246
        0.004968233081216359
        0.0049719951816158334
        0.0049757560198942273
        0.0049795155954023207
        0.0049832739075065238
        0.0049870309555887383
        0.0049907867390463559
        0.0049945412572920669
        0.0049982945097539
        0.005002046495875003
        0.0050057972151136762
        0.0050095466669432005
        0.0050132948508518071
        0.0050170417663425422
        0.0050207874129332532
        0.005024531790156439
        0.0050282748975591851
        0.0050320167347030912
        0.0050357573011641952
        0.0050394965965328276
        0.0050432346204136239
        0.0050469713724253492
        0.0050507068522008978
        0.0050544410593871148
        0.0050581739936448201
        0.0050619056546486194
        0.0050656360420869209
        0.0050693651556617536
        0.0050730929950887895
        0.0050768195600971672
        0.0050805448504294597
        0.0050842688658415949
        0.0050879916061027392
        0.0050917130709952612
        0.0050954332603146161
        0.0050991521738692827
        0.0051028698114806538
        0.0051065861729830105
        0.0051103012582233839
        0.0051140150670615035
        0.0051177275993697273
        0.0051214388550329263
        0.0051251488339484515
        0.0051288575360260011
        0.0051325649611875836
        0.0051362711093674374
        0.005139975980511924
        0.005143679574579463
        0.0051473818915404642
        0.0051510829313772431
        0.0051547826940839363
        0.0051584811796664297
        0.0051621783881422717
        0.005165874319540624
        0.0051695689739021493
        0.0051732623512789656
        0.00517695445173455
        0.0051806452753436682
        0.0051843348221922905
        0.0051880230923775352
        0.0051917100860075964
        0.0051953958032016131
        0.0051990802440896834
        0.0052027634088127267
        0.00520644529752241
        0.0052101259103811111
        0.0052138052475618141
        0.0052174833092480614
