src/apps/iosdisplay/iosdisplay/OpenColorIOConfigs/spi-vfx/luts/vd8.spi1d
Version 1
From 0.0 1.0
Length 512
Components 1
{
        0.001110019965159161
        0.0027203661012988622
        0.0040914859414945106
        0.0051047172426651648
        0.0060172074460144963
        0.0068593752107940428
        0.0076502192214803252
        0.0084048023710989132
        0.0091336221464152108
        0.009843915586380543
        0.010540750724049636
        0.011227747021816996
        0.011907533412403819
        0.012582041947447309
        0.013252700093845604
        0.013920559723373364
        0.014586385676461691
        0.015250717875600853
        0.015913915711596789
        0.016576190274908132
        0.017237628072883024
        0.01789828726860725
        0.018561478747895436
        0.01922856866015302
        0.019898931646773501
        0.020571888085936157
        0.021246704832378088
        0.0219225954908377
        0.022598720267000137
        0.023274185423914698
        0.023948042360068363
        0.024619286316292847
        0.025286854711503132
        0.025949625101180023
        0.026606412746930895
        0.027255967779899554
        0.027896971934808671
        0.028528034824588811
        0.029147689717457449
        0.029754388768491749
        0.030346497645666191
        0.030922289475343093
        0.031479938013497903
        0.032055816415685376
        0.032649213221484806
        0.033254592606033827
        0.03387216900918627
        0.034502151576123248
        0.035144742409761072
        0.035800134579399352
        0.036468509865585953
        0.03715003622283114
        0.037844864944713306
        0.038553127520404969
        0.039274932178064409
        0.040010360119256724
        0.040759461459952101
        0.041522250908003405
        0.042298703224540532
        0.043088748537460093
        0.043892267598899262
        0.044709087104665896
        0.045538975220988133
        0.046381637491041468
        0.047236713318311509
        0.048103773243190429
        0.04898231724007026
        0.049871774261170482
        0.050771503237188702
        0.051680795711048798
        0.052598880228266816
        0.053524928536344232
        0.054458063558979385
        0.055397369014051262
        0.056341900444780615
        0.057290697340231157
        0.058242795943859803
        0.059197242295739881
        0.060153105031713526
        0.061109487474098251
        0.062065538592820567
        0.063020462488325824
        0.063973526140602269
        0.064924065272616752
        0.065871488281428192
        0.066815278287218519
        0.067754993432458194
        0.068690265625950972
        0.069620797967837114
        0.070546361112355904
        0.071466788827697691
        0.072381973000129482
        0.073291858306754804
        0.074196436751703135
        0.075095742227721654
        0.075989845231897155
        0.07687884783266323
        0.077762878956744941
        0.078642090040041537
        0.07951665106594101
        0.080386746998146061
        0.081252574602453123
        0.082114339642647652
        0.082972254429241013
        0.083826535695678231
        0.084677402774413421
        0.085525076044446521
        0.086369775622179346
        0.087211720268464576
        0.088051126486251255
        0.088888207785067924
        0.089723174090587526
        0.090556231279576432
        0.091387580822555992
        0.092217419518454177
        0.093045939307355136
        0.093873327149146563
        0.094699764957410962
        0.095525429579301865
        0.096350492813397332
        0.097175121458632788
        0.097999477388396608
        0.098823717644734466
        0.099647994548361207
        0.10047245582083628
        0.1012972447158231
        0.10212250015685299
        0.10294835687942738
        0.10377494557566568
        0.10460239304000885
        0.10543082231476247
        0.106260352834486
        0.10709110056842658
        0.10792317816036241
        0.10875669506535564
        0.10959175768303221
        0.11042846948710335
        0.11126693115092216
        0.11210724066894319
        0.11294949347400041
        0.11379378255037007
        0.11464019854262548
        0.11548882986031107
        0.11633976692835206
        0.11719356890849769
        0.11805063205492738
        0.11891102297935202
        0.1197748072071186
        0.12064204925604129
        0.12151281271017801
        0.12238716028896832
        0.12326515391211103
        0.12414685476052176
        0.12503232333368453
        0.12592161950367814
        0.12681480256613631
        0.12771193128837688
        0.1286130639549147
        0.12951825841055659
        0.13042757210125469
        0.13134106211288887
        0.13225878520812545
        0.13318079786149448
        0.1341071562928112
        0.1350379164990643
        0.1359731342848759
        0.13691286529163652
        0.1378571650254074
        0.13880608888367699
        0.1397596921810515
        0.14071803017395293
        0.14168115808439502
        0.14264913112289959
        0.14362200451061452
        0.14459983350068706
        0.14558267339894643
        0.14657057958394232
        0.14756360752638603
        0.14856181280803543
        0.14956525114006372
        0.15057397838094982
        0.15158805055392519
        0.15260752386400883
        0.1536324547146643
        0.15466289972410191
        0.15569891574126321
        0.15674055986150345
        0.15778788944200425
        0.15884096211693516
        0.1598998358123889
        0.16096456876111132
        0.16203521951704294
        0.1631118469696945
        0.16419451035837448
        0.16528326928628301
        0.16637818373449184
        0.16747931407582511
        0.16858672108865555
        0.16970046597063318
        0.17082061035235696
        0.17194721631100601
        0.17308034638394429
        0.17422006358230649
        0.17536643140458374
        0.17651951385021872
        0.17767937543321904
        0.17884608119580622
        0.18001969678235552
        0.18120012566795363
        0.18238726619893109
        0.18358117958428247
        0.1847819275578283
        0.18598957239120484
        0.18720417690693933
        0.18842580449162605
        0.18965451910920925
        0.1908903853143851
        0.19213346826612565
        0.19338383374134846
        0.19464154814872137
        0.19590667854262869
        0.1971792926373015
        0.19845945882111837
        0.19974724617109396
        0.20104272446755533
        0.20234596420902551
        0.20365703662731521
        0.20497601370283958
        0.20630296818016353
        0.20763797358379157
        0.20898110423420804
        0.21033243526417986
        0.21169204263533159
        0.21306000315500392
        0.21443639449340846
        0.21582129520108456
        0.21721478472667402
        0.21861694343502672
        0.2200278526256417
        0.22144759455146329
        0.2228762524380426
        0.2243139105030735
        0.22576065397632075
        0.22721656911995258
        0.22868174324928875
        0.23015626475398121
        0.2316402231196413
        0.23313370894992771
        0.23463681398911101
        0.23614963114512946
        0.23767225451315527
        0.23920477939968618
        0.24074730234717837
        0.24229992115923987
        0.24386273492640945
        0.24543584405252344
        0.24701935028171121
        0.24861335672602197
        0.25021796789371653
        0.25183328971823782
        0.25345942958788525
        0.25509649637622012
        0.25674460047322178
        0.2584038538172172
        0.26007436992762029
        0.26175626393849766
        0.26344965263299086
        0.26515465447863285
        0.26687138966357332
        0.26859998013376074
        0.27034054963109805
        0.27209322373262346
        0.27385812989072877
        0.27563539747447635
        0.2774251578120347
        0.27922754423427465
        0.28104269211958011
        0.28287073893989972
        0.28471182430808883
        0.28656609002659583
        0.2884336801375334
        0.29031474097417997
        0.29220942121398147
        0.2941178719330852
        0.29604024666248241
        0.29797670144580579
        0.29992739489885051
        0.30189248827088128
        0.3038721455077894
        0.30586653331717972
        0.3078758212354521
        0.30990018169695233
        0.31193979010528738
        0.31399482490687058
        0.3160654676667991
        0.31815190314714648
        0.32025431938776894
        0.32237290778973526
        0.32450786320146413
        0.32665938400770905
        0.32882767222147635
        0.33101293357902345
        0.33321537763804954
        0.3354352178792161
        0.33767267181114002
        0.33992796107900797
        0.34220131157696099
        0.344492953564417
        0.34680312178650496
        0.34913205559877897
        0.35147999909642047
        0.35384720124811159
        0.35623391603479432
        0.35864040259354502
        0.36106692536678459
        0.36351375425708243
        0.36598116478780279
        0.36846943826987544
        0.3709788619749757
        0.37350972931542303
        0.37606234003111461
        0.37863700038384424
        0.38123402335935336
        0.3838537288775164
        0.38649644401104843
        0.38916250321316859
        0.39185224855467515
        0.39456602997091833
        0.39730420551917117
        0.40006714164694918
        0.40285521347186082
        0.40566880507358638
        0.40850830979865416
        0.41137413057869671
        0.41426668026292723
        0.41718638196563723
        0.42013366942953068
        0.42310898740581332
        0.42611279205198366
        0.42914555134833843
        0.43220774553430996
        0.43529986756577144
        0.43842242359458872
        0.44157593347174057
        0.44476093127545913
        0.44797796586590677
        0.45122760146807939
        0.45451041828468558
        0.45782701314092539
        0.46117800016323357
        0.4645640114941888
        0.46798569804599871
        0.47144373029513348
        0.47493879912088716
        0.47847161669090282
        0.48204291739689376
        0.48565345884412892
        0.48930402289847963
        0.49299541679521747
        0.49672847431405703
        0.50050405702537826
        0.50432305561298019
        0.50818639127918164
        0.512095017238688
        0.5160499203081218
        0.52005212259890532
        0.52410268332178289
        0.52820270071218811
        0.53235331408648057
        0.53655570604013758
        0.54081110480009464
        0.54512078674466036
        0.5494860791059013
        0.55390836287089695
        0.55838907590014386
        0.56292971628330768
        0.56753184595484185
        0.57219709459456347
        0.57692716384116605
        0.58172383184997745
        0.58658895823004764
        0.59152448939995395
        0.5965324644066422
        0.60161502125729216
        0.60677440382068426
        0.61201296936209704
        0.61733319678439491
        0.62273769565808379
        0.62822921613484051
        0.63381065985267626
        0.63948509195693115
        0.64525575438017613
        0.65112608054622645
        0.65709971168982007
        0.6631805150147343
        0.66937260395038056
        0.67568036081154659
        0.68210846221978938
        0.68866190770988123
        0.69534605202381461
        0.70216664169135989
        0.70912985661475147
        0.71624235752168175
        0.72351134033297237
        0.73094459871941742
        0.73855059640974419
        0.74633855117673631
        0.75431853289571416
        0.76250157867273027
        0.7708998288252713
        0.77952668853154383
        0.78839702133769851
        0.79752738255850986
        0.80693630311969888
        0.81664463785558616
        0.82667599712609419
        0.83705728751470954
        0.84781939735272438
        0.85899807754990642
        0.8706298315820189
        0.88258008332509152
        0.89477779854517225
        0.90723119806185148
        0.91994886977235601
        0.93293978911581688
        0.9462133409188106
        0.95977934273208954
        0.97364806977845408
        0.98783028164284248
        1.0023372508481105
        1.0171807934735779
        1.0323733019884702
        1.0479277804893135
        1.0638578825488363
        1.0801779519046975
        1.0969030662395307
        1.11404908432939
        1.1316326968665464
        1.1496714812946918
        1.1681839610305957
        1.187189669486584
        1.2067092193536515
        1.2267643776558466
        1.2473781471440981
        1.2685748546624276
        1.2903802471927046
        1.3128215963669756
        1.3359278123304863
        1.3597295679451826
        1.384259434445166
        1.409552029794136
        1.435644181153068
        1.4625751030479757
        1.490386593035341
        1.5191232469019853
        1.5488326957117728
        1.5795658673296165
        1.6113772754216691
        1.6443253393579464
        1.6784727389410021
        1.7138868084641254
        1.7506399752809494
        1.7888102488639726
        1.8284817672651552
        1.8697454089961101
        1.9126994796519123
        1.9574504841541611
        2.0041139973378139
        2.0528156478162063
        2.1036922327116039
        2.1568929840336328
        2.2125810113531408
        2.2709349501129799
        2.3321508506442545
        2.3964443499742543
        2.4640531771558001
        2.5352400535438973
        2.6102960627566674
        2.6895445817115728
        2.7733458850912549
        2.8621025621425131
        2.9562659185601743
        3.0563435796609113
        3.1629085672518782
        3.2766101958560494
        3.398187230252165
        3.5284838740015174
        3.6684693296469497
        3.8192619026200476
        3.9821589373408304
        4.1586743120248952
        4.3505858328964386
        4.5599957418116857
        4.7894088121246723
        5.0418343585672956
        5.3209212544929212
        5.6311392727865757
        5.9780266573700569
        6.3685343808018713
        6.8115149138602096
        7.318432876317905
        7.9044270832184047
        8.5899495867345355
        9.403393563061833
        10.385505452390833
        11.597227271715417
        13.134684159481079
        15.16071053508208
        17.980684498664246
        22.266436502296507
        30.015088625547026
        64.0
}
